(G-CODE GENERATED BY FLATCAM v8.994 - www.flatcam.org - Version Date: 2020/11/7)

(Name: SD cc1101 def-Edge_Cuts.gbr_cutout_1_cnc)
(Type: G-code from Geometry)
(Units: MM)

(Created on Thursday, 15 August 2024 at 14:21)

(This preprocessor is the default preprocessor used by FlatCAM.)
(It is made to work with MACH3 compatible motion controllers.)

(TOOL DIAMETER: 2.0 mm)
(Feedrate_XY: 120.0 mm/min)
(Feedrate_Z: 60.0 mm/min)
(Feedrate rapids 1500.0 mm/min)

(Z_Cut: -2.4 mm)
(DepthPerCut: 0.3 mm <=>8 passes)
(Z_Move: 2.0 mm)
(Z Start: None mm)
(Z End: 15.0 mm)
(X,Y End: None mm)
(Steps per circle: 64)
(Preprocessor Geometry: default)

(X range:    1.1499 ...   39.3501  mm)
(Y range:    0.1499 ...   20.8501  mm)

(Spindle Speed: 18000.0 RPM)
G21
G90
G94

G01 F120.00

M5
G00 Z15.0000
G00 X0.0000 Y0.0000
T1
M6    
(MSG, Change to Tool Dia = 2.0000)
M0
G00 Z15.0000

M03 S18000.0
G01 F120.00
G00 X1.1499 Y8.6000
G01 F60.00
G01 Z-0.3000
G01 F120.00
G01 X1.1499 Y7.5000
G01 X1.1512 Y7.4460
G01 X1.1524 Y7.4215
G01 X1.1630 Y7.3141
G01 X1.1666 Y7.2898
G01 X1.1876 Y7.1839
G01 X1.1936 Y7.1601
G01 X1.2249 Y7.0568
G01 X1.2332 Y7.0337
G01 X1.2745 Y6.9340
G01 X1.2850 Y6.9118
G01 X1.3359 Y6.8166
G01 X1.3485 Y6.7955
G01 X1.4085 Y6.7058
G01 X1.4231 Y6.6861
G01 X1.4916 Y6.6026
G01 X1.5081 Y6.5844
G01 X1.5453 Y6.5453
G01 X5.5453 Y2.5453
G01 X5.5844 Y2.5081
G01 X5.6026 Y2.4916
G01 X5.6861 Y2.4231
G01 X5.7058 Y2.4085
G01 X5.7955 Y2.3485
G01 X5.8166 Y2.3359
G01 X5.9118 Y2.2850
G01 X5.9340 Y2.2745
G01 X6.0337 Y2.2332
G01 X6.0568 Y2.2249
G01 X6.1601 Y2.1936
G01 X6.1839 Y2.1876
G01 X6.2898 Y2.1666
G01 X6.3141 Y2.1630
G01 X6.4215 Y2.1524
G01 X6.4460 Y2.1512
G01 X6.5000 Y2.1499
G01 X15.0000 Y2.1499
G01 X15.0540 Y2.1512
G01 X15.0785 Y2.1524
G01 X15.1859 Y2.1630
G01 X15.2102 Y2.1666
G01 X15.3161 Y2.1876
G01 X15.3399 Y2.1936
G01 X15.4432 Y2.2249
G01 X15.4663 Y2.2332
G01 X15.5660 Y2.2745
G01 X15.5882 Y2.2850
G01 X15.6834 Y2.3359
G01 X15.7045 Y2.3485
G01 X15.7942 Y2.4085
G01 X15.8139 Y2.4231
G01 X15.8974 Y2.4916
G01 X15.9156 Y2.5081
G01 X15.9547 Y2.5453
G01 X17.0592 Y3.6499
G01 X18.3500 Y3.6499
G00 X18.3500 Y3.6499
G01 F60.00
G01 Z-0.6000
G01 F120.00
G01 X17.0592 Y3.6499
G01 X15.9547 Y2.5453
G01 X15.9156 Y2.5081
G01 X15.8974 Y2.4916
G01 X15.8139 Y2.4231
G01 X15.7942 Y2.4085
G01 X15.7045 Y2.3485
G01 X15.6834 Y2.3359
G01 X15.5882 Y2.2850
G01 X15.5660 Y2.2745
G01 X15.4663 Y2.2332
G01 X15.4432 Y2.2249
G01 X15.3399 Y2.1936
G01 X15.3161 Y2.1876
G01 X15.2102 Y2.1666
G01 X15.1859 Y2.1630
G01 X15.0785 Y2.1524
G01 X15.0540 Y2.1512
G01 X15.0000 Y2.1499
G01 X6.5000 Y2.1499
G01 X6.4460 Y2.1512
G01 X6.4215 Y2.1524
G01 X6.3141 Y2.1630
G01 X6.2898 Y2.1666
G01 X6.1839 Y2.1876
G01 X6.1601 Y2.1936
G01 X6.0568 Y2.2249
G01 X6.0337 Y2.2332
G01 X5.9340 Y2.2745
G01 X5.9118 Y2.2850
G01 X5.8166 Y2.3359
G01 X5.7955 Y2.3485
G01 X5.7058 Y2.4085
G01 X5.6861 Y2.4231
G01 X5.6026 Y2.4916
G01 X5.5844 Y2.5081
G01 X5.5453 Y2.5453
G01 X1.5453 Y6.5453
G01 X1.5081 Y6.5844
G01 X1.4916 Y6.6026
G01 X1.4231 Y6.6861
G01 X1.4085 Y6.7058
G01 X1.3485 Y6.7955
G01 X1.3359 Y6.8166
G01 X1.2850 Y6.9118
G01 X1.2745 Y6.9340
G01 X1.2332 Y7.0337
G01 X1.2249 Y7.0568
G01 X1.1936 Y7.1601
G01 X1.1876 Y7.1839
G01 X1.1666 Y7.2898
G01 X1.1630 Y7.3141
G01 X1.1524 Y7.4215
G01 X1.1512 Y7.4460
G01 X1.1499 Y7.5000
G01 X1.1499 Y8.6000
G00 X1.1499 Y8.6000
G01 F60.00
G01 Z-0.9000
G01 F120.00
G01 X1.1499 Y7.5000
G01 X1.1512 Y7.4460
G01 X1.1524 Y7.4215
G01 X1.1630 Y7.3141
G01 X1.1666 Y7.2898
G01 X1.1876 Y7.1839
G01 X1.1936 Y7.1601
G01 X1.2249 Y7.0568
G01 X1.2332 Y7.0337
G01 X1.2745 Y6.9340
G01 X1.2850 Y6.9118
G01 X1.3359 Y6.8166
G01 X1.3485 Y6.7955
G01 X1.4085 Y6.7058
G01 X1.4231 Y6.6861
G01 X1.4916 Y6.6026
G01 X1.5081 Y6.5844
G01 X1.5453 Y6.5453
G01 X5.5453 Y2.5453
G01 X5.5844 Y2.5081
G01 X5.6026 Y2.4916
G01 X5.6861 Y2.4231
G01 X5.7058 Y2.4085
G01 X5.7955 Y2.3485
G01 X5.8166 Y2.3359
G01 X5.9118 Y2.2850
G01 X5.9340 Y2.2745
G01 X6.0337 Y2.2332
G01 X6.0568 Y2.2249
G01 X6.1601 Y2.1936
G01 X6.1839 Y2.1876
G01 X6.2898 Y2.1666
G01 X6.3141 Y2.1630
G01 X6.4215 Y2.1524
G01 X6.4460 Y2.1512
G01 X6.5000 Y2.1499
G01 X15.0000 Y2.1499
G01 X15.0540 Y2.1512
G01 X15.0785 Y2.1524
G01 X15.1859 Y2.1630
G01 X15.2102 Y2.1666
G01 X15.3161 Y2.1876
G01 X15.3399 Y2.1936
G01 X15.4432 Y2.2249
G01 X15.4663 Y2.2332
G01 X15.5660 Y2.2745
G01 X15.5882 Y2.2850
G01 X15.6834 Y2.3359
G01 X15.7045 Y2.3485
G01 X15.7942 Y2.4085
G01 X15.8139 Y2.4231
G01 X15.8974 Y2.4916
G01 X15.9156 Y2.5081
G01 X15.9547 Y2.5453
G01 X17.0592 Y3.6499
G01 X18.3500 Y3.6499
G00 X18.3500 Y3.6499
G01 F60.00
G01 Z-1.2000
G01 F120.00
G01 X17.0592 Y3.6499
G01 X15.9547 Y2.5453
G01 X15.9156 Y2.5081
G01 X15.8974 Y2.4916
G01 X15.8139 Y2.4231
G01 X15.7942 Y2.4085
G01 X15.7045 Y2.3485
G01 X15.6834 Y2.3359
G01 X15.5882 Y2.2850
G01 X15.5660 Y2.2745
G01 X15.4663 Y2.2332
G01 X15.4432 Y2.2249
G01 X15.3399 Y2.1936
G01 X15.3161 Y2.1876
G01 X15.2102 Y2.1666
G01 X15.1859 Y2.1630
G01 X15.0785 Y2.1524
G01 X15.0540 Y2.1512
G01 X15.0000 Y2.1499
G01 X6.5000 Y2.1499
G01 X6.4460 Y2.1512
G01 X6.4215 Y2.1524
G01 X6.3141 Y2.1630
G01 X6.2898 Y2.1666
G01 X6.1839 Y2.1876
G01 X6.1601 Y2.1936
G01 X6.0568 Y2.2249
G01 X6.0337 Y2.2332
G01 X5.9340 Y2.2745
G01 X5.9118 Y2.2850
G01 X5.8166 Y2.3359
G01 X5.7955 Y2.3485
G01 X5.7058 Y2.4085
G01 X5.6861 Y2.4231
G01 X5.6026 Y2.4916
G01 X5.5844 Y2.5081
G01 X5.5453 Y2.5453
G01 X1.5453 Y6.5453
G01 X1.5081 Y6.5844
G01 X1.4916 Y6.6026
G01 X1.4231 Y6.6861
G01 X1.4085 Y6.7058
G01 X1.3485 Y6.7955
G01 X1.3359 Y6.8166
G01 X1.2850 Y6.9118
G01 X1.2745 Y6.9340
G01 X1.2332 Y7.0337
G01 X1.2249 Y7.0568
G01 X1.1936 Y7.1601
G01 X1.1876 Y7.1839
G01 X1.1666 Y7.2898
G01 X1.1630 Y7.3141
G01 X1.1524 Y7.4215
G01 X1.1512 Y7.4460
G01 X1.1499 Y7.5000
G01 X1.1499 Y8.6000
G00 X1.1499 Y8.6000
G01 F60.00
G01 Z-1.5000
G01 F120.00
G01 X1.1499 Y7.5000
G01 X1.1512 Y7.4460
G01 X1.1524 Y7.4215
G01 X1.1630 Y7.3141
G01 X1.1666 Y7.2898
G01 X1.1876 Y7.1839
G01 X1.1936 Y7.1601
G01 X1.2249 Y7.0568
G01 X1.2332 Y7.0337
G01 X1.2745 Y6.9340
G01 X1.2850 Y6.9118
G01 X1.3359 Y6.8166
G01 X1.3485 Y6.7955
G01 X1.4085 Y6.7058
G01 X1.4231 Y6.6861
G01 X1.4916 Y6.6026
G01 X1.5081 Y6.5844
G01 X1.5453 Y6.5453
G01 X5.5453 Y2.5453
G01 X5.5844 Y2.5081
G01 X5.6026 Y2.4916
G01 X5.6861 Y2.4231
G01 X5.7058 Y2.4085
G01 X5.7955 Y2.3485
G01 X5.8166 Y2.3359
G01 X5.9118 Y2.2850
G01 X5.9340 Y2.2745
G01 X6.0337 Y2.2332
G01 X6.0568 Y2.2249
G01 X6.1601 Y2.1936
G01 X6.1839 Y2.1876
G01 X6.2898 Y2.1666
G01 X6.3141 Y2.1630
G01 X6.4215 Y2.1524
G01 X6.4460 Y2.1512
G01 X6.5000 Y2.1499
G01 X15.0000 Y2.1499
G01 X15.0540 Y2.1512
G01 X15.0785 Y2.1524
G01 X15.1859 Y2.1630
G01 X15.2102 Y2.1666
G01 X15.3161 Y2.1876
G01 X15.3399 Y2.1936
G01 X15.4432 Y2.2249
G01 X15.4663 Y2.2332
G01 X15.5660 Y2.2745
G01 X15.5882 Y2.2850
G01 X15.6834 Y2.3359
G01 X15.7045 Y2.3485
G01 X15.7942 Y2.4085
G01 X15.8139 Y2.4231
G01 X15.8974 Y2.4916
G01 X15.9156 Y2.5081
G01 X15.9547 Y2.5453
G01 X17.0592 Y3.6499
G01 X18.3500 Y3.6499
G00 X18.3500 Y3.6499
G01 F60.00
G01 Z-1.8000
G01 F120.00
G01 X17.0592 Y3.6499
G01 X15.9547 Y2.5453
G01 X15.9156 Y2.5081
G01 X15.8974 Y2.4916
G01 X15.8139 Y2.4231
G01 X15.7942 Y2.4085
G01 X15.7045 Y2.3485
G01 X15.6834 Y2.3359
G01 X15.5882 Y2.2850
G01 X15.5660 Y2.2745
G01 X15.4663 Y2.2332
G01 X15.4432 Y2.2249
G01 X15.3399 Y2.1936
G01 X15.3161 Y2.1876
G01 X15.2102 Y2.1666
G01 X15.1859 Y2.1630
G01 X15.0785 Y2.1524
G01 X15.0540 Y2.1512
G01 X15.0000 Y2.1499
G01 X6.5000 Y2.1499
G01 X6.4460 Y2.1512
G01 X6.4215 Y2.1524
G01 X6.3141 Y2.1630
G01 X6.2898 Y2.1666
G01 X6.1839 Y2.1876
G01 X6.1601 Y2.1936
G01 X6.0568 Y2.2249
G01 X6.0337 Y2.2332
G01 X5.9340 Y2.2745
G01 X5.9118 Y2.2850
G01 X5.8166 Y2.3359
G01 X5.7955 Y2.3485
G01 X5.7058 Y2.4085
G01 X5.6861 Y2.4231
G01 X5.6026 Y2.4916
G01 X5.5844 Y2.5081
G01 X5.5453 Y2.5453
G01 X1.5453 Y6.5453
G01 X1.5081 Y6.5844
G01 X1.4916 Y6.6026
G01 X1.4231 Y6.6861
G01 X1.4085 Y6.7058
G01 X1.3485 Y6.7955
G01 X1.3359 Y6.8166
G01 X1.2850 Y6.9118
G01 X1.2745 Y6.9340
G01 X1.2332 Y7.0337
G01 X1.2249 Y7.0568
G01 X1.1936 Y7.1601
G01 X1.1876 Y7.1839
G01 X1.1666 Y7.2898
G01 X1.1630 Y7.3141
G01 X1.1524 Y7.4215
G01 X1.1512 Y7.4460
G01 X1.1499 Y7.5000
G01 X1.1499 Y8.6000
G00 X1.1499 Y8.6000
G01 F60.00
G01 Z-2.1000
G01 F120.00
G01 X1.1499 Y7.5000
G01 X1.1512 Y7.4460
G01 X1.1524 Y7.4215
G01 X1.1630 Y7.3141
G01 X1.1666 Y7.2898
G01 X1.1876 Y7.1839
G01 X1.1936 Y7.1601
G01 X1.2249 Y7.0568
G01 X1.2332 Y7.0337
G01 X1.2745 Y6.9340
G01 X1.2850 Y6.9118
G01 X1.3359 Y6.8166
G01 X1.3485 Y6.7955
G01 X1.4085 Y6.7058
G01 X1.4231 Y6.6861
G01 X1.4916 Y6.6026
G01 X1.5081 Y6.5844
G01 X1.5453 Y6.5453
G01 X5.5453 Y2.5453
G01 X5.5844 Y2.5081
G01 X5.6026 Y2.4916
G01 X5.6861 Y2.4231
G01 X5.7058 Y2.4085
G01 X5.7955 Y2.3485
G01 X5.8166 Y2.3359
G01 X5.9118 Y2.2850
G01 X5.9340 Y2.2745
G01 X6.0337 Y2.2332
G01 X6.0568 Y2.2249
G01 X6.1601 Y2.1936
G01 X6.1839 Y2.1876
G01 X6.2898 Y2.1666
G01 X6.3141 Y2.1630
G01 X6.4215 Y2.1524
G01 X6.4460 Y2.1512
G01 X6.5000 Y2.1499
G01 X15.0000 Y2.1499
G01 X15.0540 Y2.1512
G01 X15.0785 Y2.1524
G01 X15.1859 Y2.1630
G01 X15.2102 Y2.1666
G01 X15.3161 Y2.1876
G01 X15.3399 Y2.1936
G01 X15.4432 Y2.2249
G01 X15.4663 Y2.2332
G01 X15.5660 Y2.2745
G01 X15.5882 Y2.2850
G01 X15.6834 Y2.3359
G01 X15.7045 Y2.3485
G01 X15.7942 Y2.4085
G01 X15.8139 Y2.4231
G01 X15.8974 Y2.4916
G01 X15.9156 Y2.5081
G01 X15.9547 Y2.5453
G01 X17.0592 Y3.6499
G01 X18.3500 Y3.6499
G00 X18.3500 Y3.6499
G01 F60.00
G01 Z-2.4000
G01 F120.00
G01 X17.0592 Y3.6499
G01 X15.9547 Y2.5453
G01 X15.9156 Y2.5081
G01 X15.8974 Y2.4916
G01 X15.8139 Y2.4231
G01 X15.7942 Y2.4085
G01 X15.7045 Y2.3485
G01 X15.6834 Y2.3359
G01 X15.5882 Y2.2850
G01 X15.5660 Y2.2745
G01 X15.4663 Y2.2332
G01 X15.4432 Y2.2249
G01 X15.3399 Y2.1936
G01 X15.3161 Y2.1876
G01 X15.2102 Y2.1666
G01 X15.1859 Y2.1630
G01 X15.0785 Y2.1524
G01 X15.0540 Y2.1512
G01 X15.0000 Y2.1499
G01 X6.5000 Y2.1499
G01 X6.4460 Y2.1512
G01 X6.4215 Y2.1524
G01 X6.3141 Y2.1630
G01 X6.2898 Y2.1666
G01 X6.1839 Y2.1876
G01 X6.1601 Y2.1936
G01 X6.0568 Y2.2249
G01 X6.0337 Y2.2332
G01 X5.9340 Y2.2745
G01 X5.9118 Y2.2850
G01 X5.8166 Y2.3359
G01 X5.7955 Y2.3485
G01 X5.7058 Y2.4085
G01 X5.6861 Y2.4231
G01 X5.6026 Y2.4916
G01 X5.5844 Y2.5081
G01 X5.5453 Y2.5453
G01 X1.5453 Y6.5453
G01 X1.5081 Y6.5844
G01 X1.4916 Y6.6026
G01 X1.4231 Y6.6861
G01 X1.4085 Y6.7058
G01 X1.3485 Y6.7955
G01 X1.3359 Y6.8166
G01 X1.2850 Y6.9118
G01 X1.2745 Y6.9340
G01 X1.2332 Y7.0337
G01 X1.2249 Y7.0568
G01 X1.1936 Y7.1601
G01 X1.1876 Y7.1839
G01 X1.1666 Y7.2898
G01 X1.1630 Y7.3141
G01 X1.1524 Y7.4215
G01 X1.1512 Y7.4460
G01 X1.1499 Y7.5000
G01 X1.1499 Y8.6000
G00 Z2.0000
G00 X1.1499 Y12.6000
G01 F60.00
G01 Z-0.3000
G01 F120.00
G01 X1.1499 Y16.0000
G01 X1.1512 Y16.0540
G01 X1.1524 Y16.0785
G01 X1.1630 Y16.1859
G01 X1.1666 Y16.2102
G01 X1.1876 Y16.3161
G01 X1.1936 Y16.3399
G01 X1.2249 Y16.4432
G01 X1.2332 Y16.4663
G01 X1.2745 Y16.5660
G01 X1.2850 Y16.5882
G01 X1.3359 Y16.6834
G01 X1.3485 Y16.7045
G01 X1.4085 Y16.7942
G01 X1.4231 Y16.8139
G01 X1.4916 Y16.8974
G01 X1.5081 Y16.9156
G01 X1.5453 Y16.9547
G01 X5.0453 Y20.4547
G01 X5.0844 Y20.4919
G01 X5.1026 Y20.5084
G01 X5.1861 Y20.5769
G01 X5.2058 Y20.5915
G01 X5.2955 Y20.6515
G01 X5.3166 Y20.6641
G01 X5.4118 Y20.7150
G01 X5.4340 Y20.7255
G01 X5.5337 Y20.7668
G01 X5.5568 Y20.7751
G01 X5.6601 Y20.8064
G01 X5.6839 Y20.8124
G01 X5.7898 Y20.8334
G01 X5.8141 Y20.8370
G01 X5.9215 Y20.8476
G01 X5.9460 Y20.8488
G01 X6.0000 Y20.8501
G01 X18.3500 Y20.8501
G00 X18.3500 Y20.8501
G01 F60.00
G01 Z-0.6000
G01 F120.00
G01 X6.0000 Y20.8501
G01 X5.9460 Y20.8488
G01 X5.9215 Y20.8476
G01 X5.8141 Y20.8370
G01 X5.7898 Y20.8334
G01 X5.6839 Y20.8124
G01 X5.6601 Y20.8064
G01 X5.5568 Y20.7751
G01 X5.5337 Y20.7668
G01 X5.4340 Y20.7255
G01 X5.4118 Y20.7150
G01 X5.3166 Y20.6641
G01 X5.2955 Y20.6515
G01 X5.2058 Y20.5915
G01 X5.1861 Y20.5769
G01 X5.1026 Y20.5084
G01 X5.0844 Y20.4919
G01 X5.0453 Y20.4547
G01 X1.5453 Y16.9547
G01 X1.5081 Y16.9156
G01 X1.4916 Y16.8974
G01 X1.4231 Y16.8139
G01 X1.4085 Y16.7942
G01 X1.3485 Y16.7045
G01 X1.3359 Y16.6834
G01 X1.2850 Y16.5882
G01 X1.2745 Y16.5660
G01 X1.2332 Y16.4663
G01 X1.2249 Y16.4432
G01 X1.1936 Y16.3399
G01 X1.1876 Y16.3161
G01 X1.1666 Y16.2102
G01 X1.1630 Y16.1859
G01 X1.1524 Y16.0785
G01 X1.1512 Y16.0540
G01 X1.1499 Y16.0000
G01 X1.1499 Y12.6000
G00 X1.1499 Y12.6000
G01 F60.00
G01 Z-0.9000
G01 F120.00
G01 X1.1499 Y16.0000
G01 X1.1512 Y16.0540
G01 X1.1524 Y16.0785
G01 X1.1630 Y16.1859
G01 X1.1666 Y16.2102
G01 X1.1876 Y16.3161
G01 X1.1936 Y16.3399
G01 X1.2249 Y16.4432
G01 X1.2332 Y16.4663
G01 X1.2745 Y16.5660
G01 X1.2850 Y16.5882
G01 X1.3359 Y16.6834
G01 X1.3485 Y16.7045
G01 X1.4085 Y16.7942
G01 X1.4231 Y16.8139
G01 X1.4916 Y16.8974
G01 X1.5081 Y16.9156
G01 X1.5453 Y16.9547
G01 X5.0453 Y20.4547
G01 X5.0844 Y20.4919
G01 X5.1026 Y20.5084
G01 X5.1861 Y20.5769
G01 X5.2058 Y20.5915
G01 X5.2955 Y20.6515
G01 X5.3166 Y20.6641
G01 X5.4118 Y20.7150
G01 X5.4340 Y20.7255
G01 X5.5337 Y20.7668
G01 X5.5568 Y20.7751
G01 X5.6601 Y20.8064
G01 X5.6839 Y20.8124
G01 X5.7898 Y20.8334
G01 X5.8141 Y20.8370
G01 X5.9215 Y20.8476
G01 X5.9460 Y20.8488
G01 X6.0000 Y20.8501
G01 X18.3500 Y20.8501
G00 X18.3500 Y20.8501
G01 F60.00
G01 Z-1.2000
G01 F120.00
G01 X6.0000 Y20.8501
G01 X5.9460 Y20.8488
G01 X5.9215 Y20.8476
G01 X5.8141 Y20.8370
G01 X5.7898 Y20.8334
G01 X5.6839 Y20.8124
G01 X5.6601 Y20.8064
G01 X5.5568 Y20.7751
G01 X5.5337 Y20.7668
G01 X5.4340 Y20.7255
G01 X5.4118 Y20.7150
G01 X5.3166 Y20.6641
G01 X5.2955 Y20.6515
G01 X5.2058 Y20.5915
G01 X5.1861 Y20.5769
G01 X5.1026 Y20.5084
G01 X5.0844 Y20.4919
G01 X5.0453 Y20.4547
G01 X1.5453 Y16.9547
G01 X1.5081 Y16.9156
G01 X1.4916 Y16.8974
G01 X1.4231 Y16.8139
G01 X1.4085 Y16.7942
G01 X1.3485 Y16.7045
G01 X1.3359 Y16.6834
G01 X1.2850 Y16.5882
G01 X1.2745 Y16.5660
G01 X1.2332 Y16.4663
G01 X1.2249 Y16.4432
G01 X1.1936 Y16.3399
G01 X1.1876 Y16.3161
G01 X1.1666 Y16.2102
G01 X1.1630 Y16.1859
G01 X1.1524 Y16.0785
G01 X1.1512 Y16.0540
G01 X1.1499 Y16.0000
G01 X1.1499 Y12.6000
G00 X1.1499 Y12.6000
G01 F60.00
G01 Z-1.5000
G01 F120.00
G01 X1.1499 Y16.0000
G01 X1.1512 Y16.0540
G01 X1.1524 Y16.0785
G01 X1.1630 Y16.1859
G01 X1.1666 Y16.2102
G01 X1.1876 Y16.3161
G01 X1.1936 Y16.3399
G01 X1.2249 Y16.4432
G01 X1.2332 Y16.4663
G01 X1.2745 Y16.5660
G01 X1.2850 Y16.5882
G01 X1.3359 Y16.6834
G01 X1.3485 Y16.7045
G01 X1.4085 Y16.7942
G01 X1.4231 Y16.8139
G01 X1.4916 Y16.8974
G01 X1.5081 Y16.9156
G01 X1.5453 Y16.9547
G01 X5.0453 Y20.4547
G01 X5.0844 Y20.4919
G01 X5.1026 Y20.5084
G01 X5.1861 Y20.5769
G01 X5.2058 Y20.5915
G01 X5.2955 Y20.6515
G01 X5.3166 Y20.6641
G01 X5.4118 Y20.7150
G01 X5.4340 Y20.7255
G01 X5.5337 Y20.7668
G01 X5.5568 Y20.7751
G01 X5.6601 Y20.8064
G01 X5.6839 Y20.8124
G01 X5.7898 Y20.8334
G01 X5.8141 Y20.8370
G01 X5.9215 Y20.8476
G01 X5.9460 Y20.8488
G01 X6.0000 Y20.8501
G01 X18.3500 Y20.8501
G00 X18.3500 Y20.8501
G01 F60.00
G01 Z-1.8000
G01 F120.00
G01 X6.0000 Y20.8501
G01 X5.9460 Y20.8488
G01 X5.9215 Y20.8476
G01 X5.8141 Y20.8370
G01 X5.7898 Y20.8334
G01 X5.6839 Y20.8124
G01 X5.6601 Y20.8064
G01 X5.5568 Y20.7751
G01 X5.5337 Y20.7668
G01 X5.4340 Y20.7255
G01 X5.4118 Y20.7150
G01 X5.3166 Y20.6641
G01 X5.2955 Y20.6515
G01 X5.2058 Y20.5915
G01 X5.1861 Y20.5769
G01 X5.1026 Y20.5084
G01 X5.0844 Y20.4919
G01 X5.0453 Y20.4547
G01 X1.5453 Y16.9547
G01 X1.5081 Y16.9156
G01 X1.4916 Y16.8974
G01 X1.4231 Y16.8139
G01 X1.4085 Y16.7942
G01 X1.3485 Y16.7045
G01 X1.3359 Y16.6834
G01 X1.2850 Y16.5882
G01 X1.2745 Y16.5660
G01 X1.2332 Y16.4663
G01 X1.2249 Y16.4432
G01 X1.1936 Y16.3399
G01 X1.1876 Y16.3161
G01 X1.1666 Y16.2102
G01 X1.1630 Y16.1859
G01 X1.1524 Y16.0785
G01 X1.1512 Y16.0540
G01 X1.1499 Y16.0000
G01 X1.1499 Y12.6000
G00 X1.1499 Y12.6000
G01 F60.00
G01 Z-2.1000
G01 F120.00
G01 X1.1499 Y16.0000
G01 X1.1512 Y16.0540
G01 X1.1524 Y16.0785
G01 X1.1630 Y16.1859
G01 X1.1666 Y16.2102
G01 X1.1876 Y16.3161
G01 X1.1936 Y16.3399
G01 X1.2249 Y16.4432
G01 X1.2332 Y16.4663
G01 X1.2745 Y16.5660
G01 X1.2850 Y16.5882
G01 X1.3359 Y16.6834
G01 X1.3485 Y16.7045
G01 X1.4085 Y16.7942
G01 X1.4231 Y16.8139
G01 X1.4916 Y16.8974
G01 X1.5081 Y16.9156
G01 X1.5453 Y16.9547
G01 X5.0453 Y20.4547
G01 X5.0844 Y20.4919
G01 X5.1026 Y20.5084
G01 X5.1861 Y20.5769
G01 X5.2058 Y20.5915
G01 X5.2955 Y20.6515
G01 X5.3166 Y20.6641
G01 X5.4118 Y20.7150
G01 X5.4340 Y20.7255
G01 X5.5337 Y20.7668
G01 X5.5568 Y20.7751
G01 X5.6601 Y20.8064
G01 X5.6839 Y20.8124
G01 X5.7898 Y20.8334
G01 X5.8141 Y20.8370
G01 X5.9215 Y20.8476
G01 X5.9460 Y20.8488
G01 X6.0000 Y20.8501
G01 X18.3500 Y20.8501
G00 X18.3500 Y20.8501
G01 F60.00
G01 Z-2.4000
G01 F120.00
G01 X6.0000 Y20.8501
G01 X5.9460 Y20.8488
G01 X5.9215 Y20.8476
G01 X5.8141 Y20.8370
G01 X5.7898 Y20.8334
G01 X5.6839 Y20.8124
G01 X5.6601 Y20.8064
G01 X5.5568 Y20.7751
G01 X5.5337 Y20.7668
G01 X5.4340 Y20.7255
G01 X5.4118 Y20.7150
G01 X5.3166 Y20.6641
G01 X5.2955 Y20.6515
G01 X5.2058 Y20.5915
G01 X5.1861 Y20.5769
G01 X5.1026 Y20.5084
G01 X5.0844 Y20.4919
G01 X5.0453 Y20.4547
G01 X1.5453 Y16.9547
G01 X1.5081 Y16.9156
G01 X1.4916 Y16.8974
G01 X1.4231 Y16.8139
G01 X1.4085 Y16.7942
G01 X1.3485 Y16.7045
G01 X1.3359 Y16.6834
G01 X1.2850 Y16.5882
G01 X1.2745 Y16.5660
G01 X1.2332 Y16.4663
G01 X1.2249 Y16.4432
G01 X1.1936 Y16.3399
G01 X1.1876 Y16.3161
G01 X1.1666 Y16.2102
G01 X1.1630 Y16.1859
G01 X1.1524 Y16.0785
G01 X1.1512 Y16.0540
G01 X1.1499 Y16.0000
G01 X1.1499 Y12.6000
G00 Z2.0000
G00 X22.3500 Y20.8501
G01 F60.00
G01 Z-0.3000
G01 F120.00
G01 X34.5000 Y20.8501
G01 X34.5540 Y20.8488
G01 X34.5785 Y20.8476
G01 X34.6859 Y20.8370
G01 X34.7102 Y20.8334
G01 X34.8161 Y20.8124
G01 X34.8399 Y20.8064
G01 X34.9432 Y20.7751
G01 X34.9663 Y20.7668
G01 X35.0660 Y20.7255
G01 X35.0882 Y20.7150
G01 X35.1834 Y20.6641
G01 X35.2045 Y20.6515
G01 X35.2942 Y20.5915
G01 X35.3139 Y20.5769
G01 X35.3974 Y20.5084
G01 X35.4156 Y20.4919
G01 X35.4547 Y20.4547
G01 X38.9547 Y16.9547
G01 X38.9919 Y16.9156
G01 X39.0084 Y16.8974
G01 X39.0769 Y16.8139
G01 X39.0915 Y16.7942
G01 X39.1515 Y16.7045
G01 X39.1641 Y16.6834
G01 X39.2150 Y16.5882
G01 X39.2255 Y16.5660
G01 X39.2668 Y16.4663
G01 X39.2751 Y16.4432
G01 X39.3064 Y16.3399
G01 X39.3124 Y16.3161
G01 X39.3334 Y16.2102
G01 X39.3370 Y16.1859
G01 X39.3476 Y16.0785
G01 X39.3488 Y16.0540
G01 X39.3501 Y16.0000
G01 X39.3501 Y12.6000
G00 X39.3501 Y12.6000
G01 F60.00
G01 Z-0.6000
G01 F120.00
G01 X39.3501 Y16.0000
G01 X39.3488 Y16.0540
G01 X39.3476 Y16.0785
G01 X39.3370 Y16.1859
G01 X39.3334 Y16.2102
G01 X39.3124 Y16.3161
G01 X39.3064 Y16.3399
G01 X39.2751 Y16.4432
G01 X39.2668 Y16.4663
G01 X39.2255 Y16.5660
G01 X39.2150 Y16.5882
G01 X39.1641 Y16.6834
G01 X39.1515 Y16.7045
G01 X39.0915 Y16.7942
G01 X39.0769 Y16.8139
G01 X39.0084 Y16.8974
G01 X38.9919 Y16.9156
G01 X38.9547 Y16.9547
G01 X35.4547 Y20.4547
G01 X35.4156 Y20.4919
G01 X35.3974 Y20.5084
G01 X35.3139 Y20.5769
G01 X35.2942 Y20.5915
G01 X35.2045 Y20.6515
G01 X35.1834 Y20.6641
G01 X35.0882 Y20.7150
G01 X35.0660 Y20.7255
G01 X34.9663 Y20.7668
G01 X34.9432 Y20.7751
G01 X34.8399 Y20.8064
G01 X34.8161 Y20.8124
G01 X34.7102 Y20.8334
G01 X34.6859 Y20.8370
G01 X34.5785 Y20.8476
G01 X34.5540 Y20.8488
G01 X34.5000 Y20.8501
G01 X22.3500 Y20.8501
G00 X22.3500 Y20.8501
G01 F60.00
G01 Z-0.9000
G01 F120.00
G01 X34.5000 Y20.8501
G01 X34.5540 Y20.8488
G01 X34.5785 Y20.8476
G01 X34.6859 Y20.8370
G01 X34.7102 Y20.8334
G01 X34.8161 Y20.8124
G01 X34.8399 Y20.8064
G01 X34.9432 Y20.7751
G01 X34.9663 Y20.7668
G01 X35.0660 Y20.7255
G01 X35.0882 Y20.7150
G01 X35.1834 Y20.6641
G01 X35.2045 Y20.6515
G01 X35.2942 Y20.5915
G01 X35.3139 Y20.5769
G01 X35.3974 Y20.5084
G01 X35.4156 Y20.4919
G01 X35.4547 Y20.4547
G01 X38.9547 Y16.9547
G01 X38.9919 Y16.9156
G01 X39.0084 Y16.8974
G01 X39.0769 Y16.8139
G01 X39.0915 Y16.7942
G01 X39.1515 Y16.7045
G01 X39.1641 Y16.6834
G01 X39.2150 Y16.5882
G01 X39.2255 Y16.5660
G01 X39.2668 Y16.4663
G01 X39.2751 Y16.4432
G01 X39.3064 Y16.3399
G01 X39.3124 Y16.3161
G01 X39.3334 Y16.2102
G01 X39.3370 Y16.1859
G01 X39.3476 Y16.0785
G01 X39.3488 Y16.0540
G01 X39.3501 Y16.0000
G01 X39.3501 Y12.6000
G00 X39.3501 Y12.6000
G01 F60.00
G01 Z-1.2000
G01 F120.00
G01 X39.3501 Y16.0000
G01 X39.3488 Y16.0540
G01 X39.3476 Y16.0785
G01 X39.3370 Y16.1859
G01 X39.3334 Y16.2102
G01 X39.3124 Y16.3161
G01 X39.3064 Y16.3399
G01 X39.2751 Y16.4432
G01 X39.2668 Y16.4663
G01 X39.2255 Y16.5660
G01 X39.2150 Y16.5882
G01 X39.1641 Y16.6834
G01 X39.1515 Y16.7045
G01 X39.0915 Y16.7942
G01 X39.0769 Y16.8139
G01 X39.0084 Y16.8974
G01 X38.9919 Y16.9156
G01 X38.9547 Y16.9547
G01 X35.4547 Y20.4547
G01 X35.4156 Y20.4919
G01 X35.3974 Y20.5084
G01 X35.3139 Y20.5769
G01 X35.2942 Y20.5915
G01 X35.2045 Y20.6515
G01 X35.1834 Y20.6641
G01 X35.0882 Y20.7150
G01 X35.0660 Y20.7255
G01 X34.9663 Y20.7668
G01 X34.9432 Y20.7751
G01 X34.8399 Y20.8064
G01 X34.8161 Y20.8124
G01 X34.7102 Y20.8334
G01 X34.6859 Y20.8370
G01 X34.5785 Y20.8476
G01 X34.5540 Y20.8488
G01 X34.5000 Y20.8501
G01 X22.3500 Y20.8501
G00 X22.3500 Y20.8501
G01 F60.00
G01 Z-1.5000
G01 F120.00
G01 X34.5000 Y20.8501
G01 X34.5540 Y20.8488
G01 X34.5785 Y20.8476
G01 X34.6859 Y20.8370
G01 X34.7102 Y20.8334
G01 X34.8161 Y20.8124
G01 X34.8399 Y20.8064
G01 X34.9432 Y20.7751
G01 X34.9663 Y20.7668
G01 X35.0660 Y20.7255
G01 X35.0882 Y20.7150
G01 X35.1834 Y20.6641
G01 X35.2045 Y20.6515
G01 X35.2942 Y20.5915
G01 X35.3139 Y20.5769
G01 X35.3974 Y20.5084
G01 X35.4156 Y20.4919
G01 X35.4547 Y20.4547
G01 X38.9547 Y16.9547
G01 X38.9919 Y16.9156
G01 X39.0084 Y16.8974
G01 X39.0769 Y16.8139
G01 X39.0915 Y16.7942
G01 X39.1515 Y16.7045
G01 X39.1641 Y16.6834
G01 X39.2150 Y16.5882
G01 X39.2255 Y16.5660
G01 X39.2668 Y16.4663
G01 X39.2751 Y16.4432
G01 X39.3064 Y16.3399
G01 X39.3124 Y16.3161
G01 X39.3334 Y16.2102
G01 X39.3370 Y16.1859
G01 X39.3476 Y16.0785
G01 X39.3488 Y16.0540
G01 X39.3501 Y16.0000
G01 X39.3501 Y12.6000
G00 X39.3501 Y12.6000
G01 F60.00
G01 Z-1.8000
G01 F120.00
G01 X39.3501 Y16.0000
G01 X39.3488 Y16.0540
G01 X39.3476 Y16.0785
G01 X39.3370 Y16.1859
G01 X39.3334 Y16.2102
G01 X39.3124 Y16.3161
G01 X39.3064 Y16.3399
G01 X39.2751 Y16.4432
G01 X39.2668 Y16.4663
G01 X39.2255 Y16.5660
G01 X39.2150 Y16.5882
G01 X39.1641 Y16.6834
G01 X39.1515 Y16.7045
G01 X39.0915 Y16.7942
G01 X39.0769 Y16.8139
G01 X39.0084 Y16.8974
G01 X38.9919 Y16.9156
G01 X38.9547 Y16.9547
G01 X35.4547 Y20.4547
G01 X35.4156 Y20.4919
G01 X35.3974 Y20.5084
G01 X35.3139 Y20.5769
G01 X35.2942 Y20.5915
G01 X35.2045 Y20.6515
G01 X35.1834 Y20.6641
G01 X35.0882 Y20.7150
G01 X35.0660 Y20.7255
G01 X34.9663 Y20.7668
G01 X34.9432 Y20.7751
G01 X34.8399 Y20.8064
G01 X34.8161 Y20.8124
G01 X34.7102 Y20.8334
G01 X34.6859 Y20.8370
G01 X34.5785 Y20.8476
G01 X34.5540 Y20.8488
G01 X34.5000 Y20.8501
G01 X22.3500 Y20.8501
G00 X22.3500 Y20.8501
G01 F60.00
G01 Z-2.1000
G01 F120.00
G01 X34.5000 Y20.8501
G01 X34.5540 Y20.8488
G01 X34.5785 Y20.8476
G01 X34.6859 Y20.8370
G01 X34.7102 Y20.8334
G01 X34.8161 Y20.8124
G01 X34.8399 Y20.8064
G01 X34.9432 Y20.7751
G01 X34.9663 Y20.7668
G01 X35.0660 Y20.7255
G01 X35.0882 Y20.7150
G01 X35.1834 Y20.6641
G01 X35.2045 Y20.6515
G01 X35.2942 Y20.5915
G01 X35.3139 Y20.5769
G01 X35.3974 Y20.5084
G01 X35.4156 Y20.4919
G01 X35.4547 Y20.4547
G01 X38.9547 Y16.9547
G01 X38.9919 Y16.9156
G01 X39.0084 Y16.8974
G01 X39.0769 Y16.8139
G01 X39.0915 Y16.7942
G01 X39.1515 Y16.7045
G01 X39.1641 Y16.6834
G01 X39.2150 Y16.5882
G01 X39.2255 Y16.5660
G01 X39.2668 Y16.4663
G01 X39.2751 Y16.4432
G01 X39.3064 Y16.3399
G01 X39.3124 Y16.3161
G01 X39.3334 Y16.2102
G01 X39.3370 Y16.1859
G01 X39.3476 Y16.0785
G01 X39.3488 Y16.0540
G01 X39.3501 Y16.0000
G01 X39.3501 Y12.6000
G00 X39.3501 Y12.6000
G01 F60.00
G01 Z-2.4000
G01 F120.00
G01 X39.3501 Y16.0000
G01 X39.3488 Y16.0540
G01 X39.3476 Y16.0785
G01 X39.3370 Y16.1859
G01 X39.3334 Y16.2102
G01 X39.3124 Y16.3161
G01 X39.3064 Y16.3399
G01 X39.2751 Y16.4432
G01 X39.2668 Y16.4663
G01 X39.2255 Y16.5660
G01 X39.2150 Y16.5882
G01 X39.1641 Y16.6834
G01 X39.1515 Y16.7045
G01 X39.0915 Y16.7942
G01 X39.0769 Y16.8139
G01 X39.0084 Y16.8974
G01 X38.9919 Y16.9156
G01 X38.9547 Y16.9547
G01 X35.4547 Y20.4547
G01 X35.4156 Y20.4919
G01 X35.3974 Y20.5084
G01 X35.3139 Y20.5769
G01 X35.2942 Y20.5915
G01 X35.2045 Y20.6515
G01 X35.1834 Y20.6641
G01 X35.0882 Y20.7150
G01 X35.0660 Y20.7255
G01 X34.9663 Y20.7668
G01 X34.9432 Y20.7751
G01 X34.8399 Y20.8064
G01 X34.8161 Y20.8124
G01 X34.7102 Y20.8334
G01 X34.6859 Y20.8370
G01 X34.5785 Y20.8476
G01 X34.5540 Y20.8488
G01 X34.5000 Y20.8501
G01 X22.3500 Y20.8501
G00 Z2.0000
G00 X39.3501 Y8.6000
G01 F60.00
G01 Z-0.3000
G01 F120.00
G01 X39.3501 Y4.5000
G01 X39.3488 Y4.4460
G01 X39.3476 Y4.4215
G01 X39.3370 Y4.3141
G01 X39.3334 Y4.2898
G01 X39.3124 Y4.1839
G01 X39.3064 Y4.1601
G01 X39.2751 Y4.0568
G01 X39.2668 Y4.0337
G01 X39.2255 Y3.9340
G01 X39.2150 Y3.9118
G01 X39.1641 Y3.8166
G01 X39.1515 Y3.7955
G01 X39.0915 Y3.7058
G01 X39.0769 Y3.6861
G01 X39.0084 Y3.6026
G01 X38.9919 Y3.5844
G01 X38.9547 Y3.5453
G01 X35.9547 Y0.5453
G01 X35.9156 Y0.5081
G01 X35.8974 Y0.4916
G01 X35.8139 Y0.4231
G01 X35.7942 Y0.4085
G01 X35.7045 Y0.3485
G01 X35.6834 Y0.3359
G01 X35.5882 Y0.2850
G01 X35.5660 Y0.2745
G01 X35.4663 Y0.2332
G01 X35.4432 Y0.2249
G01 X35.3399 Y0.1936
G01 X35.3161 Y0.1876
G01 X35.2102 Y0.1666
G01 X35.1859 Y0.1630
G01 X35.0785 Y0.1524
G01 X35.0540 Y0.1512
G01 X35.0000 Y0.1499
G01 X27.0000 Y0.1499
G01 X26.9460 Y0.1512
G01 X26.9215 Y0.1524
G01 X26.8141 Y0.1630
G01 X26.7898 Y0.1666
G01 X26.6839 Y0.1876
G01 X26.6601 Y0.1936
G01 X26.5568 Y0.2249
G01 X26.5337 Y0.2332
G01 X26.4340 Y0.2745
G01 X26.4118 Y0.2850
G01 X26.3166 Y0.3359
G01 X26.2955 Y0.3485
G01 X26.2058 Y0.4085
G01 X26.1861 Y0.4231
G01 X26.1026 Y0.4916
G01 X26.0844 Y0.5081
G01 X26.0453 Y0.5453
G01 X22.9408 Y3.6499
G01 X22.3500 Y3.6499
G00 X22.3500 Y3.6499
G01 F60.00
G01 Z-0.6000
G01 F120.00
G01 X22.9408 Y3.6499
G01 X26.0453 Y0.5453
G01 X26.0844 Y0.5081
G01 X26.1026 Y0.4916
G01 X26.1861 Y0.4231
G01 X26.2058 Y0.4085
G01 X26.2955 Y0.3485
G01 X26.3166 Y0.3359
G01 X26.4118 Y0.2850
G01 X26.4340 Y0.2745
G01 X26.5337 Y0.2332
G01 X26.5568 Y0.2249
G01 X26.6601 Y0.1936
G01 X26.6839 Y0.1876
G01 X26.7898 Y0.1666
G01 X26.8141 Y0.1630
G01 X26.9215 Y0.1524
G01 X26.9460 Y0.1512
G01 X27.0000 Y0.1499
G01 X35.0000 Y0.1499
G01 X35.0540 Y0.1512
G01 X35.0785 Y0.1524
G01 X35.1859 Y0.1630
G01 X35.2102 Y0.1666
G01 X35.3161 Y0.1876
G01 X35.3399 Y0.1936
G01 X35.4432 Y0.2249
G01 X35.4663 Y0.2332
G01 X35.5660 Y0.2745
G01 X35.5882 Y0.2850
G01 X35.6834 Y0.3359
G01 X35.7045 Y0.3485
G01 X35.7942 Y0.4085
G01 X35.8139 Y0.4231
G01 X35.8974 Y0.4916
G01 X35.9156 Y0.5081
G01 X35.9547 Y0.5453
G01 X38.9547 Y3.5453
G01 X38.9919 Y3.5844
G01 X39.0084 Y3.6026
G01 X39.0769 Y3.6861
G01 X39.0915 Y3.7058
G01 X39.1515 Y3.7955
G01 X39.1641 Y3.8166
G01 X39.2150 Y3.9118
G01 X39.2255 Y3.9340
G01 X39.2668 Y4.0337
G01 X39.2751 Y4.0568
G01 X39.3064 Y4.1601
G01 X39.3124 Y4.1839
G01 X39.3334 Y4.2898
G01 X39.3370 Y4.3141
G01 X39.3476 Y4.4215
G01 X39.3488 Y4.4460
G01 X39.3501 Y4.5000
G01 X39.3501 Y8.6000
G00 X39.3501 Y8.6000
G01 F60.00
G01 Z-0.9000
G01 F120.00
G01 X39.3501 Y4.5000
G01 X39.3488 Y4.4460
G01 X39.3476 Y4.4215
G01 X39.3370 Y4.3141
G01 X39.3334 Y4.2898
G01 X39.3124 Y4.1839
G01 X39.3064 Y4.1601
G01 X39.2751 Y4.0568
G01 X39.2668 Y4.0337
G01 X39.2255 Y3.9340
G01 X39.2150 Y3.9118
G01 X39.1641 Y3.8166
G01 X39.1515 Y3.7955
G01 X39.0915 Y3.7058
G01 X39.0769 Y3.6861
G01 X39.0084 Y3.6026
G01 X38.9919 Y3.5844
G01 X38.9547 Y3.5453
G01 X35.9547 Y0.5453
G01 X35.9156 Y0.5081
G01 X35.8974 Y0.4916
G01 X35.8139 Y0.4231
G01 X35.7942 Y0.4085
G01 X35.7045 Y0.3485
G01 X35.6834 Y0.3359
G01 X35.5882 Y0.2850
G01 X35.5660 Y0.2745
G01 X35.4663 Y0.2332
G01 X35.4432 Y0.2249
G01 X35.3399 Y0.1936
G01 X35.3161 Y0.1876
G01 X35.2102 Y0.1666
G01 X35.1859 Y0.1630
G01 X35.0785 Y0.1524
G01 X35.0540 Y0.1512
G01 X35.0000 Y0.1499
G01 X27.0000 Y0.1499
G01 X26.9460 Y0.1512
G01 X26.9215 Y0.1524
G01 X26.8141 Y0.1630
G01 X26.7898 Y0.1666
G01 X26.6839 Y0.1876
G01 X26.6601 Y0.1936
G01 X26.5568 Y0.2249
G01 X26.5337 Y0.2332
G01 X26.4340 Y0.2745
G01 X26.4118 Y0.2850
G01 X26.3166 Y0.3359
G01 X26.2955 Y0.3485
G01 X26.2058 Y0.4085
G01 X26.1861 Y0.4231
G01 X26.1026 Y0.4916
G01 X26.0844 Y0.5081
G01 X26.0453 Y0.5453
G01 X22.9408 Y3.6499
G01 X22.3500 Y3.6499
G00 X22.3500 Y3.6499
G01 F60.00
G01 Z-1.2000
G01 F120.00
G01 X22.9408 Y3.6499
G01 X26.0453 Y0.5453
G01 X26.0844 Y0.5081
G01 X26.1026 Y0.4916
G01 X26.1861 Y0.4231
G01 X26.2058 Y0.4085
G01 X26.2955 Y0.3485
G01 X26.3166 Y0.3359
G01 X26.4118 Y0.2850
G01 X26.4340 Y0.2745
G01 X26.5337 Y0.2332
G01 X26.5568 Y0.2249
G01 X26.6601 Y0.1936
G01 X26.6839 Y0.1876
G01 X26.7898 Y0.1666
G01 X26.8141 Y0.1630
G01 X26.9215 Y0.1524
G01 X26.9460 Y0.1512
G01 X27.0000 Y0.1499
G01 X35.0000 Y0.1499
G01 X35.0540 Y0.1512
G01 X35.0785 Y0.1524
G01 X35.1859 Y0.1630
G01 X35.2102 Y0.1666
G01 X35.3161 Y0.1876
G01 X35.3399 Y0.1936
G01 X35.4432 Y0.2249
G01 X35.4663 Y0.2332
G01 X35.5660 Y0.2745
G01 X35.5882 Y0.2850
G01 X35.6834 Y0.3359
G01 X35.7045 Y0.3485
G01 X35.7942 Y0.4085
G01 X35.8139 Y0.4231
G01 X35.8974 Y0.4916
G01 X35.9156 Y0.5081
G01 X35.9547 Y0.5453
G01 X38.9547 Y3.5453
G01 X38.9919 Y3.5844
G01 X39.0084 Y3.6026
G01 X39.0769 Y3.6861
G01 X39.0915 Y3.7058
G01 X39.1515 Y3.7955
G01 X39.1641 Y3.8166
G01 X39.2150 Y3.9118
G01 X39.2255 Y3.9340
G01 X39.2668 Y4.0337
G01 X39.2751 Y4.0568
G01 X39.3064 Y4.1601
G01 X39.3124 Y4.1839
G01 X39.3334 Y4.2898
G01 X39.3370 Y4.3141
G01 X39.3476 Y4.4215
G01 X39.3488 Y4.4460
G01 X39.3501 Y4.5000
G01 X39.3501 Y8.6000
G00 X39.3501 Y8.6000
G01 F60.00
G01 Z-1.5000
G01 F120.00
G01 X39.3501 Y4.5000
G01 X39.3488 Y4.4460
G01 X39.3476 Y4.4215
G01 X39.3370 Y4.3141
G01 X39.3334 Y4.2898
G01 X39.3124 Y4.1839
G01 X39.3064 Y4.1601
G01 X39.2751 Y4.0568
G01 X39.2668 Y4.0337
G01 X39.2255 Y3.9340
G01 X39.2150 Y3.9118
G01 X39.1641 Y3.8166
G01 X39.1515 Y3.7955
G01 X39.0915 Y3.7058
G01 X39.0769 Y3.6861
G01 X39.0084 Y3.6026
G01 X38.9919 Y3.5844
G01 X38.9547 Y3.5453
G01 X35.9547 Y0.5453
G01 X35.9156 Y0.5081
G01 X35.8974 Y0.4916
G01 X35.8139 Y0.4231
G01 X35.7942 Y0.4085
G01 X35.7045 Y0.3485
G01 X35.6834 Y0.3359
G01 X35.5882 Y0.2850
G01 X35.5660 Y0.2745
G01 X35.4663 Y0.2332
G01 X35.4432 Y0.2249
G01 X35.3399 Y0.1936
G01 X35.3161 Y0.1876
G01 X35.2102 Y0.1666
G01 X35.1859 Y0.1630
G01 X35.0785 Y0.1524
G01 X35.0540 Y0.1512
G01 X35.0000 Y0.1499
G01 X27.0000 Y0.1499
G01 X26.9460 Y0.1512
G01 X26.9215 Y0.1524
G01 X26.8141 Y0.1630
G01 X26.7898 Y0.1666
G01 X26.6839 Y0.1876
G01 X26.6601 Y0.1936
G01 X26.5568 Y0.2249
G01 X26.5337 Y0.2332
G01 X26.4340 Y0.2745
G01 X26.4118 Y0.2850
G01 X26.3166 Y0.3359
G01 X26.2955 Y0.3485
G01 X26.2058 Y0.4085
G01 X26.1861 Y0.4231
G01 X26.1026 Y0.4916
G01 X26.0844 Y0.5081
G01 X26.0453 Y0.5453
G01 X22.9408 Y3.6499
G01 X22.3500 Y3.6499
G00 X22.3500 Y3.6499
G01 F60.00
G01 Z-1.8000
G01 F120.00
G01 X22.9408 Y3.6499
G01 X26.0453 Y0.5453
G01 X26.0844 Y0.5081
G01 X26.1026 Y0.4916
G01 X26.1861 Y0.4231
G01 X26.2058 Y0.4085
G01 X26.2955 Y0.3485
G01 X26.3166 Y0.3359
G01 X26.4118 Y0.2850
G01 X26.4340 Y0.2745
G01 X26.5337 Y0.2332
G01 X26.5568 Y0.2249
G01 X26.6601 Y0.1936
G01 X26.6839 Y0.1876
G01 X26.7898 Y0.1666
G01 X26.8141 Y0.1630
G01 X26.9215 Y0.1524
G01 X26.9460 Y0.1512
G01 X27.0000 Y0.1499
G01 X35.0000 Y0.1499
G01 X35.0540 Y0.1512
G01 X35.0785 Y0.1524
G01 X35.1859 Y0.1630
G01 X35.2102 Y0.1666
G01 X35.3161 Y0.1876
G01 X35.3399 Y0.1936
G01 X35.4432 Y0.2249
G01 X35.4663 Y0.2332
G01 X35.5660 Y0.2745
G01 X35.5882 Y0.2850
G01 X35.6834 Y0.3359
G01 X35.7045 Y0.3485
G01 X35.7942 Y0.4085
G01 X35.8139 Y0.4231
G01 X35.8974 Y0.4916
G01 X35.9156 Y0.5081
G01 X35.9547 Y0.5453
G01 X38.9547 Y3.5453
G01 X38.9919 Y3.5844
G01 X39.0084 Y3.6026
G01 X39.0769 Y3.6861
G01 X39.0915 Y3.7058
G01 X39.1515 Y3.7955
G01 X39.1641 Y3.8166
G01 X39.2150 Y3.9118
G01 X39.2255 Y3.9340
G01 X39.2668 Y4.0337
G01 X39.2751 Y4.0568
G01 X39.3064 Y4.1601
G01 X39.3124 Y4.1839
G01 X39.3334 Y4.2898
G01 X39.3370 Y4.3141
G01 X39.3476 Y4.4215
G01 X39.3488 Y4.4460
G01 X39.3501 Y4.5000
G01 X39.3501 Y8.6000
G00 X39.3501 Y8.6000
G01 F60.00
G01 Z-2.1000
G01 F120.00
G01 X39.3501 Y4.5000
G01 X39.3488 Y4.4460
G01 X39.3476 Y4.4215
G01 X39.3370 Y4.3141
G01 X39.3334 Y4.2898
G01 X39.3124 Y4.1839
G01 X39.3064 Y4.1601
G01 X39.2751 Y4.0568
G01 X39.2668 Y4.0337
G01 X39.2255 Y3.9340
G01 X39.2150 Y3.9118
G01 X39.1641 Y3.8166
G01 X39.1515 Y3.7955
G01 X39.0915 Y3.7058
G01 X39.0769 Y3.6861
G01 X39.0084 Y3.6026
G01 X38.9919 Y3.5844
G01 X38.9547 Y3.5453
G01 X35.9547 Y0.5453
G01 X35.9156 Y0.5081
G01 X35.8974 Y0.4916
G01 X35.8139 Y0.4231
G01 X35.7942 Y0.4085
G01 X35.7045 Y0.3485
G01 X35.6834 Y0.3359
G01 X35.5882 Y0.2850
G01 X35.5660 Y0.2745
G01 X35.4663 Y0.2332
G01 X35.4432 Y0.2249
G01 X35.3399 Y0.1936
G01 X35.3161 Y0.1876
G01 X35.2102 Y0.1666
G01 X35.1859 Y0.1630
G01 X35.0785 Y0.1524
G01 X35.0540 Y0.1512
G01 X35.0000 Y0.1499
G01 X27.0000 Y0.1499
G01 X26.9460 Y0.1512
G01 X26.9215 Y0.1524
G01 X26.8141 Y0.1630
G01 X26.7898 Y0.1666
G01 X26.6839 Y0.1876
G01 X26.6601 Y0.1936
G01 X26.5568 Y0.2249
G01 X26.5337 Y0.2332
G01 X26.4340 Y0.2745
G01 X26.4118 Y0.2850
G01 X26.3166 Y0.3359
G01 X26.2955 Y0.3485
G01 X26.2058 Y0.4085
G01 X26.1861 Y0.4231
G01 X26.1026 Y0.4916
G01 X26.0844 Y0.5081
G01 X26.0453 Y0.5453
G01 X22.9408 Y3.6499
G01 X22.3500 Y3.6499
G00 X22.3500 Y3.6499
G01 F60.00
G01 Z-2.4000
G01 F120.00
G01 X22.9408 Y3.6499
G01 X26.0453 Y0.5453
G01 X26.0844 Y0.5081
G01 X26.1026 Y0.4916
G01 X26.1861 Y0.4231
G01 X26.2058 Y0.4085
G01 X26.2955 Y0.3485
G01 X26.3166 Y0.3359
G01 X26.4118 Y0.2850
G01 X26.4340 Y0.2745
G01 X26.5337 Y0.2332
G01 X26.5568 Y0.2249
G01 X26.6601 Y0.1936
G01 X26.6839 Y0.1876
G01 X26.7898 Y0.1666
G01 X26.8141 Y0.1630
G01 X26.9215 Y0.1524
G01 X26.9460 Y0.1512
G01 X27.0000 Y0.1499
G01 X35.0000 Y0.1499
G01 X35.0540 Y0.1512
G01 X35.0785 Y0.1524
G01 X35.1859 Y0.1630
G01 X35.2102 Y0.1666
G01 X35.3161 Y0.1876
G01 X35.3399 Y0.1936
G01 X35.4432 Y0.2249
G01 X35.4663 Y0.2332
G01 X35.5660 Y0.2745
G01 X35.5882 Y0.2850
G01 X35.6834 Y0.3359
G01 X35.7045 Y0.3485
G01 X35.7942 Y0.4085
G01 X35.8139 Y0.4231
G01 X35.8974 Y0.4916
G01 X35.9156 Y0.5081
G01 X35.9547 Y0.5453
G01 X38.9547 Y3.5453
G01 X38.9919 Y3.5844
G01 X39.0084 Y3.6026
G01 X39.0769 Y3.6861
G01 X39.0915 Y3.7058
G01 X39.1515 Y3.7955
G01 X39.1641 Y3.8166
G01 X39.2150 Y3.9118
G01 X39.2255 Y3.9340
G01 X39.2668 Y4.0337
G01 X39.2751 Y4.0568
G01 X39.3064 Y4.1601
G01 X39.3124 Y4.1839
G01 X39.3334 Y4.2898
G01 X39.3370 Y4.3141
G01 X39.3476 Y4.4215
G01 X39.3488 Y4.4460
G01 X39.3501 Y4.5000
G01 X39.3501 Y8.6000
G00 Z2.0000
M05
G00 Z2.0000
G00 Z15.00


