(G-CODE GENERATED BY FLATCAM v8.994 - www.flatcam.org - Version Date: 2020/11/7)

(Name: SD cc1101 def-F_Cu.gbr_iso_combined_cnc)
(Type: G-code from Geometry)
(Units: MM)

(Created on Thursday, 15 August 2024 at 14:21)

(This preprocessor is the default preprocessor used by FlatCAM.)
(It is made to work with MACH3 compatible motion controllers.)

(TOOL DIAMETER: 0.7 mm)
(Feedrate_XY: 120.0 mm/min)
(Feedrate_Z: 60.0 mm/min)
(Feedrate rapids 1500.0 mm/min)

(Z_Cut: -0.2 mm)
(Z_Move: 2.0 mm)
(Z Start: None mm)
(Z End: 15.0 mm)
(X,Y End: None mm)
(Steps per circle: 64)
(Preprocessor Geometry: default)

(X range:    4.8999 ...   35.4750  mm)
(Y range:    5.3000 ...   17.1001  mm)

(Spindle Speed: 17900.0 RPM)
G21
G90
G94

G01 F120.00

M5
G00 Z15.0000
G00 X0.0000 Y0.0000
T1
M6    
(MSG, Change to Tool Dia = 0.7000)
M0
G00 Z15.0000

M03 S17900.0
G01 F120.00
G00 X4.9003 Y8.4828
G01 F60.00
G01 Z-0.2000
G01 F120.00
G01 X4.9020 Y8.4497
G01 X4.9037 Y8.4326
G01 X4.9098 Y8.3914
G01 X4.9132 Y8.3745
G01 X4.9233 Y8.3340
G01 X4.9283 Y8.3176
G01 X4.9424 Y8.2783
G01 X4.9489 Y8.2624
G01 X4.9630 Y8.2324
G01 X4.9707 Y8.2171
G01 X4.9918 Y8.1811
G01 X5.0010 Y8.1666
G01 X5.0109 Y8.1525
G01 X5.0361 Y8.1193
G01 X5.0638 Y8.0881
G01 X5.0756 Y8.0756
G01 X7.0756 Y6.0756
G01 X7.0881 Y6.0638
G01 X7.1127 Y6.0416
G01 X7.1260 Y6.0307
G01 X7.1525 Y6.0109
G01 X7.1666 Y6.0010
G01 X7.2022 Y5.9792
G01 X7.2171 Y5.9707
G01 X7.2324 Y5.9630
G01 X7.2624 Y5.9489
G01 X7.2783 Y5.9424
G01 X7.3095 Y5.9311
G01 X7.3258 Y5.9257
G01 X7.3423 Y5.9211
G01 X7.3745 Y5.9132
G01 X7.3914 Y5.9098
G01 X7.4326 Y5.9037
G01 X7.4497 Y5.9020
G01 X7.4828 Y5.9003
G01 X7.5000 Y5.8999
G01 X30.6969 Y5.8999
G01 X30.7280 Y5.8478
G01 X30.7372 Y5.8333
G01 X30.7471 Y5.8193
G01 X30.8020 Y5.7454
G01 X30.8186 Y5.7257
G01 X30.8746 Y5.6639
G01 X30.8865 Y5.6515
G01 X30.8989 Y5.6396
G01 X30.9607 Y5.5836
G01 X30.9737 Y5.5724
G01 X30.9873 Y5.5618
G01 X31.0543 Y5.5121
G01 X31.0683 Y5.5022
G01 X31.0828 Y5.4930
G01 X31.1618 Y5.4458
G01 X31.1847 Y5.4340
G01 X31.2601 Y5.3983
G01 X31.2758 Y5.3913
G01 X31.2918 Y5.3852
G01 X31.3703 Y5.3571
G01 X31.3867 Y5.3517
G01 X31.4032 Y5.3471
G01 X31.4841 Y5.3268
G01 X31.5009 Y5.3231
G01 X31.5178 Y5.3201
G01 X31.6003 Y5.3079
G01 X31.6174 Y5.3058
G01 X31.6345 Y5.3045
G01 X31.7178 Y5.3004
G01 X31.7436 Y5.3001
G01 X31.8355 Y5.3045
G01 X31.8526 Y5.3058
G01 X31.8697 Y5.3079
G01 X31.9522 Y5.3201
G01 X31.9691 Y5.3231
G01 X31.9859 Y5.3268
G01 X32.0668 Y5.3471
G01 X32.0833 Y5.3517
G01 X32.0997 Y5.3571
G01 X32.1782 Y5.3852
G01 X32.1942 Y5.3913
G01 X32.2099 Y5.3983
G01 X32.2853 Y5.4340
G01 X32.3007 Y5.4417
G01 X32.3156 Y5.4502
G01 X32.3872 Y5.4930
G01 X32.4017 Y5.5022
G01 X32.4157 Y5.5121
G01 X32.4827 Y5.5618
G01 X32.4963 Y5.5724
G01 X32.5093 Y5.5836
G01 X32.5711 Y5.6396
G01 X32.5895 Y5.6576
G01 X32.6514 Y5.7257
G01 X32.6626 Y5.7387
G01 X32.6732 Y5.7523
G01 X32.7229 Y5.8193
G01 X32.7374 Y5.8405
G01 X32.7892 Y5.9268
G01 X32.8010 Y5.9497
G01 X32.8367 Y6.0251
G01 X32.8437 Y6.0408
G01 X32.8498 Y6.0568
G01 X32.8779 Y6.1353
G01 X32.8833 Y6.1517
G01 X32.8879 Y6.1682
G01 X32.9082 Y6.2491
G01 X32.9119 Y6.2659
G01 X32.9149 Y6.2828
G01 X32.9271 Y6.3653
G01 X32.9300 Y6.3909
G01 X32.9346 Y6.4828
G01 X32.9350 Y6.5000
G01 X32.9346 Y6.5172
G01 X32.9305 Y6.6005
G01 X32.9292 Y6.6176
G01 X32.9271 Y6.6347
G01 X32.9149 Y6.7172
G01 X32.9119 Y6.7341
G01 X32.9082 Y6.7509
G01 X32.8879 Y6.8318
G01 X32.8833 Y6.8483
G01 X32.8779 Y6.8647
G01 X32.8468 Y6.9512
G01 X32.8367 Y6.9749
G01 X32.8010 Y7.0503
G01 X32.7933 Y7.0657
G01 X32.7848 Y7.0806
G01 X32.7420 Y7.1522
G01 X32.7279 Y7.1738
G01 X32.6680 Y7.2546
G01 X32.6514 Y7.2743
G01 X32.5954 Y7.3361
G01 X32.5835 Y7.3485
G01 X32.5711 Y7.3604
G01 X32.5093 Y7.4164
G01 X32.4963 Y7.4276
G01 X32.4827 Y7.4382
G01 X32.4157 Y7.4879
G01 X32.4017 Y7.4978
G01 X32.3872 Y7.5070
G01 X32.3156 Y7.5498
G01 X32.3007 Y7.5583
G01 X32.2853 Y7.5660
G01 X32.2099 Y7.6017
G01 X32.1942 Y7.6087
G01 X32.1782 Y7.6148
G01 X32.0997 Y7.6429
G01 X32.0833 Y7.6483
G01 X32.0668 Y7.6529
G01 X31.9859 Y7.6732
G01 X31.9691 Y7.6769
G01 X31.9522 Y7.6799
G01 X31.8697 Y7.6921
G01 X31.8526 Y7.6942
G01 X31.8355 Y7.6955
G01 X31.7436 Y7.6999
G01 X31.7178 Y7.6996
G01 X31.6345 Y7.6955
G01 X31.6174 Y7.6942
G01 X31.6003 Y7.6921
G01 X31.5178 Y7.6799
G01 X31.5009 Y7.6769
G01 X31.4841 Y7.6732
G01 X31.4032 Y7.6529
G01 X31.3867 Y7.6483
G01 X31.3703 Y7.6429
G01 X31.2918 Y7.6148
G01 X31.2758 Y7.6087
G01 X31.2601 Y7.6017
G01 X31.1847 Y7.5660
G01 X31.1618 Y7.5542
G01 X31.0828 Y7.5070
G01 X31.0683 Y7.4978
G01 X31.0543 Y7.4879
G01 X30.9873 Y7.4382
G01 X30.9737 Y7.4276
G01 X30.9607 Y7.4164
G01 X30.8989 Y7.3604
G01 X30.8865 Y7.3485
G01 X30.8746 Y7.3361
G01 X30.8186 Y7.2743
G01 X30.8020 Y7.2546
G01 X30.7471 Y7.1807
G01 X30.7372 Y7.1667
G01 X30.7280 Y7.1522
G01 X30.6969 Y7.1001
G01 X7.7486 Y7.1001
G01 X6.1001 Y8.7486
G01 X6.1001 Y12.7514
G01 X9.2486 Y15.8999
G01 X11.7514 Y15.8999
G01 X12.2377 Y15.4136
G01 X12.1789 Y15.3604
G01 X12.1665 Y15.3485
G01 X12.1546 Y15.3361
G01 X12.0986 Y15.2743
G01 X12.0874 Y15.2613
G01 X12.0768 Y15.2477
G01 X12.0271 Y15.1807
G01 X12.0172 Y15.1667
G01 X12.0080 Y15.1522
G01 X11.9652 Y15.0806
G01 X11.9567 Y15.0657
G01 X11.9490 Y15.0503
G01 X11.9133 Y14.9749
G01 X11.9063 Y14.9592
G01 X11.9002 Y14.9432
G01 X11.8721 Y14.8647
G01 X11.8667 Y14.8483
G01 X11.8621 Y14.8318
G01 X11.8418 Y14.7509
G01 X11.8381 Y14.7341
G01 X11.8351 Y14.7172
G01 X11.8229 Y14.6347
G01 X11.8208 Y14.6176
G01 X11.8195 Y14.6005
G01 X11.8154 Y14.5172
G01 X11.8150 Y14.5000
G01 X11.8154 Y14.4828
G01 X11.8195 Y14.3995
G01 X11.8208 Y14.3824
G01 X11.8229 Y14.3653
G01 X11.8351 Y14.2828
G01 X11.8381 Y14.2659
G01 X11.8418 Y14.2491
G01 X11.8621 Y14.1682
G01 X11.8667 Y14.1517
G01 X11.8721 Y14.1353
G01 X11.9002 Y14.0568
G01 X11.9063 Y14.0408
G01 X11.9133 Y14.0251
G01 X11.9490 Y13.9497
G01 X11.9567 Y13.9343
G01 X11.9652 Y13.9194
G01 X12.0080 Y13.8478
G01 X12.0172 Y13.8333
G01 X12.0271 Y13.8193
G01 X12.0768 Y13.7523
G01 X12.0874 Y13.7387
G01 X12.0986 Y13.7257
G01 X12.1546 Y13.6639
G01 X12.1665 Y13.6515
G01 X12.1789 Y13.6396
G01 X12.2407 Y13.5836
G01 X12.2537 Y13.5724
G01 X12.2673 Y13.5618
G01 X12.3343 Y13.5121
G01 X12.3483 Y13.5022
G01 X12.3628 Y13.4930
G01 X12.4344 Y13.4502
G01 X12.4493 Y13.4417
G01 X12.4647 Y13.4340
G01 X12.5401 Y13.3983
G01 X12.5558 Y13.3913
G01 X12.5718 Y13.3852
G01 X12.6503 Y13.3571
G01 X12.6667 Y13.3517
G01 X12.6832 Y13.3471
G01 X12.7641 Y13.3268
G01 X12.7809 Y13.3231
G01 X12.7978 Y13.3201
G01 X12.8803 Y13.3079
G01 X12.9059 Y13.3050
G01 X13.0064 Y13.3001
G01 X13.0322 Y13.3004
G01 X13.1155 Y13.3045
G01 X13.1412 Y13.3067
G01 X13.2322 Y13.3201
G01 X13.2491 Y13.3231
G01 X13.2659 Y13.3268
G01 X13.3468 Y13.3471
G01 X13.3633 Y13.3517
G01 X13.3797 Y13.3571
G01 X13.4582 Y13.3852
G01 X13.4821 Y13.3947
G01 X13.5653 Y13.4340
G01 X13.5807 Y13.4417
G01 X13.5956 Y13.4502
G01 X13.6672 Y13.4930
G01 X13.6817 Y13.5022
G01 X13.6957 Y13.5121
G01 X13.7627 Y13.5618
G01 X13.7763 Y13.5724
G01 X13.7893 Y13.5836
G01 X13.8511 Y13.6396
G01 X13.8635 Y13.6515
G01 X13.8754 Y13.6639
G01 X13.9314 Y13.7257
G01 X13.9426 Y13.7387
G01 X13.9532 Y13.7523
G01 X14.0029 Y13.8193
G01 X14.0174 Y13.8405
G01 X14.0648 Y13.9194
G01 X14.0733 Y13.9343
G01 X14.0810 Y13.9497
G01 X14.1167 Y14.0251
G01 X14.1237 Y14.0408
G01 X14.1298 Y14.0568
G01 X14.1579 Y14.1353
G01 X14.1657 Y14.1599
G01 X14.1882 Y14.2491
G01 X14.1919 Y14.2659
G01 X14.1949 Y14.2828
G01 X14.2071 Y14.3653
G01 X14.2092 Y14.3824
G01 X14.2105 Y14.3995
G01 X14.2146 Y14.4828
G01 X14.2150 Y14.5000
G01 X14.2146 Y14.5172
G01 X14.2105 Y14.6005
G01 X14.2092 Y14.6176
G01 X14.2071 Y14.6347
G01 X14.1935 Y14.7257
G01 X14.1882 Y14.7509
G01 X14.1679 Y14.8318
G01 X14.1607 Y14.8565
G01 X14.1268 Y14.9512
G01 X14.1167 Y14.9749
G01 X14.0810 Y15.0503
G01 X14.0733 Y15.0657
G01 X14.0648 Y15.0806
G01 X14.0174 Y15.1595
G01 X14.0029 Y15.1807
G01 X13.9532 Y15.2477
G01 X13.9426 Y15.2613
G01 X13.9314 Y15.2743
G01 X13.8754 Y15.3361
G01 X13.8635 Y15.3485
G01 X13.8511 Y15.3604
G01 X13.7893 Y15.4164
G01 X13.7763 Y15.4276
G01 X13.7627 Y15.4382
G01 X13.6957 Y15.4879
G01 X13.6817 Y15.4978
G01 X13.6672 Y15.5070
G01 X13.6126 Y15.5397
G01 X13.6101 Y15.5609
G01 X13.6052 Y15.5936
G01 X13.6018 Y15.6105
G01 X13.5939 Y15.6427
G01 X13.5867 Y15.6674
G01 X13.5756 Y15.6986
G01 X13.5694 Y15.7147
G01 X13.5625 Y15.7304
G01 X13.5482 Y15.7603
G01 X13.5401 Y15.7754
G01 X13.5232 Y15.8039
G01 X13.5140 Y15.8184
G01 X13.5041 Y15.8325
G01 X13.4789 Y15.8657
G01 X13.4677 Y15.8787
G01 X13.4454 Y15.9032
G01 X12.4244 Y16.9244
G01 X12.4119 Y16.9362
G01 X12.3873 Y16.9584
G01 X12.3740 Y16.9693
G01 X12.3475 Y16.9891
G01 X12.3334 Y16.9990
G01 X12.3189 Y17.0082
G01 X12.2904 Y17.0251
G01 X12.2753 Y17.0332
G01 X12.2454 Y17.0475
G01 X12.2297 Y17.0544
G01 X12.2136 Y17.0606
G01 X12.1824 Y17.0717
G01 X12.1660 Y17.0767
G01 X12.1338 Y17.0848
G01 X12.1171 Y17.0886
G01 X12.1002 Y17.0915
G01 X12.0674 Y17.0963
G01 X12.0503 Y17.0980
G01 X12.0172 Y17.0997
G01 X12.0000 Y17.1001
G01 X8.9914 Y17.1000
G01 X8.9497 Y17.0980
G01 X8.9241 Y17.0951
G01 X8.8829 Y17.0886
G01 X8.8423 Y17.0789
G01 X8.8176 Y17.0717
G01 X8.7783 Y17.0576
G01 X8.7546 Y17.0475
G01 X8.7171 Y17.0293
G01 X8.7022 Y17.0208
G01 X8.6738 Y17.0037
G01 X8.6595 Y16.9941
G01 X8.6328 Y16.9745
G01 X8.6127 Y16.9584
G01 X8.5881 Y16.9362
G01 X8.5756 Y16.9244
G01 X5.0756 Y13.4244
G01 X5.0638 Y13.4119
G01 X5.0361 Y13.3807
G01 X5.0255 Y13.3672
G01 X5.0010 Y13.3334
G01 X4.9918 Y13.3189
G01 X4.9749 Y13.2904
G01 X4.9668 Y13.2753
G01 X4.9525 Y13.2454
G01 X4.9456 Y13.2297
G01 X4.9394 Y13.2136
G01 X4.9283 Y13.1824
G01 X4.9233 Y13.1660
G01 X4.9152 Y13.1338
G01 X4.9114 Y13.1171
G01 X4.9085 Y13.1002
G01 X4.9028 Y13.0588
G01 X4.9015 Y13.0417
G01 X4.9000 Y13.0086
G01 X4.8999 Y8.5000
G01 X4.9003 Y8.4828
G00 Z2.0000
G00 X7.4500 Y8.3000
G01 F60.00
G01 Z-0.2000
G01 F120.00
G01 X9.1500 Y8.3000
G01 X9.1672 Y8.3004
G01 X9.1843 Y8.3017
G01 X9.2014 Y8.3038
G01 X9.2267 Y8.3085
G01 X9.2516 Y8.3151
G01 X9.2679 Y8.3205
G01 X9.2918 Y8.3300
G01 X9.3074 Y8.3374
G01 X9.3225 Y8.3455
G01 X9.3444 Y8.3590
G01 X9.3653 Y8.3741
G01 X9.3786 Y8.3850
G01 X9.3975 Y8.4025
G01 X9.4093 Y8.4150
G01 X9.4259 Y8.4347
G01 X9.4362 Y8.4485
G01 X9.4457 Y8.4628
G01 X9.4587 Y8.4850
G01 X9.4700 Y8.5082
G01 X9.4765 Y8.5240
G01 X9.4823 Y8.5402
G01 X9.4873 Y8.5567
G01 X9.4915 Y8.5733
G01 X9.4962 Y8.5986
G01 X9.4991 Y8.6243
G01 X9.4999 Y8.6414
G01 X9.5000 Y10.3500
G01 X9.4991 Y10.3757
G01 X9.4962 Y10.4014
G01 X9.4933 Y10.4183
G01 X9.4895 Y10.4350
G01 X9.4849 Y10.4516
G01 X9.4765 Y10.4760
G01 X9.4700 Y10.4918
G01 X9.4587 Y10.5150
G01 X9.4457 Y10.5372
G01 X9.4362 Y10.5515
G01 X9.4206 Y10.5720
G01 X9.4093 Y10.5850
G01 X9.3913 Y10.6035
G01 X9.3786 Y10.6150
G01 X9.3585 Y10.6311
G01 X9.3444 Y10.6410
G01 X9.3299 Y10.6502
G01 X9.3074 Y10.6626
G01 X9.2839 Y10.6734
G01 X9.2679 Y10.6795
G01 X9.2516 Y10.6849
G01 X9.2350 Y10.6895
G01 X9.2183 Y10.6933
G01 X9.2014 Y10.6962
G01 X9.1843 Y10.6983
G01 X9.1672 Y10.6996
G01 X9.1500 Y10.7000
G01 X8.9001 Y10.7000
G01 X8.9001 Y12.0764
G01 X10.1237 Y13.3000
G01 X11.3250 Y13.3000
G01 X11.3422 Y13.3004
G01 X11.3593 Y13.3017
G01 X11.3764 Y13.3038
G01 X11.3933 Y13.3067
G01 X11.4183 Y13.3127
G01 X11.4348 Y13.3177
G01 X11.4510 Y13.3235
G01 X11.4668 Y13.3300
G01 X11.4824 Y13.3374
G01 X11.4975 Y13.3455
G01 X11.5122 Y13.3543
G01 X11.5265 Y13.3638
G01 X11.5470 Y13.3794
G01 X11.5600 Y13.3907
G01 X11.5725 Y13.4025
G01 X11.5843 Y13.4150
G01 X11.5956 Y13.4280
G01 X11.6061 Y13.4415
G01 X11.6207 Y13.4628
G01 X11.6295 Y13.4775
G01 X11.6376 Y13.4926
G01 X11.6484 Y13.5161
G01 X11.6573 Y13.5402
G01 X11.6645 Y13.5650
G01 X11.6698 Y13.5902
G01 X11.6733 Y13.6157
G01 X11.6749 Y13.6414
G01 X11.6750 Y15.3500
G01 X11.6746 Y15.3672
G01 X11.6733 Y15.3843
G01 X11.6698 Y15.4098
G01 X11.6645 Y15.4350
G01 X11.6599 Y15.4516
G01 X11.6545 Y15.4679
G01 X11.6450 Y15.4918
G01 X11.6337 Y15.5150
G01 X11.6207 Y15.5372
G01 X11.6061 Y15.5585
G01 X11.5956 Y15.5720
G01 X11.5785 Y15.5913
G01 X11.5600 Y15.6093
G01 X11.5403 Y15.6259
G01 X11.5265 Y15.6362
G01 X11.5122 Y15.6457
G01 X11.4900 Y15.6587
G01 X11.4746 Y15.6664
G01 X11.4589 Y15.6734
G01 X11.4348 Y15.6823
G01 X11.4183 Y15.6873
G01 X11.3933 Y15.6933
G01 X11.3764 Y15.6962
G01 X11.3593 Y15.6983
G01 X11.3336 Y15.6999
G01 X9.6250 Y15.7000
G01 X9.5993 Y15.6991
G01 X9.5736 Y15.6962
G01 X9.5567 Y15.6933
G01 X9.5317 Y15.6873
G01 X9.5152 Y15.6823
G01 X9.4911 Y15.6734
G01 X9.4754 Y15.6664
G01 X9.4525 Y15.6545
G01 X9.4378 Y15.6457
G01 X9.4165 Y15.6311
G01 X9.3964 Y15.6150
G01 X9.3775 Y15.5975
G01 X9.3657 Y15.5850
G01 X9.3491 Y15.5653
G01 X9.3388 Y15.5515
G01 X9.3248 Y15.5299
G01 X9.3163 Y15.5150
G01 X9.3086 Y15.4996
G01 X9.2985 Y15.4760
G01 X9.2927 Y15.4598
G01 X9.2855 Y15.4350
G01 X9.2817 Y15.4183
G01 X9.2788 Y15.4014
G01 X9.2767 Y15.3843
G01 X9.2751 Y15.3586
G01 X9.2750 Y14.1487
G01 X7.8756 Y12.7494
G01 X7.8473 Y12.7187
G01 X7.8307 Y12.6990
G01 X7.8109 Y12.6725
G01 X7.8010 Y12.6584
G01 X7.7792 Y12.6228
G01 X7.7668 Y12.6003
G01 X7.7525 Y12.5704
G01 X7.7456 Y12.5547
G01 X7.7311 Y12.5155
G01 X7.7233 Y12.4910
G01 X7.7132 Y12.4505
G01 X7.7085 Y12.4252
G01 X7.7028 Y12.3838
G01 X7.7003 Y12.3422
G01 X7.6999 Y12.3250
G01 X7.6999 Y10.7000
G01 X7.4500 Y10.7000
G01 X7.4243 Y10.6991
G01 X7.4072 Y10.6974
G01 X7.3902 Y10.6948
G01 X7.3650 Y10.6895
G01 X7.3402 Y10.6823
G01 X7.3240 Y10.6765
G01 X7.3082 Y10.6700
G01 X7.2926 Y10.6626
G01 X7.2701 Y10.6502
G01 X7.2485 Y10.6362
G01 X7.2347 Y10.6259
G01 X7.2214 Y10.6150
G01 X7.2025 Y10.5975
G01 X7.1907 Y10.5850
G01 X7.1794 Y10.5720
G01 X7.1689 Y10.5585
G01 X7.1590 Y10.5444
G01 X7.1455 Y10.5225
G01 X7.1374 Y10.5074
G01 X7.1300 Y10.4918
G01 X7.1235 Y10.4760
G01 X7.1151 Y10.4516
G01 X7.1105 Y10.4350
G01 X7.1067 Y10.4183
G01 X7.1026 Y10.3928
G01 X7.1004 Y10.3672
G01 X7.1000 Y10.3500
G01 X7.1000 Y8.6500
G01 X7.1009 Y8.6243
G01 X7.1038 Y8.5986
G01 X7.1067 Y8.5817
G01 X7.1105 Y8.5650
G01 X7.1151 Y8.5484
G01 X7.1205 Y8.5321
G01 X7.1300 Y8.5082
G01 X7.1374 Y8.4926
G01 X7.1455 Y8.4775
G01 X7.1543 Y8.4628
G01 X7.1638 Y8.4485
G01 X7.1794 Y8.4280
G01 X7.1965 Y8.4087
G01 X7.2087 Y8.3965
G01 X7.2214 Y8.3850
G01 X7.2347 Y8.3741
G01 X7.2485 Y8.3638
G01 X7.2628 Y8.3543
G01 X7.2775 Y8.3455
G01 X7.2926 Y8.3374
G01 X7.3082 Y8.3300
G01 X7.3321 Y8.3205
G01 X7.3484 Y8.3151
G01 X7.3650 Y8.3105
G01 X7.3902 Y8.3052
G01 X7.4157 Y8.3017
G01 X7.4328 Y8.3004
G01 X7.4500 Y8.3000
G00 Z2.0000
G00 X10.2399 Y10.5381
G01 F60.00
G01 Z-0.2000
G01 F120.00
G01 X10.1878 Y10.5070
G01 X10.1733 Y10.4978
G01 X10.1593 Y10.4879
G01 X10.0923 Y10.4382
G01 X10.0787 Y10.4276
G01 X10.0657 Y10.4164
G01 X10.0039 Y10.3604
G01 X9.9915 Y10.3485
G01 X9.9796 Y10.3361
G01 X9.9179 Y10.2678
G01 X9.9018 Y10.2477
G01 X9.8521 Y10.1807
G01 X9.8422 Y10.1667
G01 X9.8330 Y10.1522
G01 X9.7902 Y10.0806
G01 X9.7817 Y10.0657
G01 X9.7740 Y10.0503
G01 X9.7383 Y9.9749
G01 X9.7282 Y9.9512
G01 X9.6971 Y9.8647
G01 X9.6917 Y9.8483
G01 X9.6871 Y9.8318
G01 X9.6668 Y9.7509
G01 X9.6631 Y9.7341
G01 X9.6601 Y9.7172
G01 X9.6479 Y9.6347
G01 X9.6458 Y9.6176
G01 X9.6445 Y9.6005
G01 X9.6404 Y9.5172
G01 X9.6401 Y9.4914
G01 X9.6445 Y9.3995
G01 X9.6458 Y9.3824
G01 X9.6479 Y9.3653
G01 X9.6601 Y9.2828
G01 X9.6631 Y9.2659
G01 X9.6668 Y9.2491
G01 X9.6893 Y9.1599
G01 X9.6971 Y9.1353
G01 X9.7252 Y9.0568
G01 X9.7313 Y9.0408
G01 X9.7383 Y9.0251
G01 X9.7740 Y8.9497
G01 X9.7858 Y8.9268
G01 X9.8330 Y8.8478
G01 X9.8422 Y8.8333
G01 X9.8521 Y8.8193
G01 X9.9018 Y8.7523
G01 X9.9124 Y8.7387
G01 X9.9236 Y8.7257
G01 X9.9796 Y8.6639
G01 X9.9915 Y8.6515
G01 X10.0039 Y8.6396
G01 X10.0657 Y8.5836
G01 X10.0787 Y8.5724
G01 X10.0923 Y8.5618
G01 X10.1593 Y8.5121
G01 X10.1733 Y8.5022
G01 X10.1878 Y8.4930
G01 X10.2668 Y8.4458
G01 X10.2897 Y8.4340
G01 X10.3651 Y8.3983
G01 X10.3808 Y8.3913
G01 X10.3968 Y8.3852
G01 X10.4753 Y8.3571
G01 X10.4917 Y8.3517
G01 X10.5082 Y8.3471
G01 X10.5891 Y8.3268
G01 X10.6059 Y8.3231
G01 X10.6228 Y8.3201
G01 X10.7053 Y8.3079
G01 X10.7309 Y8.3050
G01 X10.8228 Y8.3004
G01 X10.8400 Y8.3000
G01 X10.8572 Y8.3004
G01 X10.9405 Y8.3045
G01 X10.9576 Y8.3058
G01 X10.9747 Y8.3079
G01 X11.0572 Y8.3201
G01 X11.0741 Y8.3231
G01 X11.0909 Y8.3268
G01 X11.1718 Y8.3471
G01 X11.1883 Y8.3517
G01 X11.2047 Y8.3571
G01 X11.2832 Y8.3852
G01 X11.2992 Y8.3913
G01 X11.3149 Y8.3983
G01 X11.3903 Y8.4340
G01 X11.4057 Y8.4417
G01 X11.4206 Y8.4502
G01 X11.4922 Y8.4930
G01 X11.5067 Y8.5022
G01 X11.5207 Y8.5121
G01 X11.5877 Y8.5618
G01 X11.6013 Y8.5724
G01 X11.6143 Y8.5836
G01 X11.6761 Y8.6396
G01 X11.6885 Y8.6515
G01 X11.7004 Y8.6639
G01 X11.7564 Y8.7257
G01 X11.7676 Y8.7387
G01 X11.7782 Y8.7523
G01 X11.8279 Y8.8193
G01 X11.8378 Y8.8333
G01 X11.8470 Y8.8478
G01 X11.8898 Y8.9194
G01 X11.8983 Y8.9343
G01 X11.9060 Y8.9497
G01 X11.9453 Y9.0329
G01 X11.9548 Y9.0568
G01 X11.9829 Y9.1353
G01 X11.9883 Y9.1517
G01 X11.9929 Y9.1682
G01 X12.0132 Y9.2491
G01 X12.0169 Y9.2659
G01 X12.0199 Y9.2828
G01 X12.0321 Y9.3653
G01 X12.0342 Y9.3824
G01 X12.0355 Y9.3995
G01 X12.0396 Y9.4828
G01 X12.0399 Y9.5086
G01 X12.0355 Y9.6005
G01 X12.0342 Y9.6176
G01 X12.0321 Y9.6347
G01 X12.0199 Y9.7172
G01 X12.0169 Y9.7341
G01 X12.0132 Y9.7509
G01 X11.9929 Y9.8318
G01 X11.9857 Y9.8565
G01 X11.9548 Y9.9432
G01 X11.9487 Y9.9592
G01 X11.9417 Y9.9749
G01 X11.9060 Y10.0503
G01 X11.8983 Y10.0657
G01 X11.8898 Y10.0806
G01 X11.8470 Y10.1522
G01 X11.8378 Y10.1667
G01 X11.8279 Y10.1807
G01 X11.7782 Y10.2477
G01 X11.7676 Y10.2613
G01 X11.7564 Y10.2743
G01 X11.7004 Y10.3361
G01 X11.6885 Y10.3485
G01 X11.6761 Y10.3604
G01 X11.6078 Y10.4221
G01 X11.5877 Y10.4382
G01 X11.5138 Y10.4929
G01 X11.4922 Y10.5070
G01 X11.4401 Y10.5381
G01 X11.4401 Y10.5914
G01 X12.2486 Y11.3999
G01 X16.0000 Y11.3999
G01 X16.0172 Y11.4003
G01 X16.0588 Y11.4028
G01 X16.1002 Y11.4085
G01 X16.1171 Y11.4114
G01 X16.1577 Y11.4211
G01 X16.1824 Y11.4283
G01 X16.2136 Y11.4394
G01 X16.2297 Y11.4456
G01 X16.2676 Y11.4630
G01 X16.2904 Y11.4749
G01 X16.3189 Y11.4918
G01 X16.3334 Y11.5010
G01 X16.3672 Y11.5255
G01 X16.3873 Y11.5416
G01 X16.4119 Y11.5638
G01 X16.4244 Y11.5756
G01 X17.2486 Y12.3999
G01 X28.4089 Y12.3999
G01 X29.6531 Y11.1556
G01 X29.6656 Y11.1438
G01 X29.6968 Y11.1161
G01 X29.7300 Y11.0909
G01 X29.7513 Y11.0763
G01 X29.7871 Y11.0549
G01 X29.8099 Y11.0430
G01 X29.8478 Y11.0256
G01 X29.8870 Y11.0111
G01 X29.9115 Y11.0033
G01 X29.9520 Y10.9932
G01 X29.9773 Y10.9885
G01 X30.0187 Y10.9828
G01 X30.0358 Y10.9815
G01 X30.0775 Y10.9799
G01 X30.6969 Y10.9799
G01 X30.7280 Y10.9278
G01 X30.7372 Y10.9133
G01 X30.7471 Y10.8993
G01 X30.7968 Y10.8323
G01 X30.8129 Y10.8122
G01 X30.8805 Y10.7376
G01 X30.8989 Y10.7196
G01 X30.9607 Y10.6636
G01 X30.9737 Y10.6524
G01 X30.9873 Y10.6418
G01 X31.0543 Y10.5921
G01 X31.0755 Y10.5776
G01 X31.1618 Y10.5258
G01 X31.1847 Y10.5140
G01 X31.2601 Y10.4783
G01 X31.2758 Y10.4713
G01 X31.2918 Y10.4652
G01 X31.3703 Y10.4371
G01 X31.3867 Y10.4317
G01 X31.4032 Y10.4271
G01 X31.4841 Y10.4068
G01 X31.5009 Y10.4031
G01 X31.5178 Y10.4001
G01 X31.6003 Y10.3879
G01 X31.6174 Y10.3858
G01 X31.6345 Y10.3845
G01 X31.7178 Y10.3804
G01 X31.7350 Y10.3800
G01 X31.7522 Y10.3804
G01 X31.8355 Y10.3845
G01 X31.8612 Y10.3867
G01 X31.9522 Y10.4001
G01 X31.9775 Y10.4048
G01 X32.0751 Y10.4293
G01 X32.0997 Y10.4371
G01 X32.1782 Y10.4652
G01 X32.1942 Y10.4713
G01 X32.2099 Y10.4783
G01 X32.2853 Y10.5140
G01 X32.3007 Y10.5217
G01 X32.3156 Y10.5302
G01 X32.3872 Y10.5730
G01 X32.4017 Y10.5822
G01 X32.4157 Y10.5921
G01 X32.4827 Y10.6418
G01 X32.4963 Y10.6524
G01 X32.5093 Y10.6636
G01 X32.5774 Y10.7255
G01 X32.5954 Y10.7439
G01 X32.6514 Y10.8057
G01 X32.6626 Y10.8187
G01 X32.6732 Y10.8323
G01 X32.7229 Y10.8993
G01 X32.7328 Y10.9133
G01 X32.7420 Y10.9278
G01 X32.7848 Y10.9994
G01 X32.7933 Y11.0143
G01 X32.8010 Y11.0297
G01 X32.8367 Y11.1051
G01 X32.8437 Y11.1208
G01 X32.8498 Y11.1368
G01 X32.8779 Y11.2153
G01 X32.8833 Y11.2317
G01 X32.8879 Y11.2482
G01 X32.9082 Y11.3291
G01 X32.9119 Y11.3459
G01 X32.9149 Y11.3628
G01 X32.9271 Y11.4453
G01 X32.9292 Y11.4624
G01 X32.9305 Y11.4795
G01 X32.9346 Y11.5628
G01 X32.9350 Y11.5800
G01 X32.9346 Y11.5972
G01 X32.9305 Y11.6805
G01 X32.9292 Y11.6976
G01 X32.9271 Y11.7147
G01 X32.9149 Y11.7972
G01 X32.9119 Y11.8141
G01 X32.9082 Y11.8309
G01 X32.8879 Y11.9118
G01 X32.8833 Y11.9283
G01 X32.8779 Y11.9447
G01 X32.8498 Y12.0232
G01 X32.8437 Y12.0392
G01 X32.8367 Y12.0549
G01 X32.8010 Y12.1303
G01 X32.7933 Y12.1457
G01 X32.7848 Y12.1606
G01 X32.7374 Y12.2395
G01 X32.7229 Y12.2607
G01 X32.6732 Y12.3277
G01 X32.6626 Y12.3413
G01 X32.6514 Y12.3543
G01 X32.5954 Y12.4161
G01 X32.5835 Y12.4285
G01 X32.5711 Y12.4404
G01 X32.5093 Y12.4964
G01 X32.4963 Y12.5076
G01 X32.4827 Y12.5182
G01 X32.4157 Y12.5679
G01 X32.4017 Y12.5778
G01 X32.3872 Y12.5870
G01 X32.3156 Y12.6298
G01 X32.3007 Y12.6383
G01 X32.2853 Y12.6460
G01 X32.2099 Y12.6817
G01 X32.1942 Y12.6887
G01 X32.1782 Y12.6948
G01 X32.0997 Y12.7229
G01 X32.0833 Y12.7283
G01 X32.0668 Y12.7329
G01 X31.9859 Y12.7532
G01 X31.9691 Y12.7569
G01 X31.9522 Y12.7599
G01 X31.8612 Y12.7733
G01 X31.8355 Y12.7755
G01 X31.7522 Y12.7796
G01 X31.7350 Y12.7800
G01 X31.7178 Y12.7796
G01 X31.6345 Y12.7755
G01 X31.6088 Y12.7733
G01 X31.5178 Y12.7599
G01 X31.5009 Y12.7569
G01 X31.4841 Y12.7532
G01 X31.4032 Y12.7329
G01 X31.3867 Y12.7283
G01 X31.3703 Y12.7229
G01 X31.2918 Y12.6948
G01 X31.2679 Y12.6853
G01 X31.1847 Y12.6460
G01 X31.1693 Y12.6383
G01 X31.1544 Y12.6298
G01 X31.0828 Y12.5870
G01 X31.0683 Y12.5778
G01 X31.0543 Y12.5679
G01 X30.9873 Y12.5182
G01 X30.9672 Y12.5021
G01 X30.8926 Y12.4345
G01 X30.8746 Y12.4161
G01 X30.8129 Y12.3478
G01 X30.7968 Y12.3277
G01 X30.7471 Y12.2607
G01 X30.7372 Y12.2467
G01 X30.7280 Y12.2322
G01 X30.6969 Y12.1801
G01 X30.3261 Y12.1801
G01 X29.0819 Y13.4244
G01 X29.0512 Y13.4527
G01 X29.0382 Y13.4639
G01 X29.0247 Y13.4745
G01 X28.9980 Y13.4941
G01 X28.9837 Y13.5037
G01 X28.9553 Y13.5208
G01 X28.9404 Y13.5293
G01 X28.9251 Y13.5370
G01 X28.8951 Y13.5511
G01 X28.8711 Y13.5606
G01 X28.8399 Y13.5717
G01 X28.8235 Y13.5767
G01 X28.7913 Y13.5848
G01 X28.7746 Y13.5886
G01 X28.7577 Y13.5915
G01 X28.7249 Y13.5963
G01 X28.6992 Y13.5985
G01 X28.6575 Y13.6001
G01 X17.0000 Y13.6001
G01 X16.9828 Y13.5997
G01 X16.9497 Y13.5980
G01 X16.9326 Y13.5963
G01 X16.8998 Y13.5915
G01 X16.8829 Y13.5886
G01 X16.8662 Y13.5848
G01 X16.8258 Y13.5743
G01 X16.8095 Y13.5689
G01 X16.7783 Y13.5576
G01 X16.7624 Y13.5511
G01 X16.7324 Y13.5370
G01 X16.7171 Y13.5293
G01 X16.7022 Y13.5208
G01 X16.6738 Y13.5037
G01 X16.6595 Y13.4941
G01 X16.6328 Y13.4745
G01 X16.6193 Y13.4639
G01 X16.6063 Y13.4527
G01 X16.5756 Y13.4244
G01 X15.7514 Y12.6001
G01 X11.9914 Y12.6000
G01 X11.9497 Y12.5980
G01 X11.9326 Y12.5963
G01 X11.8914 Y12.5902
G01 X11.8745 Y12.5868
G01 X11.8340 Y12.5767
G01 X11.8176 Y12.5717
G01 X11.7783 Y12.5576
G01 X11.7624 Y12.5511
G01 X11.7324 Y12.5370
G01 X11.7171 Y12.5293
G01 X11.6811 Y12.5082
G01 X11.6666 Y12.4990
G01 X11.6525 Y12.4891
G01 X11.6193 Y12.4639
G01 X11.6063 Y12.4527
G01 X11.5818 Y12.4304
G01 X10.4156 Y11.2644
G01 X10.4038 Y11.2519
G01 X10.3816 Y11.2273
G01 X10.3655 Y11.2072
G01 X10.3410 Y11.1734
G01 X10.3192 Y11.1378
G01 X10.3068 Y11.1153
G01 X10.2889 Y11.0776
G01 X10.2794 Y11.0536
G01 X10.2657 Y11.0142
G01 X10.2611 Y10.9977
G01 X10.2514 Y10.9571
G01 X10.2485 Y10.9402
G01 X10.2428 Y10.8988
G01 X10.2415 Y10.8817
G01 X10.2400 Y10.8486
G01 X10.2399 Y10.5381
G00 Z2.0000
G00 X12.9368 Y8.3852
G01 F60.00
G01 Z-0.2000
G01 F120.00
G01 X13.0153 Y8.3571
G01 X13.0317 Y8.3517
G01 X13.0482 Y8.3471
G01 X13.1291 Y8.3268
G01 X13.1459 Y8.3231
G01 X13.1628 Y8.3201
G01 X13.2453 Y8.3079
G01 X13.2624 Y8.3058
G01 X13.2795 Y8.3045
G01 X13.3628 Y8.3004
G01 X13.3800 Y8.3000
G01 X13.3972 Y8.3004
G01 X13.4805 Y8.3045
G01 X13.4976 Y8.3058
G01 X13.5147 Y8.3079
G01 X13.5972 Y8.3201
G01 X13.6141 Y8.3231
G01 X13.6309 Y8.3268
G01 X13.7118 Y8.3471
G01 X13.7283 Y8.3517
G01 X13.7447 Y8.3571
G01 X13.8232 Y8.3852
G01 X13.8392 Y8.3913
G01 X13.8549 Y8.3983
G01 X13.9303 Y8.4340
G01 X13.9457 Y8.4417
G01 X13.9606 Y8.4502
G01 X14.0322 Y8.4930
G01 X14.0467 Y8.5022
G01 X14.0607 Y8.5121
G01 X14.1277 Y8.5618
G01 X14.1413 Y8.5724
G01 X14.1543 Y8.5836
G01 X14.2161 Y8.6396
G01 X14.2285 Y8.6515
G01 X14.2404 Y8.6639
G01 X14.2964 Y8.7257
G01 X14.3076 Y8.7387
G01 X14.3182 Y8.7523
G01 X14.3679 Y8.8193
G01 X14.3778 Y8.8333
G01 X14.3870 Y8.8478
G01 X14.4298 Y8.9194
G01 X14.4383 Y8.9343
G01 X14.4460 Y8.9497
G01 X14.4817 Y9.0251
G01 X14.4887 Y9.0408
G01 X14.4948 Y9.0568
G01 X14.5229 Y9.1353
G01 X14.5283 Y9.1517
G01 X14.5329 Y9.1682
G01 X14.5532 Y9.2491
G01 X14.5569 Y9.2659
G01 X14.5599 Y9.2828
G01 X14.5721 Y9.3653
G01 X14.5742 Y9.3824
G01 X14.5755 Y9.3995
G01 X14.5796 Y9.4828
G01 X14.5800 Y9.5000
G01 X14.5796 Y9.5172
G01 X14.5755 Y9.6005
G01 X14.5742 Y9.6176
G01 X14.5721 Y9.6347
G01 X14.5599 Y9.7172
G01 X14.5569 Y9.7341
G01 X14.5532 Y9.7509
G01 X14.5329 Y9.8318
G01 X14.5283 Y9.8483
G01 X14.5229 Y9.8647
G01 X14.4948 Y9.9432
G01 X14.4887 Y9.9592
G01 X14.4817 Y9.9749
G01 X14.4460 Y10.0503
G01 X14.4383 Y10.0657
G01 X14.4298 Y10.0806
G01 X14.3870 Y10.1522
G01 X14.3778 Y10.1667
G01 X14.3679 Y10.1807
G01 X14.3182 Y10.2477
G01 X14.3076 Y10.2613
G01 X14.2964 Y10.2743
G01 X14.2404 Y10.3361
G01 X14.2285 Y10.3485
G01 X14.2161 Y10.3604
G01 X14.1543 Y10.4164
G01 X14.1413 Y10.4276
G01 X14.1277 Y10.4382
G01 X14.0607 Y10.4879
G01 X14.0467 Y10.4978
G01 X14.0322 Y10.5070
G01 X13.9606 Y10.5498
G01 X13.9457 Y10.5583
G01 X13.9303 Y10.5660
G01 X13.8549 Y10.6017
G01 X13.8392 Y10.6087
G01 X13.8232 Y10.6148
G01 X13.7447 Y10.6429
G01 X13.7283 Y10.6483
G01 X13.7118 Y10.6529
G01 X13.6309 Y10.6732
G01 X13.6141 Y10.6769
G01 X13.5972 Y10.6799
G01 X13.5147 Y10.6921
G01 X13.4976 Y10.6942
G01 X13.4805 Y10.6955
G01 X13.3972 Y10.6996
G01 X13.3800 Y10.7000
G01 X13.3628 Y10.6996
G01 X13.2795 Y10.6955
G01 X13.2624 Y10.6942
G01 X13.2453 Y10.6921
G01 X13.1628 Y10.6799
G01 X13.1459 Y10.6769
G01 X13.1291 Y10.6732
G01 X13.0482 Y10.6529
G01 X13.0317 Y10.6483
G01 X13.0153 Y10.6429
G01 X12.9368 Y10.6148
G01 X12.9208 Y10.6087
G01 X12.9051 Y10.6017
G01 X12.8297 Y10.5660
G01 X12.8143 Y10.5583
G01 X12.7994 Y10.5498
G01 X12.7278 Y10.5070
G01 X12.7133 Y10.4978
G01 X12.6993 Y10.4879
G01 X12.6323 Y10.4382
G01 X12.6187 Y10.4276
G01 X12.6057 Y10.4164
G01 X12.5439 Y10.3604
G01 X12.5315 Y10.3485
G01 X12.5196 Y10.3361
G01 X12.4636 Y10.2743
G01 X12.4524 Y10.2613
G01 X12.4418 Y10.2477
G01 X12.3921 Y10.1807
G01 X12.3822 Y10.1667
G01 X12.3730 Y10.1522
G01 X12.3302 Y10.0806
G01 X12.3217 Y10.0657
G01 X12.3140 Y10.0503
G01 X12.2783 Y9.9749
G01 X12.2713 Y9.9592
G01 X12.2652 Y9.9432
G01 X12.2371 Y9.8647
G01 X12.2317 Y9.8483
G01 X12.2271 Y9.8318
G01 X12.2068 Y9.7509
G01 X12.2031 Y9.7341
G01 X12.2001 Y9.7172
G01 X12.1879 Y9.6347
G01 X12.1858 Y9.6176
G01 X12.1845 Y9.6005
G01 X12.1804 Y9.5172
G01 X12.1800 Y9.5000
G01 X12.1804 Y9.4828
G01 X12.1845 Y9.3995
G01 X12.1858 Y9.3824
G01 X12.1879 Y9.3653
G01 X12.2001 Y9.2828
G01 X12.2031 Y9.2659
G01 X12.2068 Y9.2491
G01 X12.2271 Y9.1682
G01 X12.2317 Y9.1517
G01 X12.2371 Y9.1353
G01 X12.2652 Y9.0568
G01 X12.2713 Y9.0408
G01 X12.2783 Y9.0251
G01 X12.3140 Y8.9497
G01 X12.3217 Y8.9343
G01 X12.3302 Y8.9194
G01 X12.3730 Y8.8478
G01 X12.3822 Y8.8333
G01 X12.3921 Y8.8193
G01 X12.4418 Y8.7523
G01 X12.4524 Y8.7387
G01 X12.4636 Y8.7257
G01 X12.5196 Y8.6639
G01 X12.5315 Y8.6515
G01 X12.5439 Y8.6396
G01 X12.6057 Y8.5836
G01 X12.6187 Y8.5724
G01 X12.6323 Y8.5618
G01 X12.6993 Y8.5121
G01 X12.7133 Y8.5022
G01 X12.7278 Y8.4930
G01 X12.7994 Y8.4502
G01 X12.8143 Y8.4417
G01 X12.8297 Y8.4340
G01 X12.9051 Y8.3983
G01 X12.9208 Y8.3913
G01 X12.9368 Y8.3852
G00 Z2.0000
G00 X15.4768 Y8.3852
G01 F60.00
G01 Z-0.2000
G01 F120.00
G01 X15.5553 Y8.3571
G01 X15.5717 Y8.3517
G01 X15.5882 Y8.3471
G01 X15.6691 Y8.3268
G01 X15.6859 Y8.3231
G01 X15.7028 Y8.3201
G01 X15.7853 Y8.3079
G01 X15.8109 Y8.3050
G01 X15.9028 Y8.3004
G01 X15.9200 Y8.3000
G01 X15.9372 Y8.3004
G01 X16.0205 Y8.3045
G01 X16.0462 Y8.3067
G01 X16.1372 Y8.3201
G01 X16.1541 Y8.3231
G01 X16.1709 Y8.3268
G01 X16.2518 Y8.3471
G01 X16.2683 Y8.3517
G01 X16.2847 Y8.3571
G01 X16.3632 Y8.3852
G01 X16.3792 Y8.3913
G01 X16.3949 Y8.3983
G01 X16.4703 Y8.4340
G01 X16.4857 Y8.4417
G01 X16.5006 Y8.4502
G01 X16.5722 Y8.4930
G01 X16.5867 Y8.5022
G01 X16.6007 Y8.5121
G01 X16.6677 Y8.5618
G01 X16.6878 Y8.5779
G01 X16.7561 Y8.6396
G01 X16.7685 Y8.6515
G01 X16.7804 Y8.6639
G01 X16.8364 Y8.7257
G01 X16.8476 Y8.7387
G01 X16.8582 Y8.7523
G01 X16.9129 Y8.8262
G01 X16.9270 Y8.8478
G01 X16.9698 Y8.9194
G01 X16.9783 Y8.9343
G01 X16.9860 Y8.9497
G01 X17.0217 Y9.0251
G01 X17.0287 Y9.0408
G01 X17.0348 Y9.0568
G01 X17.0629 Y9.1353
G01 X17.0683 Y9.1517
G01 X17.0729 Y9.1682
G01 X17.0932 Y9.2491
G01 X17.0969 Y9.2659
G01 X17.0999 Y9.2828
G01 X17.1121 Y9.3653
G01 X17.1150 Y9.3909
G01 X17.1196 Y9.4828
G01 X17.1200 Y9.5000
G01 X17.1196 Y9.5172
G01 X17.1155 Y9.6005
G01 X17.1142 Y9.6176
G01 X17.1121 Y9.6347
G01 X17.0999 Y9.7172
G01 X17.0952 Y9.7425
G01 X17.0729 Y9.8318
G01 X17.0683 Y9.8483
G01 X17.0629 Y9.8647
G01 X17.0348 Y9.9432
G01 X17.0287 Y9.9592
G01 X17.0217 Y9.9749
G01 X16.9823 Y10.0581
G01 X16.9698 Y10.0806
G01 X16.9397 Y10.1310
G01 X17.7086 Y10.8999
G01 X26.7514 Y10.8999
G01 X29.0356 Y8.6156
G01 X29.0481 Y8.6038
G01 X29.0793 Y8.5761
G01 X29.1125 Y8.5509
G01 X29.1338 Y8.5363
G01 X29.1622 Y8.5192
G01 X29.1771 Y8.5107
G01 X29.2146 Y8.4925
G01 X29.2383 Y8.4824
G01 X29.2776 Y8.4683
G01 X29.3023 Y8.4611
G01 X29.3429 Y8.4514
G01 X29.3841 Y8.4449
G01 X29.4097 Y8.4420
G01 X29.4428 Y8.4403
G01 X29.4600 Y8.4399
G01 X30.6969 Y8.4399
G01 X30.7280 Y8.3878
G01 X30.7372 Y8.3733
G01 X30.7471 Y8.3593
G01 X30.7968 Y8.2923
G01 X30.8129 Y8.2722
G01 X30.8805 Y8.1976
G01 X30.8989 Y8.1796
G01 X30.9607 Y8.1236
G01 X30.9737 Y8.1124
G01 X30.9873 Y8.1018
G01 X31.0543 Y8.0521
G01 X31.0755 Y8.0376
G01 X31.1618 Y7.9858
G01 X31.1847 Y7.9740
G01 X31.2601 Y7.9383
G01 X31.2758 Y7.9313
G01 X31.2918 Y7.9252
G01 X31.3703 Y7.8971
G01 X31.3867 Y7.8917
G01 X31.4032 Y7.8871
G01 X31.4841 Y7.8668
G01 X31.5009 Y7.8631
G01 X31.5178 Y7.8601
G01 X31.6088 Y7.8467
G01 X31.6345 Y7.8445
G01 X31.7178 Y7.8404
G01 X31.7350 Y7.8400
G01 X31.7522 Y7.8404
G01 X31.8355 Y7.8445
G01 X31.8526 Y7.8458
G01 X31.8697 Y7.8479
G01 X31.9522 Y7.8601
G01 X31.9691 Y7.8631
G01 X31.9859 Y7.8668
G01 X32.0668 Y7.8871
G01 X32.0833 Y7.8917
G01 X32.0997 Y7.8971
G01 X32.1782 Y7.9252
G01 X32.1942 Y7.9313
G01 X32.2099 Y7.9383
G01 X32.2853 Y7.9740
G01 X32.3082 Y7.9858
G01 X32.3872 Y8.0330
G01 X32.4088 Y8.0471
G01 X32.4896 Y8.1070
G01 X32.5093 Y8.1236
G01 X32.5711 Y8.1796
G01 X32.5835 Y8.1915
G01 X32.5954 Y8.2039
G01 X32.6514 Y8.2657
G01 X32.6626 Y8.2787
G01 X32.6732 Y8.2923
G01 X32.7229 Y8.3593
G01 X32.7328 Y8.3733
G01 X32.7420 Y8.3878
G01 X32.7848 Y8.4594
G01 X32.7933 Y8.4743
G01 X32.8010 Y8.4897
G01 X32.8367 Y8.5651
G01 X32.8437 Y8.5808
G01 X32.8498 Y8.5968
G01 X32.8779 Y8.6753
G01 X32.8833 Y8.6917
G01 X32.8879 Y8.7082
G01 X32.9082 Y8.7891
G01 X32.9119 Y8.8059
G01 X32.9149 Y8.8228
G01 X32.9271 Y8.9053
G01 X32.9292 Y8.9224
G01 X32.9305 Y8.9395
G01 X32.9346 Y9.0228
G01 X32.9350 Y9.0400
G01 X32.9346 Y9.0572
G01 X32.9305 Y9.1405
G01 X32.9292 Y9.1576
G01 X32.9271 Y9.1747
G01 X32.9149 Y9.2572
G01 X32.9119 Y9.2741
G01 X32.9082 Y9.2909
G01 X32.8879 Y9.3718
G01 X32.8833 Y9.3883
G01 X32.8779 Y9.4047
G01 X32.8498 Y9.4832
G01 X32.8437 Y9.4992
G01 X32.8367 Y9.5149
G01 X32.7973 Y9.5981
G01 X32.7848 Y9.6206
G01 X32.7420 Y9.6922
G01 X32.7328 Y9.7067
G01 X32.7229 Y9.7207
G01 X32.6732 Y9.7877
G01 X32.6626 Y9.8013
G01 X32.6514 Y9.8143
G01 X32.5954 Y9.8761
G01 X32.5835 Y9.8885
G01 X32.5711 Y9.9004
G01 X32.5093 Y9.9564
G01 X32.4963 Y9.9676
G01 X32.4827 Y9.9782
G01 X32.4157 Y10.0279
G01 X32.4017 Y10.0378
G01 X32.3872 Y10.0470
G01 X32.3156 Y10.0898
G01 X32.2931 Y10.1023
G01 X32.2099 Y10.1417
G01 X32.1942 Y10.1487
G01 X32.1782 Y10.1548
G01 X32.0997 Y10.1829
G01 X32.0833 Y10.1883
G01 X32.0668 Y10.1929
G01 X31.9859 Y10.2132
G01 X31.9607 Y10.2185
G01 X31.8697 Y10.2321
G01 X31.8526 Y10.2342
G01 X31.8355 Y10.2355
G01 X31.7522 Y10.2396
G01 X31.7350 Y10.2400
G01 X31.7178 Y10.2396
G01 X31.6345 Y10.2355
G01 X31.6174 Y10.2342
G01 X31.6003 Y10.2321
G01 X31.5178 Y10.2199
G01 X31.5009 Y10.2169
G01 X31.4841 Y10.2132
G01 X31.4032 Y10.1929
G01 X31.3867 Y10.1883
G01 X31.3703 Y10.1829
G01 X31.2918 Y10.1548
G01 X31.2679 Y10.1453
G01 X31.1847 Y10.1060
G01 X31.1693 Y10.0983
G01 X31.1544 Y10.0898
G01 X31.0828 Y10.0470
G01 X31.0683 Y10.0378
G01 X31.0543 Y10.0279
G01 X30.9804 Y9.9730
G01 X30.9607 Y9.9564
G01 X30.8989 Y9.9004
G01 X30.8865 Y9.8885
G01 X30.8746 Y9.8761
G01 X30.8186 Y9.8143
G01 X30.8074 Y9.8013
G01 X30.7968 Y9.7877
G01 X30.7471 Y9.7207
G01 X30.7372 Y9.7067
G01 X30.7280 Y9.6922
G01 X30.6969 Y9.6401
G01 X29.7086 Y9.6401
G01 X27.4182 Y11.9304
G01 X27.3937 Y11.9527
G01 X27.3807 Y11.9639
G01 X27.3475 Y11.9891
G01 X27.3262 Y12.0037
G01 X27.2978 Y12.0208
G01 X27.2829 Y12.0293
G01 X27.2676 Y12.0370
G01 X27.2376 Y12.0511
G01 X27.2217 Y12.0576
G01 X27.1905 Y12.0689
G01 X27.1660 Y12.0767
G01 X27.1338 Y12.0848
G01 X27.1171 Y12.0886
G01 X27.1002 Y12.0915
G01 X27.0588 Y12.0972
G01 X27.0172 Y12.0997
G01 X27.0000 Y12.1001
G01 X17.4600 Y12.1001
G01 X17.4428 Y12.0997
G01 X17.4097 Y12.0980
G01 X17.3926 Y12.0963
G01 X17.3598 Y12.0915
G01 X17.3429 Y12.0886
G01 X17.3262 Y12.0848
G01 X17.2940 Y12.0767
G01 X17.2776 Y12.0717
G01 X17.2464 Y12.0606
G01 X17.2303 Y12.0544
G01 X17.2146 Y12.0475
G01 X17.1847 Y12.0332
G01 X17.1696 Y12.0251
G01 X17.1411 Y12.0082
G01 X17.1266 Y11.9990
G01 X17.1125 Y11.9891
G01 X17.0860 Y11.9693
G01 X17.0663 Y11.9527
G01 X17.0356 Y11.9244
G01 X15.8058 Y10.6945
G01 X15.7853 Y10.6921
G01 X15.7028 Y10.6799
G01 X15.6859 Y10.6769
G01 X15.6691 Y10.6732
G01 X15.5882 Y10.6529
G01 X15.5717 Y10.6483
G01 X15.5553 Y10.6429
G01 X15.4768 Y10.6148
G01 X15.4608 Y10.6087
G01 X15.4451 Y10.6017
G01 X15.3697 Y10.5660
G01 X15.3543 Y10.5583
G01 X15.3394 Y10.5498
G01 X15.2678 Y10.5070
G01 X15.2533 Y10.4978
G01 X15.2393 Y10.4879
G01 X15.1723 Y10.4382
G01 X15.1587 Y10.4276
G01 X15.1457 Y10.4164
G01 X15.0839 Y10.3604
G01 X15.0715 Y10.3485
G01 X15.0596 Y10.3361
G01 X15.0036 Y10.2743
G01 X14.9924 Y10.2613
G01 X14.9818 Y10.2477
G01 X14.9321 Y10.1807
G01 X14.9222 Y10.1667
G01 X14.9130 Y10.1522
G01 X14.8702 Y10.0806
G01 X14.8617 Y10.0657
G01 X14.8540 Y10.0503
G01 X14.8183 Y9.9749
G01 X14.8113 Y9.9592
G01 X14.8052 Y9.9432
G01 X14.7771 Y9.8647
G01 X14.7717 Y9.8483
G01 X14.7671 Y9.8318
G01 X14.7468 Y9.7509
G01 X14.7431 Y9.7341
G01 X14.7401 Y9.7172
G01 X14.7279 Y9.6347
G01 X14.7258 Y9.6176
G01 X14.7245 Y9.6005
G01 X14.7204 Y9.5172
G01 X14.7201 Y9.4914
G01 X14.7250 Y9.3909
G01 X14.7279 Y9.3653
G01 X14.7415 Y9.2743
G01 X14.7468 Y9.2491
G01 X14.7671 Y9.1682
G01 X14.7717 Y9.1517
G01 X14.7771 Y9.1353
G01 X14.8052 Y9.0568
G01 X14.8113 Y9.0408
G01 X14.8183 Y9.0251
G01 X14.8540 Y8.9497
G01 X14.8617 Y8.9343
G01 X14.8702 Y8.9194
G01 X14.9130 Y8.8478
G01 X14.9222 Y8.8333
G01 X14.9321 Y8.8193
G01 X14.9818 Y8.7523
G01 X14.9924 Y8.7387
G01 X15.0036 Y8.7257
G01 X15.0596 Y8.6639
G01 X15.0715 Y8.6515
G01 X15.0839 Y8.6396
G01 X15.1457 Y8.5836
G01 X15.1587 Y8.5724
G01 X15.1723 Y8.5618
G01 X15.2393 Y8.5121
G01 X15.2533 Y8.5022
G01 X15.2678 Y8.4930
G01 X15.3394 Y8.4502
G01 X15.3543 Y8.4417
G01 X15.3697 Y8.4340
G01 X15.4451 Y8.3983
G01 X15.4608 Y8.3913
G01 X15.4768 Y8.3852
G00 Z2.0000
G00 X18.0168 Y8.3852
G01 F60.00
G01 Z-0.2000
G01 F120.00
G01 X18.0953 Y8.3571
G01 X18.1117 Y8.3517
G01 X18.1282 Y8.3471
G01 X18.2091 Y8.3268
G01 X18.2259 Y8.3231
G01 X18.2428 Y8.3201
G01 X18.3253 Y8.3079
G01 X18.3424 Y8.3058
G01 X18.3595 Y8.3045
G01 X18.4428 Y8.3004
G01 X18.4600 Y8.3000
G01 X18.4772 Y8.3004
G01 X18.5605 Y8.3045
G01 X18.5776 Y8.3058
G01 X18.5947 Y8.3079
G01 X18.6772 Y8.3201
G01 X18.6941 Y8.3231
G01 X18.7109 Y8.3268
G01 X18.7918 Y8.3471
G01 X18.8083 Y8.3517
G01 X18.8247 Y8.3571
G01 X18.9032 Y8.3852
G01 X18.9192 Y8.3913
G01 X18.9349 Y8.3983
G01 X19.0103 Y8.4340
G01 X19.0257 Y8.4417
G01 X19.0406 Y8.4502
G01 X19.1122 Y8.4930
G01 X19.1267 Y8.5022
G01 X19.1407 Y8.5121
G01 X19.2077 Y8.5618
G01 X19.2213 Y8.5724
G01 X19.2343 Y8.5836
G01 X19.2961 Y8.6396
G01 X19.3085 Y8.6515
G01 X19.3204 Y8.6639
G01 X19.3764 Y8.7257
G01 X19.3876 Y8.7387
G01 X19.3982 Y8.7523
G01 X19.4479 Y8.8193
G01 X19.4578 Y8.8333
G01 X19.4670 Y8.8478
G01 X19.5098 Y8.9194
G01 X19.5183 Y8.9343
G01 X19.5260 Y8.9497
G01 X19.5617 Y9.0251
G01 X19.5687 Y9.0408
G01 X19.5748 Y9.0568
G01 X19.6029 Y9.1353
G01 X19.6083 Y9.1517
G01 X19.6129 Y9.1682
G01 X19.6332 Y9.2491
G01 X19.6369 Y9.2659
G01 X19.6399 Y9.2828
G01 X19.6521 Y9.3653
G01 X19.6542 Y9.3824
G01 X19.6555 Y9.3995
G01 X19.6596 Y9.4828
G01 X19.6600 Y9.5000
G01 X19.6596 Y9.5172
G01 X19.6555 Y9.6005
G01 X19.6542 Y9.6176
G01 X19.6521 Y9.6347
G01 X19.6399 Y9.7172
G01 X19.6369 Y9.7341
G01 X19.6332 Y9.7509
G01 X19.6129 Y9.8318
G01 X19.6083 Y9.8483
G01 X19.6029 Y9.8647
G01 X19.5748 Y9.9432
G01 X19.5687 Y9.9592
G01 X19.5617 Y9.9749
G01 X19.5260 Y10.0503
G01 X19.5183 Y10.0657
G01 X19.5098 Y10.0806
G01 X19.4670 Y10.1522
G01 X19.4578 Y10.1667
G01 X19.4479 Y10.1807
G01 X19.3982 Y10.2477
G01 X19.3876 Y10.2613
G01 X19.3764 Y10.2743
G01 X19.3204 Y10.3361
G01 X19.3085 Y10.3485
G01 X19.2961 Y10.3604
G01 X19.2343 Y10.4164
G01 X19.2213 Y10.4276
G01 X19.2077 Y10.4382
G01 X19.1407 Y10.4879
G01 X19.1267 Y10.4978
G01 X19.1122 Y10.5070
G01 X19.0406 Y10.5498
G01 X19.0257 Y10.5583
G01 X19.0103 Y10.5660
G01 X18.9349 Y10.6017
G01 X18.9192 Y10.6087
G01 X18.9032 Y10.6148
G01 X18.8247 Y10.6429
G01 X18.8083 Y10.6483
G01 X18.7918 Y10.6529
G01 X18.7109 Y10.6732
G01 X18.6941 Y10.6769
G01 X18.6772 Y10.6799
G01 X18.5947 Y10.6921
G01 X18.5776 Y10.6942
G01 X18.5605 Y10.6955
G01 X18.4772 Y10.6996
G01 X18.4600 Y10.7000
G01 X18.4428 Y10.6996
G01 X18.3595 Y10.6955
G01 X18.3424 Y10.6942
G01 X18.3253 Y10.6921
G01 X18.2428 Y10.6799
G01 X18.2259 Y10.6769
G01 X18.2091 Y10.6732
G01 X18.1282 Y10.6529
G01 X18.1117 Y10.6483
G01 X18.0953 Y10.6429
G01 X18.0168 Y10.6148
G01 X18.0008 Y10.6087
G01 X17.9851 Y10.6017
G01 X17.9097 Y10.5660
G01 X17.8943 Y10.5583
G01 X17.8794 Y10.5498
G01 X17.8078 Y10.5070
G01 X17.7933 Y10.4978
G01 X17.7793 Y10.4879
G01 X17.7123 Y10.4382
G01 X17.6987 Y10.4276
G01 X17.6857 Y10.4164
G01 X17.6239 Y10.3604
G01 X17.6115 Y10.3485
G01 X17.5996 Y10.3361
G01 X17.5436 Y10.2743
G01 X17.5324 Y10.2613
G01 X17.5218 Y10.2477
G01 X17.4721 Y10.1807
G01 X17.4622 Y10.1667
G01 X17.4530 Y10.1522
G01 X17.4102 Y10.0806
G01 X17.4017 Y10.0657
G01 X17.3940 Y10.0503
G01 X17.3583 Y9.9749
G01 X17.3513 Y9.9592
G01 X17.3452 Y9.9432
G01 X17.3171 Y9.8647
G01 X17.3117 Y9.8483
G01 X17.3071 Y9.8318
G01 X17.2868 Y9.7509
G01 X17.2831 Y9.7341
G01 X17.2801 Y9.7172
G01 X17.2679 Y9.6347
G01 X17.2658 Y9.6176
G01 X17.2645 Y9.6005
G01 X17.2604 Y9.5172
G01 X17.2600 Y9.5000
G01 X17.2604 Y9.4828
G01 X17.2645 Y9.3995
G01 X17.2658 Y9.3824
G01 X17.2679 Y9.3653
G01 X17.2801 Y9.2828
G01 X17.2831 Y9.2659
G01 X17.2868 Y9.2491
G01 X17.3071 Y9.1682
G01 X17.3117 Y9.1517
G01 X17.3171 Y9.1353
G01 X17.3452 Y9.0568
G01 X17.3513 Y9.0408
G01 X17.3583 Y9.0251
G01 X17.3940 Y8.9497
G01 X17.4017 Y8.9343
G01 X17.4102 Y8.9194
G01 X17.4530 Y8.8478
G01 X17.4622 Y8.8333
G01 X17.4721 Y8.8193
G01 X17.5218 Y8.7523
G01 X17.5324 Y8.7387
G01 X17.5436 Y8.7257
G01 X17.5996 Y8.6639
G01 X17.6115 Y8.6515
G01 X17.6239 Y8.6396
G01 X17.6857 Y8.5836
G01 X17.6987 Y8.5724
G01 X17.7123 Y8.5618
G01 X17.7793 Y8.5121
G01 X17.7933 Y8.5022
G01 X17.8078 Y8.4930
G01 X17.8794 Y8.4502
G01 X17.8943 Y8.4417
G01 X17.9097 Y8.4340
G01 X17.9851 Y8.3983
G01 X18.0008 Y8.3913
G01 X18.0168 Y8.3852
G00 Z2.0000
G00 X20.5568 Y8.3852
G01 F60.00
G01 Z-0.2000
G01 F120.00
G01 X20.6353 Y8.3571
G01 X20.6517 Y8.3517
G01 X20.6682 Y8.3471
G01 X20.7491 Y8.3268
G01 X20.7659 Y8.3231
G01 X20.7828 Y8.3201
G01 X20.8653 Y8.3079
G01 X20.8824 Y8.3058
G01 X20.8995 Y8.3045
G01 X20.9828 Y8.3004
G01 X21.0000 Y8.3000
G01 X21.0172 Y8.3004
G01 X21.1005 Y8.3045
G01 X21.1176 Y8.3058
G01 X21.1347 Y8.3079
G01 X21.2172 Y8.3201
G01 X21.2341 Y8.3231
G01 X21.2509 Y8.3268
G01 X21.3318 Y8.3471
G01 X21.3483 Y8.3517
G01 X21.3647 Y8.3571
G01 X21.4432 Y8.3852
G01 X21.4592 Y8.3913
G01 X21.4749 Y8.3983
G01 X21.5503 Y8.4340
G01 X21.5657 Y8.4417
G01 X21.5806 Y8.4502
G01 X21.6522 Y8.4930
G01 X21.6667 Y8.5022
G01 X21.6807 Y8.5121
G01 X21.7477 Y8.5618
G01 X21.7613 Y8.5724
G01 X21.7743 Y8.5836
G01 X21.8361 Y8.6396
G01 X21.8485 Y8.6515
G01 X21.8604 Y8.6639
G01 X21.9164 Y8.7257
G01 X21.9276 Y8.7387
G01 X21.9382 Y8.7523
G01 X21.9879 Y8.8193
G01 X21.9978 Y8.8333
G01 X22.0070 Y8.8478
G01 X22.0498 Y8.9194
G01 X22.0583 Y8.9343
G01 X22.0660 Y8.9497
G01 X22.1017 Y9.0251
G01 X22.1087 Y9.0408
G01 X22.1148 Y9.0568
G01 X22.1429 Y9.1353
G01 X22.1483 Y9.1517
G01 X22.1529 Y9.1682
G01 X22.1732 Y9.2491
G01 X22.1769 Y9.2659
G01 X22.1799 Y9.2828
G01 X22.1921 Y9.3653
G01 X22.1942 Y9.3824
G01 X22.1955 Y9.3995
G01 X22.1996 Y9.4828
G01 X22.2000 Y9.5000
G01 X22.1996 Y9.5172
G01 X22.1955 Y9.6005
G01 X22.1942 Y9.6176
G01 X22.1921 Y9.6347
G01 X22.1799 Y9.7172
G01 X22.1769 Y9.7341
G01 X22.1732 Y9.7509
G01 X22.1529 Y9.8318
G01 X22.1483 Y9.8483
G01 X22.1429 Y9.8647
G01 X22.1148 Y9.9432
G01 X22.1087 Y9.9592
G01 X22.1017 Y9.9749
G01 X22.0660 Y10.0503
G01 X22.0583 Y10.0657
G01 X22.0498 Y10.0806
G01 X22.0070 Y10.1522
G01 X21.9978 Y10.1667
G01 X21.9879 Y10.1807
G01 X21.9382 Y10.2477
G01 X21.9276 Y10.2613
G01 X21.9164 Y10.2743
G01 X21.8604 Y10.3361
G01 X21.8485 Y10.3485
G01 X21.8361 Y10.3604
G01 X21.7743 Y10.4164
G01 X21.7613 Y10.4276
G01 X21.7477 Y10.4382
G01 X21.6807 Y10.4879
G01 X21.6667 Y10.4978
G01 X21.6522 Y10.5070
G01 X21.5806 Y10.5498
G01 X21.5657 Y10.5583
G01 X21.5503 Y10.5660
G01 X21.4749 Y10.6017
G01 X21.4592 Y10.6087
G01 X21.4432 Y10.6148
G01 X21.3647 Y10.6429
G01 X21.3483 Y10.6483
G01 X21.3318 Y10.6529
G01 X21.2509 Y10.6732
G01 X21.2341 Y10.6769
G01 X21.2172 Y10.6799
G01 X21.1347 Y10.6921
G01 X21.1176 Y10.6942
G01 X21.1005 Y10.6955
G01 X21.0172 Y10.6996
G01 X21.0000 Y10.7000
G01 X20.9828 Y10.6996
G01 X20.8995 Y10.6955
G01 X20.8824 Y10.6942
G01 X20.8653 Y10.6921
G01 X20.7828 Y10.6799
G01 X20.7659 Y10.6769
G01 X20.7491 Y10.6732
G01 X20.6682 Y10.6529
G01 X20.6517 Y10.6483
G01 X20.6353 Y10.6429
G01 X20.5568 Y10.6148
G01 X20.5408 Y10.6087
G01 X20.5251 Y10.6017
G01 X20.4497 Y10.5660
G01 X20.4343 Y10.5583
G01 X20.4194 Y10.5498
G01 X20.3478 Y10.5070
G01 X20.3333 Y10.4978
G01 X20.3193 Y10.4879
G01 X20.2523 Y10.4382
G01 X20.2387 Y10.4276
G01 X20.2257 Y10.4164
G01 X20.1639 Y10.3604
G01 X20.1515 Y10.3485
G01 X20.1396 Y10.3361
G01 X20.0836 Y10.2743
G01 X20.0724 Y10.2613
G01 X20.0618 Y10.2477
G01 X20.0121 Y10.1807
G01 X20.0022 Y10.1667
G01 X19.9930 Y10.1522
G01 X19.9502 Y10.0806
G01 X19.9417 Y10.0657
G01 X19.9340 Y10.0503
G01 X19.8983 Y9.9749
G01 X19.8913 Y9.9592
G01 X19.8852 Y9.9432
G01 X19.8571 Y9.8647
G01 X19.8517 Y9.8483
G01 X19.8471 Y9.8318
G01 X19.8268 Y9.7509
G01 X19.8231 Y9.7341
G01 X19.8201 Y9.7172
G01 X19.8079 Y9.6347
G01 X19.8058 Y9.6176
G01 X19.8045 Y9.6005
G01 X19.8004 Y9.5172
G01 X19.8000 Y9.5000
G01 X19.8004 Y9.4828
G01 X19.8045 Y9.3995
G01 X19.8058 Y9.3824
G01 X19.8079 Y9.3653
G01 X19.8201 Y9.2828
G01 X19.8231 Y9.2659
G01 X19.8268 Y9.2491
G01 X19.8471 Y9.1682
G01 X19.8517 Y9.1517
G01 X19.8571 Y9.1353
G01 X19.8852 Y9.0568
G01 X19.8913 Y9.0408
G01 X19.8983 Y9.0251
G01 X19.9340 Y8.9497
G01 X19.9417 Y8.9343
G01 X19.9502 Y8.9194
G01 X19.9930 Y8.8478
G01 X20.0022 Y8.8333
G01 X20.0121 Y8.8193
G01 X20.0618 Y8.7523
G01 X20.0724 Y8.7387
G01 X20.0836 Y8.7257
G01 X20.1396 Y8.6639
G01 X20.1515 Y8.6515
G01 X20.1639 Y8.6396
G01 X20.2257 Y8.5836
G01 X20.2387 Y8.5724
G01 X20.2523 Y8.5618
G01 X20.3193 Y8.5121
G01 X20.3333 Y8.5022
G01 X20.3478 Y8.4930
G01 X20.4194 Y8.4502
G01 X20.4343 Y8.4417
G01 X20.4497 Y8.4340
G01 X20.5251 Y8.3983
G01 X20.5408 Y8.3913
G01 X20.5568 Y8.3852
G00 Z2.0000
G00 X23.0968 Y8.3852
G01 F60.00
G01 Z-0.2000
G01 F120.00
G01 X23.1753 Y8.3571
G01 X23.1917 Y8.3517
G01 X23.2082 Y8.3471
G01 X23.2891 Y8.3268
G01 X23.3059 Y8.3231
G01 X23.3228 Y8.3201
G01 X23.4053 Y8.3079
G01 X23.4224 Y8.3058
G01 X23.4395 Y8.3045
G01 X23.5228 Y8.3004
G01 X23.5400 Y8.3000
G01 X23.5572 Y8.3004
G01 X23.6405 Y8.3045
G01 X23.6576 Y8.3058
G01 X23.6747 Y8.3079
G01 X23.7572 Y8.3201
G01 X23.7741 Y8.3231
G01 X23.7909 Y8.3268
G01 X23.8718 Y8.3471
G01 X23.8883 Y8.3517
G01 X23.9047 Y8.3571
G01 X23.9832 Y8.3852
G01 X23.9992 Y8.3913
G01 X24.0149 Y8.3983
G01 X24.0903 Y8.4340
G01 X24.1057 Y8.4417
G01 X24.1206 Y8.4502
G01 X24.1922 Y8.4930
G01 X24.2067 Y8.5022
G01 X24.2207 Y8.5121
G01 X24.2877 Y8.5618
G01 X24.3013 Y8.5724
G01 X24.3143 Y8.5836
G01 X24.3761 Y8.6396
G01 X24.3885 Y8.6515
G01 X24.4004 Y8.6639
G01 X24.4564 Y8.7257
G01 X24.4676 Y8.7387
G01 X24.4782 Y8.7523
G01 X24.5279 Y8.8193
G01 X24.5378 Y8.8333
G01 X24.5470 Y8.8478
G01 X24.5898 Y8.9194
G01 X24.5983 Y8.9343
G01 X24.6060 Y8.9497
G01 X24.6417 Y9.0251
G01 X24.6487 Y9.0408
G01 X24.6548 Y9.0568
G01 X24.6829 Y9.1353
G01 X24.6883 Y9.1517
G01 X24.6929 Y9.1682
G01 X24.7132 Y9.2491
G01 X24.7169 Y9.2659
G01 X24.7199 Y9.2828
G01 X24.7321 Y9.3653
G01 X24.7342 Y9.3824
G01 X24.7355 Y9.3995
G01 X24.7396 Y9.4828
G01 X24.7400 Y9.5000
G01 X24.7396 Y9.5172
G01 X24.7355 Y9.6005
G01 X24.7342 Y9.6176
G01 X24.7321 Y9.6347
G01 X24.7199 Y9.7172
G01 X24.7169 Y9.7341
G01 X24.7132 Y9.7509
G01 X24.6929 Y9.8318
G01 X24.6883 Y9.8483
G01 X24.6829 Y9.8647
G01 X24.6548 Y9.9432
G01 X24.6487 Y9.9592
G01 X24.6417 Y9.9749
G01 X24.6060 Y10.0503
G01 X24.5983 Y10.0657
G01 X24.5898 Y10.0806
G01 X24.5470 Y10.1522
G01 X24.5378 Y10.1667
G01 X24.5279 Y10.1807
G01 X24.4782 Y10.2477
G01 X24.4676 Y10.2613
G01 X24.4564 Y10.2743
G01 X24.4004 Y10.3361
G01 X24.3885 Y10.3485
G01 X24.3761 Y10.3604
G01 X24.3143 Y10.4164
G01 X24.3013 Y10.4276
G01 X24.2877 Y10.4382
G01 X24.2207 Y10.4879
G01 X24.2067 Y10.4978
G01 X24.1922 Y10.5070
G01 X24.1206 Y10.5498
G01 X24.1057 Y10.5583
G01 X24.0903 Y10.5660
G01 X24.0149 Y10.6017
G01 X23.9992 Y10.6087
G01 X23.9832 Y10.6148
G01 X23.9047 Y10.6429
G01 X23.8883 Y10.6483
G01 X23.8718 Y10.6529
G01 X23.7909 Y10.6732
G01 X23.7741 Y10.6769
G01 X23.7572 Y10.6799
G01 X23.6747 Y10.6921
G01 X23.6576 Y10.6942
G01 X23.6405 Y10.6955
G01 X23.5572 Y10.6996
G01 X23.5400 Y10.7000
G01 X23.5228 Y10.6996
G01 X23.4395 Y10.6955
G01 X23.4224 Y10.6942
G01 X23.4053 Y10.6921
G01 X23.3228 Y10.6799
G01 X23.3059 Y10.6769
G01 X23.2891 Y10.6732
G01 X23.2082 Y10.6529
G01 X23.1917 Y10.6483
G01 X23.1753 Y10.6429
G01 X23.0968 Y10.6148
G01 X23.0808 Y10.6087
G01 X23.0651 Y10.6017
G01 X22.9897 Y10.5660
G01 X22.9743 Y10.5583
G01 X22.9594 Y10.5498
G01 X22.8878 Y10.5070
G01 X22.8733 Y10.4978
G01 X22.8593 Y10.4879
G01 X22.7923 Y10.4382
G01 X22.7787 Y10.4276
G01 X22.7657 Y10.4164
G01 X22.7039 Y10.3604
G01 X22.6915 Y10.3485
G01 X22.6796 Y10.3361
G01 X22.6236 Y10.2743
G01 X22.6124 Y10.2613
G01 X22.6018 Y10.2477
G01 X22.5521 Y10.1807
G01 X22.5422 Y10.1667
G01 X22.5330 Y10.1522
G01 X22.4902 Y10.0806
G01 X22.4817 Y10.0657
G01 X22.4740 Y10.0503
G01 X22.4383 Y9.9749
G01 X22.4313 Y9.9592
G01 X22.4252 Y9.9432
G01 X22.3971 Y9.8647
G01 X22.3917 Y9.8483
G01 X22.3871 Y9.8318
G01 X22.3668 Y9.7509
G01 X22.3631 Y9.7341
G01 X22.3601 Y9.7172
G01 X22.3479 Y9.6347
G01 X22.3458 Y9.6176
G01 X22.3445 Y9.6005
G01 X22.3404 Y9.5172
G01 X22.3400 Y9.5000
G01 X22.3404 Y9.4828
G01 X22.3445 Y9.3995
G01 X22.3458 Y9.3824
G01 X22.3479 Y9.3653
G01 X22.3601 Y9.2828
G01 X22.3631 Y9.2659
G01 X22.3668 Y9.2491
G01 X22.3871 Y9.1682
G01 X22.3917 Y9.1517
G01 X22.3971 Y9.1353
G01 X22.4252 Y9.0568
G01 X22.4313 Y9.0408
G01 X22.4383 Y9.0251
G01 X22.4740 Y8.9497
G01 X22.4817 Y8.9343
G01 X22.4902 Y8.9194
G01 X22.5330 Y8.8478
G01 X22.5422 Y8.8333
G01 X22.5521 Y8.8193
G01 X22.6018 Y8.7523
G01 X22.6124 Y8.7387
G01 X22.6236 Y8.7257
G01 X22.6796 Y8.6639
G01 X22.6915 Y8.6515
G01 X22.7039 Y8.6396
G01 X22.7657 Y8.5836
G01 X22.7787 Y8.5724
G01 X22.7923 Y8.5618
G01 X22.8593 Y8.5121
G01 X22.8733 Y8.5022
G01 X22.8878 Y8.4930
G01 X22.9594 Y8.4502
G01 X22.9743 Y8.4417
G01 X22.9897 Y8.4340
G01 X23.0651 Y8.3983
G01 X23.0808 Y8.3913
G01 X23.0968 Y8.3852
G00 Z2.0000
G00 X25.6368 Y8.3852
G01 F60.00
G01 Z-0.2000
G01 F120.00
G01 X25.7153 Y8.3571
G01 X25.7317 Y8.3517
G01 X25.7482 Y8.3471
G01 X25.8291 Y8.3268
G01 X25.8459 Y8.3231
G01 X25.8628 Y8.3201
G01 X25.9453 Y8.3079
G01 X25.9624 Y8.3058
G01 X25.9795 Y8.3045
G01 X26.0628 Y8.3004
G01 X26.0800 Y8.3000
G01 X26.0972 Y8.3004
G01 X26.1805 Y8.3045
G01 X26.1976 Y8.3058
G01 X26.2147 Y8.3079
G01 X26.2972 Y8.3201
G01 X26.3141 Y8.3231
G01 X26.3309 Y8.3268
G01 X26.4118 Y8.3471
G01 X26.4283 Y8.3517
G01 X26.4447 Y8.3571
G01 X26.5232 Y8.3852
G01 X26.5392 Y8.3913
G01 X26.5549 Y8.3983
G01 X26.6303 Y8.4340
G01 X26.6457 Y8.4417
G01 X26.6606 Y8.4502
G01 X26.7322 Y8.4930
G01 X26.7467 Y8.5022
G01 X26.7607 Y8.5121
G01 X26.8277 Y8.5618
G01 X26.8413 Y8.5724
G01 X26.8543 Y8.5836
G01 X26.9161 Y8.6396
G01 X26.9285 Y8.6515
G01 X26.9404 Y8.6639
G01 X26.9964 Y8.7257
G01 X27.0076 Y8.7387
G01 X27.0182 Y8.7523
G01 X27.0679 Y8.8193
G01 X27.0778 Y8.8333
G01 X27.0870 Y8.8478
G01 X27.1298 Y8.9194
G01 X27.1383 Y8.9343
G01 X27.1460 Y8.9497
G01 X27.1817 Y9.0251
G01 X27.1887 Y9.0408
G01 X27.1948 Y9.0568
G01 X27.2229 Y9.1353
G01 X27.2283 Y9.1517
G01 X27.2329 Y9.1682
G01 X27.2532 Y9.2491
G01 X27.2569 Y9.2659
G01 X27.2599 Y9.2828
G01 X27.2721 Y9.3653
G01 X27.2742 Y9.3824
G01 X27.2755 Y9.3995
G01 X27.2796 Y9.4828
G01 X27.2800 Y9.5000
G01 X27.2796 Y9.5172
G01 X27.2755 Y9.6005
G01 X27.2742 Y9.6176
G01 X27.2721 Y9.6347
G01 X27.2599 Y9.7172
G01 X27.2569 Y9.7341
G01 X27.2532 Y9.7509
G01 X27.2329 Y9.8318
G01 X27.2283 Y9.8483
G01 X27.2229 Y9.8647
G01 X27.1948 Y9.9432
G01 X27.1887 Y9.9592
G01 X27.1817 Y9.9749
G01 X27.1460 Y10.0503
G01 X27.1383 Y10.0657
G01 X27.1298 Y10.0806
G01 X27.0870 Y10.1522
G01 X27.0778 Y10.1667
G01 X27.0679 Y10.1807
G01 X27.0182 Y10.2477
G01 X27.0076 Y10.2613
G01 X26.9964 Y10.2743
G01 X26.9404 Y10.3361
G01 X26.9285 Y10.3485
G01 X26.9161 Y10.3604
G01 X26.8543 Y10.4164
G01 X26.8413 Y10.4276
G01 X26.8277 Y10.4382
G01 X26.7607 Y10.4879
G01 X26.7467 Y10.4978
G01 X26.7322 Y10.5070
G01 X26.6606 Y10.5498
G01 X26.6457 Y10.5583
G01 X26.6303 Y10.5660
G01 X26.5549 Y10.6017
G01 X26.5392 Y10.6087
G01 X26.5232 Y10.6148
G01 X26.4447 Y10.6429
G01 X26.4283 Y10.6483
G01 X26.4118 Y10.6529
G01 X26.3309 Y10.6732
G01 X26.3141 Y10.6769
G01 X26.2972 Y10.6799
G01 X26.2147 Y10.6921
G01 X26.1976 Y10.6942
G01 X26.1805 Y10.6955
G01 X26.0972 Y10.6996
G01 X26.0800 Y10.7000
G01 X26.0628 Y10.6996
G01 X25.9795 Y10.6955
G01 X25.9624 Y10.6942
G01 X25.9453 Y10.6921
G01 X25.8628 Y10.6799
G01 X25.8459 Y10.6769
G01 X25.8291 Y10.6732
G01 X25.7482 Y10.6529
G01 X25.7317 Y10.6483
G01 X25.7153 Y10.6429
G01 X25.6368 Y10.6148
G01 X25.6208 Y10.6087
G01 X25.6051 Y10.6017
G01 X25.5297 Y10.5660
G01 X25.5143 Y10.5583
G01 X25.4994 Y10.5498
G01 X25.4278 Y10.5070
G01 X25.4133 Y10.4978
G01 X25.3993 Y10.4879
G01 X25.3323 Y10.4382
G01 X25.3187 Y10.4276
G01 X25.3057 Y10.4164
G01 X25.2439 Y10.3604
G01 X25.2315 Y10.3485
G01 X25.2196 Y10.3361
G01 X25.1636 Y10.2743
G01 X25.1524 Y10.2613
G01 X25.1418 Y10.2477
G01 X25.0921 Y10.1807
G01 X25.0822 Y10.1667
G01 X25.0730 Y10.1522
G01 X25.0302 Y10.0806
G01 X25.0217 Y10.0657
G01 X25.0140 Y10.0503
G01 X24.9783 Y9.9749
G01 X24.9713 Y9.9592
G01 X24.9652 Y9.9432
G01 X24.9371 Y9.8647
G01 X24.9317 Y9.8483
G01 X24.9271 Y9.8318
G01 X24.9068 Y9.7509
G01 X24.9031 Y9.7341
G01 X24.9001 Y9.7172
G01 X24.8879 Y9.6347
G01 X24.8858 Y9.6176
G01 X24.8845 Y9.6005
G01 X24.8804 Y9.5172
G01 X24.8800 Y9.5000
G01 X24.8804 Y9.4828
G01 X24.8845 Y9.3995
G01 X24.8858 Y9.3824
G01 X24.8879 Y9.3653
G01 X24.9001 Y9.2828
G01 X24.9031 Y9.2659
G01 X24.9068 Y9.2491
G01 X24.9271 Y9.1682
G01 X24.9317 Y9.1517
G01 X24.9371 Y9.1353
G01 X24.9652 Y9.0568
G01 X24.9713 Y9.0408
G01 X24.9783 Y9.0251
G01 X25.0140 Y8.9497
G01 X25.0217 Y8.9343
G01 X25.0302 Y8.9194
G01 X25.0730 Y8.8478
G01 X25.0822 Y8.8333
G01 X25.0921 Y8.8193
G01 X25.1418 Y8.7523
G01 X25.1524 Y8.7387
G01 X25.1636 Y8.7257
G01 X25.2196 Y8.6639
G01 X25.2315 Y8.6515
G01 X25.2439 Y8.6396
G01 X25.3057 Y8.5836
G01 X25.3187 Y8.5724
G01 X25.3323 Y8.5618
G01 X25.3993 Y8.5121
G01 X25.4133 Y8.5022
G01 X25.4278 Y8.4930
G01 X25.4994 Y8.4502
G01 X25.5143 Y8.4417
G01 X25.5297 Y8.4340
G01 X25.6051 Y8.3983
G01 X25.6208 Y8.3913
G01 X25.6368 Y8.3852
G00 Z2.0000
G00 X31.2918 Y13.0052
G01 F60.00
G01 Z-0.2000
G01 F120.00
G01 X31.3703 Y12.9771
G01 X31.3867 Y12.9717
G01 X31.4032 Y12.9671
G01 X31.4841 Y12.9468
G01 X31.5009 Y12.9431
G01 X31.5178 Y12.9401
G01 X31.6003 Y12.9279
G01 X31.6174 Y12.9258
G01 X31.6345 Y12.9245
G01 X31.7178 Y12.9204
G01 X31.7350 Y12.9200
G01 X31.7522 Y12.9204
G01 X31.8355 Y12.9245
G01 X31.8526 Y12.9258
G01 X31.8697 Y12.9279
G01 X31.9522 Y12.9401
G01 X31.9691 Y12.9431
G01 X31.9859 Y12.9468
G01 X32.0668 Y12.9671
G01 X32.0833 Y12.9717
G01 X32.0997 Y12.9771
G01 X32.1782 Y13.0052
G01 X32.1942 Y13.0113
G01 X32.2099 Y13.0183
G01 X32.2853 Y13.0540
G01 X32.3007 Y13.0617
G01 X32.3156 Y13.0702
G01 X32.3872 Y13.1130
G01 X32.4017 Y13.1222
G01 X32.4157 Y13.1321
G01 X32.4827 Y13.1818
G01 X32.4963 Y13.1924
G01 X32.5093 Y13.2036
G01 X32.5711 Y13.2596
G01 X32.5835 Y13.2715
G01 X32.5954 Y13.2839
G01 X32.6514 Y13.3457
G01 X32.6626 Y13.3587
G01 X32.6732 Y13.3723
G01 X32.7229 Y13.4393
G01 X32.7328 Y13.4533
G01 X32.7420 Y13.4678
G01 X32.7848 Y13.5394
G01 X32.7933 Y13.5543
G01 X32.8010 Y13.5697
G01 X32.8367 Y13.6451
G01 X32.8437 Y13.6608
G01 X32.8498 Y13.6768
G01 X32.8779 Y13.7553
G01 X32.8833 Y13.7717
G01 X32.8879 Y13.7882
G01 X32.9082 Y13.8691
G01 X32.9119 Y13.8859
G01 X32.9149 Y13.9028
G01 X32.9271 Y13.9853
G01 X32.9292 Y14.0024
G01 X32.9305 Y14.0195
G01 X32.9346 Y14.1028
G01 X32.9350 Y14.1200
G01 X32.9346 Y14.1372
G01 X32.9305 Y14.2205
G01 X32.9292 Y14.2376
G01 X32.9271 Y14.2547
G01 X32.9149 Y14.3372
G01 X32.9119 Y14.3541
G01 X32.9082 Y14.3709
G01 X32.8879 Y14.4518
G01 X32.8833 Y14.4683
G01 X32.8779 Y14.4847
G01 X32.8498 Y14.5632
G01 X32.8437 Y14.5792
G01 X32.8367 Y14.5949
G01 X32.8010 Y14.6703
G01 X32.7933 Y14.6857
G01 X32.7848 Y14.7006
G01 X32.7420 Y14.7722
G01 X32.7328 Y14.7867
G01 X32.7229 Y14.8007
G01 X32.6732 Y14.8677
G01 X32.6626 Y14.8813
G01 X32.6514 Y14.8943
G01 X32.5954 Y14.9561
G01 X32.5835 Y14.9685
G01 X32.5711 Y14.9804
G01 X32.5093 Y15.0364
G01 X32.4963 Y15.0476
G01 X32.4827 Y15.0582
G01 X32.4157 Y15.1079
G01 X32.4017 Y15.1178
G01 X32.3872 Y15.1270
G01 X32.3156 Y15.1698
G01 X32.3007 Y15.1783
G01 X32.2853 Y15.1860
G01 X32.2099 Y15.2217
G01 X32.1942 Y15.2287
G01 X32.1782 Y15.2348
G01 X32.0997 Y15.2629
G01 X32.0833 Y15.2683
G01 X32.0668 Y15.2729
G01 X31.9859 Y15.2932
G01 X31.9691 Y15.2969
G01 X31.9522 Y15.2999
G01 X31.8697 Y15.3121
G01 X31.8526 Y15.3142
G01 X31.8355 Y15.3155
G01 X31.7522 Y15.3196
G01 X31.7350 Y15.3200
G01 X31.7178 Y15.3196
G01 X31.6345 Y15.3155
G01 X31.6174 Y15.3142
G01 X31.6003 Y15.3121
G01 X31.5178 Y15.2999
G01 X31.5009 Y15.2969
G01 X31.4841 Y15.2932
G01 X31.4032 Y15.2729
G01 X31.3867 Y15.2683
G01 X31.3703 Y15.2629
G01 X31.2918 Y15.2348
G01 X31.2758 Y15.2287
G01 X31.2601 Y15.2217
G01 X31.1847 Y15.1860
G01 X31.1693 Y15.1783
G01 X31.1544 Y15.1698
G01 X31.0828 Y15.1270
G01 X31.0683 Y15.1178
G01 X31.0543 Y15.1079
G01 X30.9873 Y15.0582
G01 X30.9737 Y15.0476
G01 X30.9607 Y15.0364
G01 X30.8989 Y14.9804
G01 X30.8865 Y14.9685
G01 X30.8746 Y14.9561
G01 X30.8186 Y14.8943
G01 X30.8074 Y14.8813
G01 X30.7968 Y14.8677
G01 X30.7471 Y14.8007
G01 X30.7372 Y14.7867
G01 X30.7280 Y14.7722
G01 X30.6852 Y14.7006
G01 X30.6767 Y14.6857
G01 X30.6690 Y14.6703
G01 X30.6333 Y14.5949
G01 X30.6263 Y14.5792
G01 X30.6202 Y14.5632
G01 X30.5921 Y14.4847
G01 X30.5867 Y14.4683
G01 X30.5821 Y14.4518
G01 X30.5618 Y14.3709
G01 X30.5581 Y14.3541
G01 X30.5551 Y14.3372
G01 X30.5429 Y14.2547
G01 X30.5408 Y14.2376
G01 X30.5395 Y14.2205
G01 X30.5354 Y14.1372
G01 X30.5350 Y14.1200
G01 X30.5354 Y14.1028
G01 X30.5395 Y14.0195
G01 X30.5408 Y14.0024
G01 X30.5429 Y13.9853
G01 X30.5551 Y13.9028
G01 X30.5581 Y13.8859
G01 X30.5618 Y13.8691
G01 X30.5821 Y13.7882
G01 X30.5867 Y13.7717
G01 X30.5921 Y13.7553
G01 X30.6202 Y13.6768
G01 X30.6263 Y13.6608
G01 X30.6333 Y13.6451
G01 X30.6690 Y13.5697
G01 X30.6767 Y13.5543
G01 X30.6852 Y13.5394
G01 X30.7280 Y13.4678
G01 X30.7372 Y13.4533
G01 X30.7471 Y13.4393
G01 X30.7968 Y13.3723
G01 X30.8074 Y13.3587
G01 X30.8186 Y13.3457
G01 X30.8746 Y13.2839
G01 X30.8865 Y13.2715
G01 X30.8989 Y13.2596
G01 X30.9607 Y13.2036
G01 X30.9737 Y13.1924
G01 X30.9873 Y13.1818
G01 X31.0543 Y13.1321
G01 X31.0683 Y13.1222
G01 X31.0828 Y13.1130
G01 X31.1544 Y13.0702
G01 X31.1693 Y13.0617
G01 X31.1847 Y13.0540
G01 X31.2601 Y13.0183
G01 X31.2758 Y13.0113
G01 X31.2918 Y13.0052
G00 Z2.0000
G00 X33.8318 Y13.0052
G01 F60.00
G01 Z-0.2000
G01 F120.00
G01 X33.9103 Y12.9771
G01 X33.9267 Y12.9717
G01 X33.9432 Y12.9671
G01 X34.0241 Y12.9468
G01 X34.0409 Y12.9431
G01 X34.0578 Y12.9401
G01 X34.1403 Y12.9279
G01 X34.1574 Y12.9258
G01 X34.1745 Y12.9245
G01 X34.2578 Y12.9204
G01 X34.2750 Y12.9200
G01 X34.2922 Y12.9204
G01 X34.3755 Y12.9245
G01 X34.3926 Y12.9258
G01 X34.4097 Y12.9279
G01 X34.4922 Y12.9401
G01 X34.5091 Y12.9431
G01 X34.5259 Y12.9468
G01 X34.6068 Y12.9671
G01 X34.6233 Y12.9717
G01 X34.6397 Y12.9771
G01 X34.7182 Y13.0052
G01 X34.7342 Y13.0113
G01 X34.7499 Y13.0183
G01 X34.8253 Y13.0540
G01 X34.8407 Y13.0617
G01 X34.8556 Y13.0702
G01 X34.9272 Y13.1130
G01 X34.9417 Y13.1222
G01 X34.9557 Y13.1321
G01 X35.0227 Y13.1818
G01 X35.0363 Y13.1924
G01 X35.0493 Y13.2036
G01 X35.1111 Y13.2596
G01 X35.1235 Y13.2715
G01 X35.1354 Y13.2839
G01 X35.1914 Y13.3457
G01 X35.2026 Y13.3587
G01 X35.2132 Y13.3723
G01 X35.2629 Y13.4393
G01 X35.2728 Y13.4533
G01 X35.2820 Y13.4678
G01 X35.3248 Y13.5394
G01 X35.3333 Y13.5543
G01 X35.3410 Y13.5697
G01 X35.3767 Y13.6451
G01 X35.3837 Y13.6608
G01 X35.3898 Y13.6768
G01 X35.4179 Y13.7553
G01 X35.4233 Y13.7717
G01 X35.4279 Y13.7882
G01 X35.4482 Y13.8691
G01 X35.4519 Y13.8859
G01 X35.4549 Y13.9028
G01 X35.4671 Y13.9853
G01 X35.4692 Y14.0024
G01 X35.4705 Y14.0195
G01 X35.4746 Y14.1028
G01 X35.4750 Y14.1200
G01 X35.4746 Y14.1372
G01 X35.4705 Y14.2205
G01 X35.4692 Y14.2376
G01 X35.4671 Y14.2547
G01 X35.4549 Y14.3372
G01 X35.4519 Y14.3541
G01 X35.4482 Y14.3709
G01 X35.4279 Y14.4518
G01 X35.4233 Y14.4683
G01 X35.4179 Y14.4847
G01 X35.3898 Y14.5632
G01 X35.3837 Y14.5792
G01 X35.3767 Y14.5949
G01 X35.3410 Y14.6703
G01 X35.3333 Y14.6857
G01 X35.3248 Y14.7006
G01 X35.2820 Y14.7722
G01 X35.2728 Y14.7867
G01 X35.2629 Y14.8007
G01 X35.2132 Y14.8677
G01 X35.2026 Y14.8813
G01 X35.1914 Y14.8943
G01 X35.1354 Y14.9561
G01 X35.1235 Y14.9685
G01 X35.1111 Y14.9804
G01 X35.0493 Y15.0364
G01 X35.0363 Y15.0476
G01 X35.0227 Y15.0582
G01 X34.9557 Y15.1079
G01 X34.9417 Y15.1178
G01 X34.9272 Y15.1270
G01 X34.8556 Y15.1698
G01 X34.8407 Y15.1783
G01 X34.8253 Y15.1860
G01 X34.7499 Y15.2217
G01 X34.7342 Y15.2287
G01 X34.7182 Y15.2348
G01 X34.6397 Y15.2629
G01 X34.6233 Y15.2683
G01 X34.6068 Y15.2729
G01 X34.5259 Y15.2932
G01 X34.5091 Y15.2969
G01 X34.4922 Y15.2999
G01 X34.4097 Y15.3121
G01 X34.3926 Y15.3142
G01 X34.3755 Y15.3155
G01 X34.2922 Y15.3196
G01 X34.2750 Y15.3200
G01 X34.2578 Y15.3196
G01 X34.1745 Y15.3155
G01 X34.1574 Y15.3142
G01 X34.1403 Y15.3121
G01 X34.0578 Y15.2999
G01 X34.0409 Y15.2969
G01 X34.0241 Y15.2932
G01 X33.9432 Y15.2729
G01 X33.9267 Y15.2683
G01 X33.9103 Y15.2629
G01 X33.8318 Y15.2348
G01 X33.8158 Y15.2287
G01 X33.8001 Y15.2217
G01 X33.7247 Y15.1860
G01 X33.7093 Y15.1783
G01 X33.6944 Y15.1698
G01 X33.6228 Y15.1270
G01 X33.6083 Y15.1178
G01 X33.5943 Y15.1079
G01 X33.5273 Y15.0582
G01 X33.5137 Y15.0476
G01 X33.5007 Y15.0364
G01 X33.4389 Y14.9804
G01 X33.4265 Y14.9685
G01 X33.4146 Y14.9561
G01 X33.3586 Y14.8943
G01 X33.3474 Y14.8813
G01 X33.3368 Y14.8677
G01 X33.2871 Y14.8007
G01 X33.2772 Y14.7867
G01 X33.2680 Y14.7722
G01 X33.2252 Y14.7006
G01 X33.2167 Y14.6857
G01 X33.2090 Y14.6703
G01 X33.1733 Y14.5949
G01 X33.1663 Y14.5792
G01 X33.1602 Y14.5632
G01 X33.1321 Y14.4847
G01 X33.1267 Y14.4683
G01 X33.1221 Y14.4518
G01 X33.1018 Y14.3709
G01 X33.0981 Y14.3541
G01 X33.0951 Y14.3372
G01 X33.0829 Y14.2547
G01 X33.0808 Y14.2376
G01 X33.0795 Y14.2205
G01 X33.0754 Y14.1372
G01 X33.0750 Y14.1200
G01 X33.0754 Y14.1028
G01 X33.0795 Y14.0195
G01 X33.0808 Y14.0024
G01 X33.0829 Y13.9853
G01 X33.0951 Y13.9028
G01 X33.0981 Y13.8859
G01 X33.1018 Y13.8691
G01 X33.1221 Y13.7882
G01 X33.1267 Y13.7717
G01 X33.1321 Y13.7553
G01 X33.1602 Y13.6768
G01 X33.1663 Y13.6608
G01 X33.1733 Y13.6451
G01 X33.2090 Y13.5697
G01 X33.2167 Y13.5543
G01 X33.2252 Y13.5394
G01 X33.2680 Y13.4678
G01 X33.2772 Y13.4533
G01 X33.2871 Y13.4393
G01 X33.3368 Y13.3723
G01 X33.3474 Y13.3587
G01 X33.3586 Y13.3457
G01 X33.4146 Y13.2839
G01 X33.4265 Y13.2715
G01 X33.4389 Y13.2596
G01 X33.5007 Y13.2036
G01 X33.5137 Y13.1924
G01 X33.5273 Y13.1818
G01 X33.5943 Y13.1321
G01 X33.6083 Y13.1222
G01 X33.6228 Y13.1130
G01 X33.6944 Y13.0702
G01 X33.7093 Y13.0617
G01 X33.7247 Y13.0540
G01 X33.8001 Y13.0183
G01 X33.8158 Y13.0113
G01 X33.8318 Y13.0052
G00 Z2.0000
G00 X33.8318 Y10.4652
G01 F60.00
G01 Z-0.2000
G01 F120.00
G01 X33.9103 Y10.4371
G01 X33.9267 Y10.4317
G01 X33.9432 Y10.4271
G01 X34.0241 Y10.4068
G01 X34.0409 Y10.4031
G01 X34.0578 Y10.4001
G01 X34.1403 Y10.3879
G01 X34.1574 Y10.3858
G01 X34.1745 Y10.3845
G01 X34.2578 Y10.3804
G01 X34.2750 Y10.3800
G01 X34.2922 Y10.3804
G01 X34.3755 Y10.3845
G01 X34.3926 Y10.3858
G01 X34.4097 Y10.3879
G01 X34.4922 Y10.4001
G01 X34.5091 Y10.4031
G01 X34.5259 Y10.4068
G01 X34.6068 Y10.4271
G01 X34.6233 Y10.4317
G01 X34.6397 Y10.4371
G01 X34.7182 Y10.4652
G01 X34.7342 Y10.4713
G01 X34.7499 Y10.4783
G01 X34.8253 Y10.5140
G01 X34.8407 Y10.5217
G01 X34.8556 Y10.5302
G01 X34.9272 Y10.5730
G01 X34.9417 Y10.5822
G01 X34.9557 Y10.5921
G01 X35.0227 Y10.6418
G01 X35.0363 Y10.6524
G01 X35.0493 Y10.6636
G01 X35.1111 Y10.7196
G01 X35.1235 Y10.7315
G01 X35.1354 Y10.7439
G01 X35.1914 Y10.8057
G01 X35.2026 Y10.8187
G01 X35.2132 Y10.8323
G01 X35.2629 Y10.8993
G01 X35.2728 Y10.9133
G01 X35.2820 Y10.9278
G01 X35.3248 Y10.9994
G01 X35.3333 Y11.0143
G01 X35.3410 Y11.0297
G01 X35.3767 Y11.1051
G01 X35.3837 Y11.1208
G01 X35.3898 Y11.1368
G01 X35.4179 Y11.2153
G01 X35.4233 Y11.2317
G01 X35.4279 Y11.2482
G01 X35.4482 Y11.3291
G01 X35.4519 Y11.3459
G01 X35.4549 Y11.3628
G01 X35.4671 Y11.4453
G01 X35.4692 Y11.4624
G01 X35.4705 Y11.4795
G01 X35.4746 Y11.5628
G01 X35.4750 Y11.5800
G01 X35.4746 Y11.5972
G01 X35.4705 Y11.6805
G01 X35.4692 Y11.6976
G01 X35.4671 Y11.7147
G01 X35.4549 Y11.7972
G01 X35.4519 Y11.8141
G01 X35.4482 Y11.8309
G01 X35.4279 Y11.9118
G01 X35.4233 Y11.9283
G01 X35.4179 Y11.9447
G01 X35.3898 Y12.0232
G01 X35.3837 Y12.0392
G01 X35.3767 Y12.0549
G01 X35.3410 Y12.1303
G01 X35.3333 Y12.1457
G01 X35.3248 Y12.1606
G01 X35.2820 Y12.2322
G01 X35.2728 Y12.2467
G01 X35.2629 Y12.2607
G01 X35.2132 Y12.3277
G01 X35.2026 Y12.3413
G01 X35.1914 Y12.3543
G01 X35.1354 Y12.4161
G01 X35.1235 Y12.4285
G01 X35.1111 Y12.4404
G01 X35.0493 Y12.4964
G01 X35.0363 Y12.5076
G01 X35.0227 Y12.5182
G01 X34.9557 Y12.5679
G01 X34.9417 Y12.5778
G01 X34.9272 Y12.5870
G01 X34.8556 Y12.6298
G01 X34.8407 Y12.6383
G01 X34.8253 Y12.6460
G01 X34.7499 Y12.6817
G01 X34.7342 Y12.6887
G01 X34.7182 Y12.6948
G01 X34.6397 Y12.7229
G01 X34.6233 Y12.7283
G01 X34.6068 Y12.7329
G01 X34.5259 Y12.7532
G01 X34.5091 Y12.7569
G01 X34.4922 Y12.7599
G01 X34.4097 Y12.7721
G01 X34.3926 Y12.7742
G01 X34.3755 Y12.7755
G01 X34.2922 Y12.7796
G01 X34.2750 Y12.7800
G01 X34.2578 Y12.7796
G01 X34.1745 Y12.7755
G01 X34.1574 Y12.7742
G01 X34.1403 Y12.7721
G01 X34.0578 Y12.7599
G01 X34.0409 Y12.7569
G01 X34.0241 Y12.7532
G01 X33.9432 Y12.7329
G01 X33.9267 Y12.7283
G01 X33.9103 Y12.7229
G01 X33.8318 Y12.6948
G01 X33.8158 Y12.6887
G01 X33.8001 Y12.6817
G01 X33.7247 Y12.6460
G01 X33.7093 Y12.6383
G01 X33.6944 Y12.6298
G01 X33.6228 Y12.5870
G01 X33.6083 Y12.5778
G01 X33.5943 Y12.5679
G01 X33.5273 Y12.5182
G01 X33.5137 Y12.5076
G01 X33.5007 Y12.4964
G01 X33.4389 Y12.4404
G01 X33.4265 Y12.4285
G01 X33.4146 Y12.4161
G01 X33.3586 Y12.3543
G01 X33.3474 Y12.3413
G01 X33.3368 Y12.3277
G01 X33.2871 Y12.2607
G01 X33.2772 Y12.2467
G01 X33.2680 Y12.2322
G01 X33.2252 Y12.1606
G01 X33.2167 Y12.1457
G01 X33.2090 Y12.1303
G01 X33.1733 Y12.0549
G01 X33.1663 Y12.0392
G01 X33.1602 Y12.0232
G01 X33.1321 Y11.9447
G01 X33.1267 Y11.9283
G01 X33.1221 Y11.9118
G01 X33.1018 Y11.8309
G01 X33.0981 Y11.8141
G01 X33.0951 Y11.7972
G01 X33.0829 Y11.7147
G01 X33.0808 Y11.6976
G01 X33.0795 Y11.6805
G01 X33.0754 Y11.5972
G01 X33.0750 Y11.5800
G01 X33.0754 Y11.5628
G01 X33.0795 Y11.4795
G01 X33.0808 Y11.4624
G01 X33.0829 Y11.4453
G01 X33.0951 Y11.3628
G01 X33.0981 Y11.3459
G01 X33.1018 Y11.3291
G01 X33.1221 Y11.2482
G01 X33.1267 Y11.2317
G01 X33.1321 Y11.2153
G01 X33.1602 Y11.1368
G01 X33.1663 Y11.1208
G01 X33.1733 Y11.1051
G01 X33.2090 Y11.0297
G01 X33.2167 Y11.0143
G01 X33.2252 Y10.9994
G01 X33.2680 Y10.9278
G01 X33.2772 Y10.9133
G01 X33.2871 Y10.8993
G01 X33.3368 Y10.8323
G01 X33.3474 Y10.8187
G01 X33.3586 Y10.8057
G01 X33.4146 Y10.7439
G01 X33.4265 Y10.7315
G01 X33.4389 Y10.7196
G01 X33.5007 Y10.6636
G01 X33.5137 Y10.6524
G01 X33.5273 Y10.6418
G01 X33.5943 Y10.5921
G01 X33.6083 Y10.5822
G01 X33.6228 Y10.5730
G01 X33.6944 Y10.5302
G01 X33.7093 Y10.5217
G01 X33.7247 Y10.5140
G01 X33.8001 Y10.4783
G01 X33.8158 Y10.4713
G01 X33.8318 Y10.4652
G00 Z2.0000
G00 X33.8318 Y7.9252
G01 F60.00
G01 Z-0.2000
G01 F120.00
G01 X33.9103 Y7.8971
G01 X33.9267 Y7.8917
G01 X33.9432 Y7.8871
G01 X34.0241 Y7.8668
G01 X34.0409 Y7.8631
G01 X34.0578 Y7.8601
G01 X34.1403 Y7.8479
G01 X34.1574 Y7.8458
G01 X34.1745 Y7.8445
G01 X34.2578 Y7.8404
G01 X34.2750 Y7.8400
G01 X34.2922 Y7.8404
G01 X34.3755 Y7.8445
G01 X34.3926 Y7.8458
G01 X34.4097 Y7.8479
G01 X34.4922 Y7.8601
G01 X34.5091 Y7.8631
G01 X34.5259 Y7.8668
G01 X34.6068 Y7.8871
G01 X34.6233 Y7.8917
G01 X34.6397 Y7.8971
G01 X34.7182 Y7.9252
G01 X34.7342 Y7.9313
G01 X34.7499 Y7.9383
G01 X34.8253 Y7.9740
G01 X34.8407 Y7.9817
G01 X34.8556 Y7.9902
G01 X34.9272 Y8.0330
G01 X34.9417 Y8.0422
G01 X34.9557 Y8.0521
G01 X35.0227 Y8.1018
G01 X35.0363 Y8.1124
G01 X35.0493 Y8.1236
G01 X35.1111 Y8.1796
G01 X35.1235 Y8.1915
G01 X35.1354 Y8.2039
G01 X35.1914 Y8.2657
G01 X35.2026 Y8.2787
G01 X35.2132 Y8.2923
G01 X35.2629 Y8.3593
G01 X35.2728 Y8.3733
G01 X35.2820 Y8.3878
G01 X35.3248 Y8.4594
G01 X35.3333 Y8.4743
G01 X35.3410 Y8.4897
G01 X35.3767 Y8.5651
G01 X35.3837 Y8.5808
G01 X35.3898 Y8.5968
G01 X35.4179 Y8.6753
G01 X35.4233 Y8.6917
G01 X35.4279 Y8.7082
G01 X35.4482 Y8.7891
G01 X35.4519 Y8.8059
G01 X35.4549 Y8.8228
G01 X35.4671 Y8.9053
G01 X35.4692 Y8.9224
G01 X35.4705 Y8.9395
G01 X35.4746 Y9.0228
G01 X35.4750 Y9.0400
G01 X35.4746 Y9.0572
G01 X35.4705 Y9.1405
G01 X35.4692 Y9.1576
G01 X35.4671 Y9.1747
G01 X35.4549 Y9.2572
G01 X35.4519 Y9.2741
G01 X35.4482 Y9.2909
G01 X35.4279 Y9.3718
G01 X35.4233 Y9.3883
G01 X35.4179 Y9.4047
G01 X35.3898 Y9.4832
G01 X35.3837 Y9.4992
G01 X35.3767 Y9.5149
G01 X35.3410 Y9.5903
G01 X35.3333 Y9.6057
G01 X35.3248 Y9.6206
G01 X35.2820 Y9.6922
G01 X35.2728 Y9.7067
G01 X35.2629 Y9.7207
G01 X35.2132 Y9.7877
G01 X35.2026 Y9.8013
G01 X35.1914 Y9.8143
G01 X35.1354 Y9.8761
G01 X35.1235 Y9.8885
G01 X35.1111 Y9.9004
G01 X35.0493 Y9.9564
G01 X35.0363 Y9.9676
G01 X35.0227 Y9.9782
G01 X34.9557 Y10.0279
G01 X34.9417 Y10.0378
G01 X34.9272 Y10.0470
G01 X34.8556 Y10.0898
G01 X34.8407 Y10.0983
G01 X34.8253 Y10.1060
G01 X34.7499 Y10.1417
G01 X34.7342 Y10.1487
G01 X34.7182 Y10.1548
G01 X34.6397 Y10.1829
G01 X34.6233 Y10.1883
G01 X34.6068 Y10.1929
G01 X34.5259 Y10.2132
G01 X34.5091 Y10.2169
G01 X34.4922 Y10.2199
G01 X34.4097 Y10.2321
G01 X34.3926 Y10.2342
G01 X34.3755 Y10.2355
G01 X34.2922 Y10.2396
G01 X34.2750 Y10.2400
G01 X34.2578 Y10.2396
G01 X34.1745 Y10.2355
G01 X34.1574 Y10.2342
G01 X34.1403 Y10.2321
G01 X34.0578 Y10.2199
G01 X34.0409 Y10.2169
G01 X34.0241 Y10.2132
G01 X33.9432 Y10.1929
G01 X33.9267 Y10.1883
G01 X33.9103 Y10.1829
G01 X33.8318 Y10.1548
G01 X33.8158 Y10.1487
G01 X33.8001 Y10.1417
G01 X33.7247 Y10.1060
G01 X33.7093 Y10.0983
G01 X33.6944 Y10.0898
G01 X33.6228 Y10.0470
G01 X33.6083 Y10.0378
G01 X33.5943 Y10.0279
G01 X33.5273 Y9.9782
G01 X33.5137 Y9.9676
G01 X33.5007 Y9.9564
G01 X33.4389 Y9.9004
G01 X33.4265 Y9.8885
G01 X33.4146 Y9.8761
G01 X33.3586 Y9.8143
G01 X33.3474 Y9.8013
G01 X33.3368 Y9.7877
G01 X33.2871 Y9.7207
G01 X33.2772 Y9.7067
G01 X33.2680 Y9.6922
G01 X33.2252 Y9.6206
G01 X33.2167 Y9.6057
G01 X33.2090 Y9.5903
G01 X33.1733 Y9.5149
G01 X33.1663 Y9.4992
G01 X33.1602 Y9.4832
G01 X33.1321 Y9.4047
G01 X33.1267 Y9.3883
G01 X33.1221 Y9.3718
G01 X33.1018 Y9.2909
G01 X33.0981 Y9.2741
G01 X33.0951 Y9.2572
G01 X33.0829 Y9.1747
G01 X33.0808 Y9.1576
G01 X33.0795 Y9.1405
G01 X33.0754 Y9.0572
G01 X33.0750 Y9.0400
G01 X33.0754 Y9.0228
G01 X33.0795 Y8.9395
G01 X33.0808 Y8.9224
G01 X33.0829 Y8.9053
G01 X33.0951 Y8.8228
G01 X33.0981 Y8.8059
G01 X33.1018 Y8.7891
G01 X33.1221 Y8.7082
G01 X33.1267 Y8.6917
G01 X33.1321 Y8.6753
G01 X33.1602 Y8.5968
G01 X33.1663 Y8.5808
G01 X33.1733 Y8.5651
G01 X33.2090 Y8.4897
G01 X33.2167 Y8.4743
G01 X33.2252 Y8.4594
G01 X33.2680 Y8.3878
G01 X33.2772 Y8.3733
G01 X33.2871 Y8.3593
G01 X33.3368 Y8.2923
G01 X33.3474 Y8.2787
G01 X33.3586 Y8.2657
G01 X33.4146 Y8.2039
G01 X33.4265 Y8.1915
G01 X33.4389 Y8.1796
G01 X33.5007 Y8.1236
G01 X33.5137 Y8.1124
G01 X33.5273 Y8.1018
G01 X33.5943 Y8.0521
G01 X33.6083 Y8.0422
G01 X33.6228 Y8.0330
G01 X33.6944 Y7.9902
G01 X33.7093 Y7.9817
G01 X33.7247 Y7.9740
G01 X33.8001 Y7.9383
G01 X33.8158 Y7.9313
G01 X33.8318 Y7.9252
G00 Z2.0000
G00 X33.4250 Y5.3000
G01 F60.00
G01 Z-0.2000
G01 F120.00
G01 X35.1250 Y5.3000
G01 X35.1507 Y5.3009
G01 X35.1764 Y5.3038
G01 X35.1933 Y5.3067
G01 X35.2100 Y5.3105
G01 X35.2266 Y5.3151
G01 X35.2429 Y5.3205
G01 X35.2589 Y5.3266
G01 X35.2746 Y5.3336
G01 X35.2900 Y5.3413
G01 X35.3049 Y5.3498
G01 X35.3194 Y5.3590
G01 X35.3335 Y5.3689
G01 X35.3470 Y5.3794
G01 X35.3600 Y5.3907
G01 X35.3725 Y5.4025
G01 X35.3843 Y5.4150
G01 X35.3956 Y5.4280
G01 X35.4112 Y5.4485
G01 X35.4252 Y5.4701
G01 X35.4337 Y5.4850
G01 X35.4414 Y5.5004
G01 X35.4515 Y5.5240
G01 X35.4573 Y5.5402
G01 X35.4623 Y5.5567
G01 X35.4683 Y5.5817
G01 X35.4724 Y5.6072
G01 X35.4746 Y5.6328
G01 X35.4750 Y5.6500
G01 X35.4749 Y7.3586
G01 X35.4741 Y7.3757
G01 X35.4712 Y7.4014
G01 X35.4683 Y7.4183
G01 X35.4645 Y7.4350
G01 X35.4599 Y7.4516
G01 X35.4545 Y7.4679
G01 X35.4484 Y7.4839
G01 X35.4376 Y7.5074
G01 X35.4252 Y7.5299
G01 X35.4160 Y7.5444
G01 X35.4061 Y7.5585
G01 X35.3956 Y7.5720
G01 X35.3843 Y7.5850
G01 X35.3725 Y7.5975
G01 X35.3600 Y7.6093
G01 X35.3470 Y7.6206
G01 X35.3265 Y7.6362
G01 X35.3122 Y7.6457
G01 X35.2975 Y7.6545
G01 X35.2746 Y7.6664
G01 X35.2510 Y7.6765
G01 X35.2266 Y7.6849
G01 X35.2017 Y7.6915
G01 X35.1848 Y7.6948
G01 X35.1678 Y7.6974
G01 X35.1422 Y7.6996
G01 X35.1250 Y7.7000
G01 X33.4164 Y7.6999
G01 X33.3993 Y7.6991
G01 X33.3822 Y7.6974
G01 X33.3652 Y7.6948
G01 X33.3483 Y7.6915
G01 X33.3317 Y7.6873
G01 X33.3152 Y7.6823
G01 X33.2911 Y7.6734
G01 X33.2754 Y7.6664
G01 X33.2600 Y7.6587
G01 X33.2451 Y7.6502
G01 X33.2235 Y7.6362
G01 X33.2097 Y7.6259
G01 X33.1900 Y7.6093
G01 X33.1775 Y7.5975
G01 X33.1657 Y7.5850
G01 X33.1544 Y7.5720
G01 X33.1388 Y7.5515
G01 X33.1293 Y7.5372
G01 X33.1205 Y7.5225
G01 X33.1086 Y7.4996
G01 X33.0985 Y7.4760
G01 X33.0901 Y7.4516
G01 X33.0835 Y7.4267
G01 X33.0788 Y7.4014
G01 X33.0767 Y7.3843
G01 X33.0754 Y7.3672
G01 X33.0750 Y7.3500
G01 X33.0750 Y5.6500
G01 X33.0759 Y5.6243
G01 X33.0776 Y5.6072
G01 X33.0802 Y5.5902
G01 X33.0835 Y5.5733
G01 X33.0877 Y5.5567
G01 X33.0927 Y5.5402
G01 X33.0985 Y5.5240
G01 X33.1050 Y5.5082
G01 X33.1163 Y5.4850
G01 X33.1248 Y5.4701
G01 X33.1340 Y5.4556
G01 X33.1439 Y5.4415
G01 X33.1544 Y5.4280
G01 X33.1657 Y5.4150
G01 X33.1775 Y5.4025
G01 X33.1964 Y5.3850
G01 X33.2165 Y5.3689
G01 X33.2306 Y5.3590
G01 X33.2451 Y5.3498
G01 X33.2600 Y5.3413
G01 X33.2754 Y5.3336
G01 X33.2990 Y5.3235
G01 X33.3234 Y5.3151
G01 X33.3400 Y5.3105
G01 X33.3567 Y5.3067
G01 X33.3736 Y5.3038
G01 X33.3907 Y5.3017
G01 X33.4078 Y5.3004
G01 X33.4250 Y5.3000
G00 Z2.0000
G00 X15.1118 Y13.3852
G01 F60.00
G01 Z-0.2000
G01 F120.00
G01 X15.1903 Y13.3571
G01 X15.2067 Y13.3517
G01 X15.2232 Y13.3471
G01 X15.3041 Y13.3268
G01 X15.3209 Y13.3231
G01 X15.3378 Y13.3201
G01 X15.4203 Y13.3079
G01 X15.4374 Y13.3058
G01 X15.4545 Y13.3045
G01 X15.5378 Y13.3004
G01 X15.5550 Y13.3000
G01 X15.5722 Y13.3004
G01 X15.6555 Y13.3045
G01 X15.6726 Y13.3058
G01 X15.6897 Y13.3079
G01 X15.7722 Y13.3201
G01 X15.7891 Y13.3231
G01 X15.8059 Y13.3268
G01 X15.8868 Y13.3471
G01 X15.9033 Y13.3517
G01 X15.9197 Y13.3571
G01 X15.9982 Y13.3852
G01 X16.0142 Y13.3913
G01 X16.0299 Y13.3983
G01 X16.1053 Y13.4340
G01 X16.1207 Y13.4417
G01 X16.1356 Y13.4502
G01 X16.2072 Y13.4930
G01 X16.2217 Y13.5022
G01 X16.2357 Y13.5121
G01 X16.3027 Y13.5618
G01 X16.3163 Y13.5724
G01 X16.3293 Y13.5836
G01 X16.3911 Y13.6396
G01 X16.4035 Y13.6515
G01 X16.4154 Y13.6639
G01 X16.4714 Y13.7257
G01 X16.4826 Y13.7387
G01 X16.4932 Y13.7523
G01 X16.5429 Y13.8193
G01 X16.5528 Y13.8333
G01 X16.5620 Y13.8478
G01 X16.6048 Y13.9194
G01 X16.6133 Y13.9343
G01 X16.6210 Y13.9497
G01 X16.6567 Y14.0251
G01 X16.6637 Y14.0408
G01 X16.6698 Y14.0568
G01 X16.6979 Y14.1353
G01 X16.7033 Y14.1517
G01 X16.7079 Y14.1682
G01 X16.7282 Y14.2491
G01 X16.7319 Y14.2659
G01 X16.7349 Y14.2828
G01 X16.7471 Y14.3653
G01 X16.7492 Y14.3824
G01 X16.7505 Y14.3995
G01 X16.7546 Y14.4828
G01 X16.7550 Y14.5000
G01 X16.7546 Y14.5172
G01 X16.7505 Y14.6005
G01 X16.7492 Y14.6176
G01 X16.7471 Y14.6347
G01 X16.7349 Y14.7172
G01 X16.7319 Y14.7341
G01 X16.7282 Y14.7509
G01 X16.7079 Y14.8318
G01 X16.7033 Y14.8483
G01 X16.6979 Y14.8647
G01 X16.6698 Y14.9432
G01 X16.6637 Y14.9592
G01 X16.6567 Y14.9749
G01 X16.6210 Y15.0503
G01 X16.6133 Y15.0657
G01 X16.6048 Y15.0806
G01 X16.5620 Y15.1522
G01 X16.5528 Y15.1667
G01 X16.5429 Y15.1807
G01 X16.4932 Y15.2477
G01 X16.4826 Y15.2613
G01 X16.4714 Y15.2743
G01 X16.4154 Y15.3361
G01 X16.4035 Y15.3485
G01 X16.3911 Y15.3604
G01 X16.3293 Y15.4164
G01 X16.3163 Y15.4276
G01 X16.3027 Y15.4382
G01 X16.2357 Y15.4879
G01 X16.2217 Y15.4978
G01 X16.2072 Y15.5070
G01 X16.1356 Y15.5498
G01 X16.1207 Y15.5583
G01 X16.1053 Y15.5660
G01 X16.0299 Y15.6017
G01 X16.0142 Y15.6087
G01 X15.9982 Y15.6148
G01 X15.9197 Y15.6429
G01 X15.9033 Y15.6483
G01 X15.8868 Y15.6529
G01 X15.8059 Y15.6732
G01 X15.7891 Y15.6769
G01 X15.7722 Y15.6799
G01 X15.6897 Y15.6921
G01 X15.6726 Y15.6942
G01 X15.6555 Y15.6955
G01 X15.5722 Y15.6996
G01 X15.5550 Y15.7000
G01 X15.5378 Y15.6996
G01 X15.4545 Y15.6955
G01 X15.4374 Y15.6942
G01 X15.4203 Y15.6921
G01 X15.3378 Y15.6799
G01 X15.3209 Y15.6769
G01 X15.3041 Y15.6732
G01 X15.2232 Y15.6529
G01 X15.2067 Y15.6483
G01 X15.1903 Y15.6429
G01 X15.1118 Y15.6148
G01 X15.0958 Y15.6087
G01 X15.0801 Y15.6017
G01 X15.0047 Y15.5660
G01 X14.9893 Y15.5583
G01 X14.9744 Y15.5498
G01 X14.9028 Y15.5070
G01 X14.8883 Y15.4978
G01 X14.8743 Y15.4879
G01 X14.8073 Y15.4382
G01 X14.7937 Y15.4276
G01 X14.7807 Y15.4164
G01 X14.7189 Y15.3604
G01 X14.7065 Y15.3485
G01 X14.6946 Y15.3361
G01 X14.6386 Y15.2743
G01 X14.6274 Y15.2613
G01 X14.6168 Y15.2477
G01 X14.5671 Y15.1807
G01 X14.5572 Y15.1667
G01 X14.5480 Y15.1522
G01 X14.5052 Y15.0806
G01 X14.4967 Y15.0657
G01 X14.4890 Y15.0503
G01 X14.4533 Y14.9749
G01 X14.4463 Y14.9592
G01 X14.4402 Y14.9432
G01 X14.4121 Y14.8647
G01 X14.4067 Y14.8483
G01 X14.4021 Y14.8318
G01 X14.3818 Y14.7509
G01 X14.3781 Y14.7341
G01 X14.3751 Y14.7172
G01 X14.3629 Y14.6347
G01 X14.3608 Y14.6176
G01 X14.3595 Y14.6005
G01 X14.3554 Y14.5172
G01 X14.3550 Y14.5000
G01 X14.3554 Y14.4828
G01 X14.3595 Y14.3995
G01 X14.3608 Y14.3824
G01 X14.3629 Y14.3653
G01 X14.3751 Y14.2828
G01 X14.3781 Y14.2659
G01 X14.3818 Y14.2491
G01 X14.4021 Y14.1682
G01 X14.4067 Y14.1517
G01 X14.4121 Y14.1353
G01 X14.4402 Y14.0568
G01 X14.4463 Y14.0408
G01 X14.4533 Y14.0251
G01 X14.4890 Y13.9497
G01 X14.4967 Y13.9343
G01 X14.5052 Y13.9194
G01 X14.5480 Y13.8478
G01 X14.5572 Y13.8333
G01 X14.5671 Y13.8193
G01 X14.6168 Y13.7523
G01 X14.6274 Y13.7387
G01 X14.6386 Y13.7257
G01 X14.6946 Y13.6639
G01 X14.7065 Y13.6515
G01 X14.7189 Y13.6396
G01 X14.7807 Y13.5836
G01 X14.7937 Y13.5724
G01 X14.8073 Y13.5618
G01 X14.8743 Y13.5121
G01 X14.8883 Y13.5022
G01 X14.9028 Y13.4930
G01 X14.9744 Y13.4502
G01 X14.9893 Y13.4417
G01 X15.0047 Y13.4340
G01 X15.0801 Y13.3983
G01 X15.0958 Y13.3913
G01 X15.1118 Y13.3852
G00 Z2.0000
M05
G00 Z2.0000
G00 Z15.00


