(G-CODE GENERATED BY FLATCAM v8.994 - www.flatcam.org - Version Date: 2020/11/7)

(Name: SD cc1101 def-B_Cu.gbr_iso_combined_cnc)
(Type: G-code from Geometry)
(Units: MM)

(Created on Thursday, 15 August 2024 at 14:22)

(This preprocessor is the default preprocessor used by FlatCAM.)
(It is made to work with MACH3 compatible motion controllers.)

(TOOL DIAMETER: 0.7 mm)
(Feedrate_XY: 120.0 mm/min)
(Feedrate_Z: 60.0 mm/min)
(Feedrate rapids 1500.0 mm/min)

(Z_Cut: -0.2 mm)
(Z_Move: 2.0 mm)
(Z Start: None mm)
(Z End: 15.0 mm)
(X,Y End: None mm)
(Steps per circle: 64)
(Preprocessor Geometry: default)

(X range:    2.8999 ...   36.6001  mm)
(Y range:    2.3999 ...   18.6001  mm)

(Spindle Speed: 18000.0 RPM)
G21
G90
G94

G01 F120.00

M5
G00 Z15.0000
G00 X0.0000 Y0.0000
T1
M6    
(MSG, Change to Tool Dia = 0.7000)
M0
G00 Z15.0000

M03 S18000.0
G01 F120.00
G00 X5.3513 Y5.3000
G01 F60.00
G01 Z-0.2000
G01 F120.00
G01 X6.5818 Y4.0696
G01 X6.6127 Y4.0416
G01 X6.6260 Y4.0307
G01 X6.6595 Y4.0059
G01 X6.6811 Y3.9918
G01 X6.7096 Y3.9749
G01 X6.7324 Y3.9630
G01 X6.7703 Y3.9456
G01 X6.8095 Y3.9311
G01 X6.8258 Y3.9257
G01 X6.8423 Y3.9211
G01 X6.8745 Y3.9132
G01 X6.8914 Y3.9098
G01 X6.9241 Y3.9049
G01 X6.9412 Y3.9028
G01 X6.9583 Y3.9015
G01 X6.9914 Y3.9000
G01 X8.9286 Y3.9000
G01 X8.9703 Y3.9020
G01 X8.9874 Y3.9037
G01 X9.0286 Y3.9098
G01 X9.0538 Y3.9152
G01 X9.0942 Y3.9257
G01 X9.1336 Y3.9394
G01 X9.1576 Y3.9489
G01 X9.1876 Y3.9630
G01 X9.2029 Y3.9707
G01 X9.2178 Y3.9792
G01 X9.2462 Y3.9963
G01 X9.2605 Y4.0059
G01 X9.2872 Y4.0255
G01 X9.3007 Y4.0361
G01 X9.3319 Y4.0638
G01 X9.3444 Y4.0756
G01 X13.6103 Y8.3416
G01 X13.6691 Y8.3268
G01 X13.6859 Y8.3231
G01 X13.7028 Y8.3201
G01 X13.7938 Y8.3067
G01 X13.8195 Y8.3045
G01 X13.9028 Y8.3004
G01 X13.9286 Y8.3001
G01 X14.0205 Y8.3045
G01 X14.0376 Y8.3058
G01 X14.0547 Y8.3079
G01 X14.1372 Y8.3201
G01 X14.1541 Y8.3231
G01 X14.1709 Y8.3268
G01 X14.2518 Y8.3471
G01 X14.2765 Y8.3543
G01 X14.3632 Y8.3852
G01 X14.3792 Y8.3913
G01 X14.3949 Y8.3983
G01 X14.4703 Y8.4340
G01 X14.4857 Y8.4417
G01 X14.5006 Y8.4502
G01 X14.5722 Y8.4930
G01 X14.5867 Y8.5022
G01 X14.6007 Y8.5121
G01 X14.6677 Y8.5618
G01 X14.6813 Y8.5724
G01 X14.6943 Y8.5836
G01 X14.7561 Y8.6396
G01 X14.7685 Y8.6515
G01 X14.7804 Y8.6639
G01 X14.8421 Y8.7322
G01 X14.8582 Y8.7523
G01 X14.9079 Y8.8193
G01 X14.9178 Y8.8333
G01 X14.9270 Y8.8478
G01 X14.9698 Y8.9194
G01 X14.9783 Y8.9343
G01 X14.9860 Y8.9497
G01 X15.0217 Y9.0251
G01 X15.0287 Y9.0408
G01 X15.0348 Y9.0568
G01 X15.0629 Y9.1353
G01 X15.0683 Y9.1517
G01 X15.0729 Y9.1682
G01 X15.0932 Y9.2491
G01 X15.0969 Y9.2659
G01 X15.0999 Y9.2828
G01 X15.1121 Y9.3653
G01 X15.1150 Y9.3909
G01 X15.1196 Y9.4828
G01 X15.1200 Y9.5000
G01 X15.1196 Y9.5172
G01 X15.1155 Y9.6005
G01 X15.1142 Y9.6176
G01 X15.1121 Y9.6347
G01 X15.0985 Y9.7257
G01 X15.0932 Y9.7509
G01 X15.0729 Y9.8318
G01 X15.0683 Y9.8483
G01 X15.0629 Y9.8647
G01 X15.0348 Y9.9432
G01 X15.0287 Y9.9592
G01 X15.0217 Y9.9749
G01 X14.9860 Y10.0503
G01 X14.9783 Y10.0657
G01 X14.9698 Y10.0806
G01 X14.9270 Y10.1522
G01 X14.9178 Y10.1667
G01 X14.9079 Y10.1807
G01 X14.8582 Y10.2477
G01 X14.8476 Y10.2613
G01 X14.8364 Y10.2743
G01 X14.7804 Y10.3361
G01 X14.7624 Y10.3545
G01 X14.6878 Y10.4221
G01 X14.6677 Y10.4382
G01 X14.6007 Y10.4879
G01 X14.5867 Y10.4978
G01 X14.5722 Y10.5070
G01 X14.5201 Y10.5381
G01 X14.5201 Y10.6714
G01 X17.7486 Y13.8999
G01 X23.4069 Y13.8999
G01 X23.4380 Y13.8478
G01 X23.4472 Y13.8333
G01 X23.4571 Y13.8193
G01 X23.5120 Y13.7454
G01 X23.5286 Y13.7257
G01 X23.5846 Y13.6639
G01 X23.6026 Y13.6455
G01 X23.6707 Y13.5836
G01 X23.6837 Y13.5724
G01 X23.6973 Y13.5618
G01 X23.7643 Y13.5121
G01 X23.7783 Y13.5022
G01 X23.7928 Y13.4930
G01 X23.8644 Y13.4502
G01 X23.8869 Y13.4377
G01 X23.9701 Y13.3983
G01 X23.9858 Y13.3913
G01 X24.0018 Y13.3852
G01 X24.0803 Y13.3571
G01 X24.0967 Y13.3517
G01 X24.1132 Y13.3471
G01 X24.1941 Y13.3268
G01 X24.2109 Y13.3231
G01 X24.2278 Y13.3201
G01 X24.3103 Y13.3079
G01 X24.3274 Y13.3058
G01 X24.3445 Y13.3045
G01 X24.4278 Y13.3004
G01 X24.4450 Y13.3000
G01 X24.4622 Y13.3004
G01 X24.5541 Y13.3050
G01 X24.5797 Y13.3079
G01 X24.6622 Y13.3201
G01 X24.6791 Y13.3231
G01 X24.6959 Y13.3268
G01 X24.7768 Y13.3471
G01 X24.8015 Y13.3543
G01 X24.8882 Y13.3852
G01 X24.9042 Y13.3913
G01 X24.9199 Y13.3983
G01 X24.9953 Y13.4340
G01 X25.0107 Y13.4417
G01 X25.0256 Y13.4502
G01 X25.0972 Y13.4930
G01 X25.1117 Y13.5022
G01 X25.1257 Y13.5121
G01 X25.1927 Y13.5618
G01 X25.2063 Y13.5724
G01 X25.2193 Y13.5836
G01 X25.2811 Y13.6396
G01 X25.2935 Y13.6515
G01 X25.3054 Y13.6639
G01 X25.3614 Y13.7257
G01 X25.3726 Y13.7387
G01 X25.3832 Y13.7523
G01 X25.4329 Y13.8193
G01 X25.4428 Y13.8333
G01 X25.4520 Y13.8478
G01 X25.4948 Y13.9194
G01 X25.5033 Y13.9343
G01 X25.5110 Y13.9497
G01 X25.5467 Y14.0251
G01 X25.5537 Y14.0408
G01 X25.5598 Y14.0568
G01 X25.5879 Y14.1353
G01 X25.5933 Y14.1517
G01 X25.5979 Y14.1682
G01 X25.6182 Y14.2491
G01 X25.6219 Y14.2659
G01 X25.6249 Y14.2828
G01 X25.6371 Y14.3653
G01 X25.6392 Y14.3824
G01 X25.6405 Y14.3995
G01 X25.6446 Y14.4828
G01 X25.6450 Y14.5000
G01 X25.6446 Y14.5172
G01 X25.6405 Y14.6005
G01 X25.6392 Y14.6176
G01 X25.6371 Y14.6347
G01 X25.6249 Y14.7172
G01 X25.6219 Y14.7341
G01 X25.6182 Y14.7509
G01 X25.5979 Y14.8318
G01 X25.5933 Y14.8483
G01 X25.5879 Y14.8647
G01 X25.5598 Y14.9432
G01 X25.5503 Y14.9671
G01 X25.5110 Y15.0503
G01 X25.5033 Y15.0657
G01 X25.4948 Y15.0806
G01 X25.4520 Y15.1522
G01 X25.4428 Y15.1667
G01 X25.4329 Y15.1807
G01 X25.3832 Y15.2477
G01 X25.3726 Y15.2613
G01 X25.3614 Y15.2743
G01 X25.3054 Y15.3361
G01 X25.2935 Y15.3485
G01 X25.2811 Y15.3604
G01 X25.2128 Y15.4221
G01 X25.1927 Y15.4382
G01 X25.1257 Y15.4879
G01 X25.1117 Y15.4978
G01 X25.0972 Y15.5070
G01 X25.0256 Y15.5498
G01 X25.0107 Y15.5583
G01 X24.9953 Y15.5660
G01 X24.9199 Y15.6017
G01 X24.9042 Y15.6087
G01 X24.8882 Y15.6148
G01 X24.8097 Y15.6429
G01 X24.7933 Y15.6483
G01 X24.7768 Y15.6529
G01 X24.6959 Y15.6732
G01 X24.6791 Y15.6769
G01 X24.6622 Y15.6799
G01 X24.5797 Y15.6921
G01 X24.5626 Y15.6942
G01 X24.5455 Y15.6955
G01 X24.4622 Y15.6996
G01 X24.4450 Y15.7000
G01 X24.4278 Y15.6996
G01 X24.3445 Y15.6955
G01 X24.3274 Y15.6942
G01 X24.3103 Y15.6921
G01 X24.2278 Y15.6799
G01 X24.2109 Y15.6769
G01 X24.1941 Y15.6732
G01 X24.1132 Y15.6529
G01 X24.0967 Y15.6483
G01 X24.0803 Y15.6429
G01 X24.0018 Y15.6148
G01 X23.9858 Y15.6087
G01 X23.9701 Y15.6017
G01 X23.8947 Y15.5660
G01 X23.8718 Y15.5542
G01 X23.7928 Y15.5070
G01 X23.7783 Y15.4978
G01 X23.7643 Y15.4879
G01 X23.6973 Y15.4382
G01 X23.6837 Y15.4276
G01 X23.6707 Y15.4164
G01 X23.6089 Y15.3604
G01 X23.5965 Y15.3485
G01 X23.5846 Y15.3361
G01 X23.5286 Y15.2743
G01 X23.5120 Y15.2546
G01 X23.4571 Y15.1807
G01 X23.4472 Y15.1667
G01 X23.4380 Y15.1522
G01 X23.4069 Y15.1001
G01 X17.5000 Y15.1001
G01 X17.4583 Y15.0985
G01 X17.4412 Y15.0972
G01 X17.3998 Y15.0915
G01 X17.3745 Y15.0868
G01 X17.3340 Y15.0767
G01 X17.3095 Y15.0689
G01 X17.2703 Y15.0544
G01 X17.2324 Y15.0370
G01 X17.2171 Y15.0293
G01 X17.2022 Y15.0208
G01 X17.1738 Y15.0037
G01 X17.1595 Y14.9941
G01 X17.1328 Y14.9745
G01 X17.1193 Y14.9639
G01 X17.0881 Y14.9362
G01 X17.0756 Y14.9244
G01 X13.4956 Y11.3444
G01 X13.4673 Y11.3137
G01 X13.4507 Y11.2940
G01 X13.4309 Y11.2675
G01 X13.4210 Y11.2534
G01 X13.3992 Y11.2178
G01 X13.3868 Y11.1953
G01 X13.3689 Y11.1576
G01 X13.3594 Y11.1336
G01 X13.3457 Y11.0942
G01 X13.3352 Y11.0538
G01 X13.3298 Y11.0286
G01 X13.3249 Y10.9959
G01 X13.3228 Y10.9788
G01 X13.3215 Y10.9617
G01 X13.3200 Y10.9286
G01 X13.3199 Y10.5381
G01 X13.2678 Y10.5070
G01 X13.2462 Y10.4929
G01 X13.1723 Y10.4382
G01 X13.1522 Y10.4221
G01 X13.0839 Y10.3604
G01 X13.0715 Y10.3485
G01 X13.0596 Y10.3361
G01 X13.0036 Y10.2743
G01 X12.9924 Y10.2613
G01 X12.9818 Y10.2477
G01 X12.9321 Y10.1807
G01 X12.9222 Y10.1667
G01 X12.9130 Y10.1522
G01 X12.8702 Y10.0806
G01 X12.8617 Y10.0657
G01 X12.8540 Y10.0503
G01 X12.8183 Y9.9749
G01 X12.8113 Y9.9592
G01 X12.8052 Y9.9432
G01 X12.7743 Y9.8565
G01 X12.7671 Y9.8318
G01 X12.7468 Y9.7509
G01 X12.7431 Y9.7341
G01 X12.7401 Y9.7172
G01 X12.7279 Y9.6347
G01 X12.7258 Y9.6176
G01 X12.7245 Y9.6005
G01 X12.7201 Y9.5086
G01 X12.7204 Y9.4828
G01 X12.7245 Y9.3995
G01 X12.7267 Y9.3738
G01 X12.7401 Y9.2828
G01 X12.7431 Y9.2659
G01 X12.7468 Y9.2491
G01 X12.7616 Y9.1903
G01 X8.6714 Y5.1001
G01 X7.2486 Y5.1001
G01 X6.8765 Y5.4722
G01 X6.8876 Y5.4926
G01 X6.8984 Y5.5161
G01 X6.9045 Y5.5321
G01 X6.9123 Y5.5567
G01 X6.9165 Y5.5733
G01 X6.9212 Y5.5986
G01 X6.9233 Y5.6157
G01 X6.9249 Y5.6414
G01 X6.9250 Y7.3500
G01 X6.9246 Y7.3672
G01 X6.9224 Y7.3928
G01 X6.9198 Y7.4098
G01 X6.9165 Y7.4267
G01 X6.9099 Y7.4516
G01 X6.9045 Y7.4679
G01 X6.8984 Y7.4839
G01 X6.8876 Y7.5074
G01 X6.8795 Y7.5225
G01 X6.8707 Y7.5372
G01 X6.8561 Y7.5585
G01 X6.8400 Y7.5786
G01 X6.8285 Y7.5913
G01 X6.8163 Y7.6035
G01 X6.7970 Y7.6206
G01 X6.7835 Y7.6311
G01 X6.7694 Y7.6410
G01 X6.7549 Y7.6502
G01 X6.7400 Y7.6587
G01 X6.7246 Y7.6664
G01 X6.7089 Y7.6734
G01 X6.6929 Y7.6795
G01 X6.6766 Y7.6849
G01 X6.6517 Y7.6915
G01 X6.6348 Y7.6948
G01 X6.6178 Y7.6974
G01 X6.5922 Y7.6996
G01 X6.5750 Y7.7000
G01 X4.8750 Y7.7000
G01 X4.8578 Y7.6996
G01 X4.8407 Y7.6983
G01 X4.8152 Y7.6948
G01 X4.7983 Y7.6915
G01 X4.7734 Y7.6849
G01 X4.7571 Y7.6795
G01 X4.7411 Y7.6734
G01 X4.7176 Y7.6626
G01 X4.7025 Y7.6545
G01 X4.6806 Y7.6410
G01 X4.6597 Y7.6259
G01 X4.6464 Y7.6150
G01 X4.6275 Y7.5975
G01 X4.6100 Y7.5786
G01 X4.5991 Y7.5653
G01 X4.5840 Y7.5444
G01 X4.5748 Y7.5299
G01 X4.5624 Y7.5074
G01 X4.5550 Y7.4918
G01 X4.5485 Y7.4760
G01 X4.5427 Y7.4598
G01 X4.5355 Y7.4350
G01 X4.5302 Y7.4098
G01 X4.5276 Y7.3928
G01 X4.5254 Y7.3672
G01 X4.5250 Y7.3500
G01 X4.5250 Y5.6500
G01 X4.5259 Y5.6243
G01 X4.5276 Y5.6072
G01 X4.5302 Y5.5902
G01 X4.5355 Y5.5650
G01 X4.5401 Y5.5484
G01 X4.5455 Y5.5321
G01 X4.5516 Y5.5161
G01 X4.5624 Y5.4926
G01 X4.5705 Y5.4775
G01 X4.5793 Y5.4628
G01 X4.5939 Y5.4415
G01 X4.6044 Y5.4280
G01 X4.6215 Y5.4087
G01 X4.6337 Y5.3965
G01 X4.6530 Y5.3794
G01 X4.6665 Y5.3689
G01 X4.6878 Y5.3543
G01 X4.7025 Y5.3455
G01 X4.7176 Y5.3374
G01 X4.7411 Y5.3266
G01 X4.7571 Y5.3205
G01 X4.7817 Y5.3127
G01 X4.8067 Y5.3067
G01 X4.8236 Y5.3038
G01 X4.8407 Y5.3017
G01 X4.8664 Y5.3001
G01 X5.3513 Y5.3000
G00 Z2.0000
G00 X8.7082 Y5.3852
G01 F60.00
G01 Z-0.2000
G01 F120.00
G01 X8.7242 Y5.3913
G01 X8.7399 Y5.3983
G01 X8.8153 Y5.4340
G01 X8.8307 Y5.4417
G01 X8.8456 Y5.4502
G01 X8.9172 Y5.4930
G01 X8.9317 Y5.5022
G01 X8.9457 Y5.5121
G01 X9.0127 Y5.5618
G01 X9.0263 Y5.5724
G01 X9.0393 Y5.5836
G01 X9.1011 Y5.6396
G01 X9.1135 Y5.6515
G01 X9.1254 Y5.6639
G01 X9.1814 Y5.7257
G01 X9.1926 Y5.7387
G01 X9.2032 Y5.7523
G01 X9.2529 Y5.8193
G01 X9.2628 Y5.8333
G01 X9.2720 Y5.8478
G01 X9.3148 Y5.9194
G01 X9.3233 Y5.9343
G01 X9.3310 Y5.9497
G01 X9.3667 Y6.0251
G01 X9.3737 Y6.0408
G01 X9.3798 Y6.0568
G01 X9.4079 Y6.1353
G01 X9.4133 Y6.1517
G01 X9.4179 Y6.1682
G01 X9.4382 Y6.2491
G01 X9.4419 Y6.2659
G01 X9.4449 Y6.2828
G01 X9.4571 Y6.3653
G01 X9.4592 Y6.3824
G01 X9.4605 Y6.3995
G01 X9.4646 Y6.4828
G01 X9.4650 Y6.5000
G01 X9.4646 Y6.5172
G01 X9.4605 Y6.6005
G01 X9.4592 Y6.6176
G01 X9.4571 Y6.6347
G01 X9.4449 Y6.7172
G01 X9.4419 Y6.7341
G01 X9.4382 Y6.7509
G01 X9.4179 Y6.8318
G01 X9.4133 Y6.8483
G01 X9.4079 Y6.8647
G01 X9.3798 Y6.9432
G01 X9.3737 Y6.9592
G01 X9.3667 Y6.9749
G01 X9.3310 Y7.0503
G01 X9.3233 Y7.0657
G01 X9.3148 Y7.0806
G01 X9.2720 Y7.1522
G01 X9.2628 Y7.1667
G01 X9.2529 Y7.1807
G01 X9.2032 Y7.2477
G01 X9.1926 Y7.2613
G01 X9.1814 Y7.2743
G01 X9.1254 Y7.3361
G01 X9.1135 Y7.3485
G01 X9.1011 Y7.3604
G01 X9.0393 Y7.4164
G01 X9.0263 Y7.4276
G01 X9.0127 Y7.4382
G01 X8.9457 Y7.4879
G01 X8.9317 Y7.4978
G01 X8.9172 Y7.5070
G01 X8.8456 Y7.5498
G01 X8.8307 Y7.5583
G01 X8.8153 Y7.5660
G01 X8.7399 Y7.6017
G01 X8.7242 Y7.6087
G01 X8.7082 Y7.6148
G01 X8.6297 Y7.6429
G01 X8.6133 Y7.6483
G01 X8.5968 Y7.6529
G01 X8.5159 Y7.6732
G01 X8.4991 Y7.6769
G01 X8.4822 Y7.6799
G01 X8.3997 Y7.6921
G01 X8.3826 Y7.6942
G01 X8.3655 Y7.6955
G01 X8.2822 Y7.6996
G01 X8.2650 Y7.7000
G01 X8.2478 Y7.6996
G01 X8.1645 Y7.6955
G01 X8.1474 Y7.6942
G01 X8.1303 Y7.6921
G01 X8.0478 Y7.6799
G01 X8.0309 Y7.6769
G01 X8.0141 Y7.6732
G01 X7.9332 Y7.6529
G01 X7.9167 Y7.6483
G01 X7.9003 Y7.6429
G01 X7.8218 Y7.6148
G01 X7.8058 Y7.6087
G01 X7.7901 Y7.6017
G01 X7.7147 Y7.5660
G01 X7.6993 Y7.5583
G01 X7.6844 Y7.5498
G01 X7.6128 Y7.5070
G01 X7.5983 Y7.4978
G01 X7.5843 Y7.4879
G01 X7.5173 Y7.4382
G01 X7.5037 Y7.4276
G01 X7.4907 Y7.4164
G01 X7.4289 Y7.3604
G01 X7.4165 Y7.3485
G01 X7.4046 Y7.3361
G01 X7.3486 Y7.2743
G01 X7.3374 Y7.2613
G01 X7.3268 Y7.2477
G01 X7.2771 Y7.1807
G01 X7.2672 Y7.1667
G01 X7.2580 Y7.1522
G01 X7.2152 Y7.0806
G01 X7.2067 Y7.0657
G01 X7.1990 Y7.0503
G01 X7.1633 Y6.9749
G01 X7.1563 Y6.9592
G01 X7.1502 Y6.9432
G01 X7.1221 Y6.8647
G01 X7.1167 Y6.8483
G01 X7.1121 Y6.8318
G01 X7.0918 Y6.7509
G01 X7.0881 Y6.7341
G01 X7.0851 Y6.7172
G01 X7.0729 Y6.6347
G01 X7.0708 Y6.6176
G01 X7.0695 Y6.6005
G01 X7.0654 Y6.5172
G01 X7.0650 Y6.5000
G01 X7.0654 Y6.4828
G01 X7.0695 Y6.3995
G01 X7.0708 Y6.3824
G01 X7.0729 Y6.3653
G01 X7.0851 Y6.2828
G01 X7.0881 Y6.2659
G01 X7.0918 Y6.2491
G01 X7.1121 Y6.1682
G01 X7.1167 Y6.1517
G01 X7.1221 Y6.1353
G01 X7.1502 Y6.0568
G01 X7.1563 Y6.0408
G01 X7.1633 Y6.0251
G01 X7.1990 Y5.9497
G01 X7.2067 Y5.9343
G01 X7.2152 Y5.9194
G01 X7.2580 Y5.8478
G01 X7.2672 Y5.8333
G01 X7.2771 Y5.8193
G01 X7.3268 Y5.7523
G01 X7.3374 Y5.7387
G01 X7.3486 Y5.7257
G01 X7.4046 Y5.6639
G01 X7.4165 Y5.6515
G01 X7.4289 Y5.6396
G01 X7.4907 Y5.5836
G01 X7.5037 Y5.5724
G01 X7.5173 Y5.5618
G01 X7.5843 Y5.5121
G01 X7.5983 Y5.5022
G01 X7.6128 Y5.4930
G01 X7.6844 Y5.4502
G01 X7.6993 Y5.4417
G01 X7.7147 Y5.4340
G01 X7.7901 Y5.3983
G01 X7.8058 Y5.3913
G01 X7.8218 Y5.3852
G01 X7.9003 Y5.3571
G01 X7.9167 Y5.3517
G01 X7.9332 Y5.3471
G01 X8.0141 Y5.3268
G01 X8.0309 Y5.3231
G01 X8.0478 Y5.3201
G01 X8.1303 Y5.3079
G01 X8.1474 Y5.3058
G01 X8.1645 Y5.3045
G01 X8.2478 Y5.3004
G01 X8.2650 Y5.3000
G01 X8.2822 Y5.3004
G01 X8.3655 Y5.3045
G01 X8.3826 Y5.3058
G01 X8.3997 Y5.3079
G01 X8.4822 Y5.3201
G01 X8.4991 Y5.3231
G01 X8.5159 Y5.3268
G01 X8.5968 Y5.3471
G01 X8.6133 Y5.3517
G01 X8.6297 Y5.3571
G01 X8.7082 Y5.3852
G00 Z2.0000
G00 X8.7082 Y7.9252
G01 F60.00
G01 Z-0.2000
G01 F120.00
G01 X8.7242 Y7.9313
G01 X8.7399 Y7.9383
G01 X8.8153 Y7.9740
G01 X8.8307 Y7.9817
G01 X8.8456 Y7.9902
G01 X8.9172 Y8.0330
G01 X8.9317 Y8.0422
G01 X8.9457 Y8.0521
G01 X9.0127 Y8.1018
G01 X9.0263 Y8.1124
G01 X9.0393 Y8.1236
G01 X9.1011 Y8.1796
G01 X9.1135 Y8.1915
G01 X9.1254 Y8.2039
G01 X9.1814 Y8.2657
G01 X9.1926 Y8.2787
G01 X9.2032 Y8.2923
G01 X9.2529 Y8.3593
G01 X9.2628 Y8.3733
G01 X9.2720 Y8.3878
G01 X9.3148 Y8.4594
G01 X9.3233 Y8.4743
G01 X9.3310 Y8.4897
G01 X9.3667 Y8.5651
G01 X9.3737 Y8.5808
G01 X9.3798 Y8.5968
G01 X9.4079 Y8.6753
G01 X9.4133 Y8.6917
G01 X9.4179 Y8.7082
G01 X9.4382 Y8.7891
G01 X9.4419 Y8.8059
G01 X9.4449 Y8.8228
G01 X9.4571 Y8.9053
G01 X9.4592 Y8.9224
G01 X9.4605 Y8.9395
G01 X9.4646 Y9.0228
G01 X9.4650 Y9.0400
G01 X9.4646 Y9.0572
G01 X9.4605 Y9.1405
G01 X9.4592 Y9.1576
G01 X9.4571 Y9.1747
G01 X9.4449 Y9.2572
G01 X9.4419 Y9.2741
G01 X9.4382 Y9.2909
G01 X9.4179 Y9.3718
G01 X9.4133 Y9.3883
G01 X9.4079 Y9.4047
G01 X9.3798 Y9.4832
G01 X9.3737 Y9.4992
G01 X9.3667 Y9.5149
G01 X9.3310 Y9.5903
G01 X9.3233 Y9.6057
G01 X9.3148 Y9.6206
G01 X9.2720 Y9.6922
G01 X9.2628 Y9.7067
G01 X9.2529 Y9.7207
G01 X9.2032 Y9.7877
G01 X9.1926 Y9.8013
G01 X9.1814 Y9.8143
G01 X9.1254 Y9.8761
G01 X9.1135 Y9.8885
G01 X9.1011 Y9.9004
G01 X9.0393 Y9.9564
G01 X9.0263 Y9.9676
G01 X9.0127 Y9.9782
G01 X8.9457 Y10.0279
G01 X8.9317 Y10.0378
G01 X8.9172 Y10.0470
G01 X8.8456 Y10.0898
G01 X8.8307 Y10.0983
G01 X8.8153 Y10.1060
G01 X8.7399 Y10.1417
G01 X8.7242 Y10.1487
G01 X8.7082 Y10.1548
G01 X8.6297 Y10.1829
G01 X8.6133 Y10.1883
G01 X8.5968 Y10.1929
G01 X8.5159 Y10.2132
G01 X8.4991 Y10.2169
G01 X8.4822 Y10.2199
G01 X8.3997 Y10.2321
G01 X8.3826 Y10.2342
G01 X8.3655 Y10.2355
G01 X8.2822 Y10.2396
G01 X8.2650 Y10.2400
G01 X8.2478 Y10.2396
G01 X8.1645 Y10.2355
G01 X8.1474 Y10.2342
G01 X8.1303 Y10.2321
G01 X8.0478 Y10.2199
G01 X8.0309 Y10.2169
G01 X8.0141 Y10.2132
G01 X7.9332 Y10.1929
G01 X7.9167 Y10.1883
G01 X7.9003 Y10.1829
G01 X7.8218 Y10.1548
G01 X7.8058 Y10.1487
G01 X7.7901 Y10.1417
G01 X7.7147 Y10.1060
G01 X7.6993 Y10.0983
G01 X7.6844 Y10.0898
G01 X7.6128 Y10.0470
G01 X7.5983 Y10.0378
G01 X7.5843 Y10.0279
G01 X7.5173 Y9.9782
G01 X7.5037 Y9.9676
G01 X7.4907 Y9.9564
G01 X7.4289 Y9.9004
G01 X7.4165 Y9.8885
G01 X7.4046 Y9.8761
G01 X7.3486 Y9.8143
G01 X7.3374 Y9.8013
G01 X7.3268 Y9.7877
G01 X7.2771 Y9.7207
G01 X7.2672 Y9.7067
G01 X7.2580 Y9.6922
G01 X7.2152 Y9.6206
G01 X7.2067 Y9.6057
G01 X7.1990 Y9.5903
G01 X7.1633 Y9.5149
G01 X7.1563 Y9.4992
G01 X7.1502 Y9.4832
G01 X7.1221 Y9.4047
G01 X7.1167 Y9.3883
G01 X7.1121 Y9.3718
G01 X7.0918 Y9.2909
G01 X7.0881 Y9.2741
G01 X7.0851 Y9.2572
G01 X7.0729 Y9.1747
G01 X7.0708 Y9.1576
G01 X7.0695 Y9.1405
G01 X7.0654 Y9.0572
G01 X7.0650 Y9.0400
G01 X7.0654 Y9.0228
G01 X7.0695 Y8.9395
G01 X7.0708 Y8.9224
G01 X7.0729 Y8.9053
G01 X7.0851 Y8.8228
G01 X7.0881 Y8.8059
G01 X7.0918 Y8.7891
G01 X7.1121 Y8.7082
G01 X7.1167 Y8.6917
G01 X7.1221 Y8.6753
G01 X7.1502 Y8.5968
G01 X7.1563 Y8.5808
G01 X7.1633 Y8.5651
G01 X7.1990 Y8.4897
G01 X7.2067 Y8.4743
G01 X7.2152 Y8.4594
G01 X7.2580 Y8.3878
G01 X7.2672 Y8.3733
G01 X7.2771 Y8.3593
G01 X7.3268 Y8.2923
G01 X7.3374 Y8.2787
G01 X7.3486 Y8.2657
G01 X7.4046 Y8.2039
G01 X7.4165 Y8.1915
G01 X7.4289 Y8.1796
G01 X7.4907 Y8.1236
G01 X7.5037 Y8.1124
G01 X7.5173 Y8.1018
G01 X7.5843 Y8.0521
G01 X7.5983 Y8.0422
G01 X7.6128 Y8.0330
G01 X7.6844 Y7.9902
G01 X7.6993 Y7.9817
G01 X7.7147 Y7.9740
G01 X7.7901 Y7.9383
G01 X7.8058 Y7.9313
G01 X7.8218 Y7.9252
G01 X7.9003 Y7.8971
G01 X7.9167 Y7.8917
G01 X7.9332 Y7.8871
G01 X8.0141 Y7.8668
G01 X8.0309 Y7.8631
G01 X8.0478 Y7.8601
G01 X8.1303 Y7.8479
G01 X8.1474 Y7.8458
G01 X8.1645 Y7.8445
G01 X8.2478 Y7.8404
G01 X8.2650 Y7.8400
G01 X8.2822 Y7.8404
G01 X8.3655 Y7.8445
G01 X8.3826 Y7.8458
G01 X8.3997 Y7.8479
G01 X8.4822 Y7.8601
G01 X8.4991 Y7.8631
G01 X8.5159 Y7.8668
G01 X8.5968 Y7.8871
G01 X8.6133 Y7.8917
G01 X8.6297 Y7.8971
G01 X8.7082 Y7.9252
G00 Z2.0000
G00 X8.7082 Y10.4652
G01 F60.00
G01 Z-0.2000
G01 F120.00
G01 X8.7242 Y10.4713
G01 X8.7399 Y10.4783
G01 X8.8153 Y10.5140
G01 X8.8307 Y10.5217
G01 X8.8456 Y10.5302
G01 X8.9172 Y10.5730
G01 X8.9317 Y10.5822
G01 X8.9457 Y10.5921
G01 X9.0127 Y10.6418
G01 X9.0263 Y10.6524
G01 X9.0393 Y10.6636
G01 X9.1011 Y10.7196
G01 X9.1135 Y10.7315
G01 X9.1254 Y10.7439
G01 X9.1814 Y10.8057
G01 X9.1926 Y10.8187
G01 X9.2032 Y10.8323
G01 X9.2529 Y10.8993
G01 X9.2628 Y10.9133
G01 X9.2720 Y10.9278
G01 X9.3148 Y10.9994
G01 X9.3233 Y11.0143
G01 X9.3310 Y11.0297
G01 X9.3667 Y11.1051
G01 X9.3737 Y11.1208
G01 X9.3798 Y11.1368
G01 X9.4079 Y11.2153
G01 X9.4133 Y11.2317
G01 X9.4179 Y11.2482
G01 X9.4382 Y11.3291
G01 X9.4419 Y11.3459
G01 X9.4449 Y11.3628
G01 X9.4571 Y11.4453
G01 X9.4592 Y11.4624
G01 X9.4605 Y11.4795
G01 X9.4646 Y11.5628
G01 X9.4650 Y11.5800
G01 X9.4646 Y11.5972
G01 X9.4605 Y11.6805
G01 X9.4592 Y11.6976
G01 X9.4571 Y11.7147
G01 X9.4449 Y11.7972
G01 X9.4419 Y11.8141
G01 X9.4382 Y11.8309
G01 X9.4179 Y11.9118
G01 X9.4133 Y11.9283
G01 X9.4079 Y11.9447
G01 X9.3798 Y12.0232
G01 X9.3737 Y12.0392
G01 X9.3667 Y12.0549
G01 X9.3310 Y12.1303
G01 X9.3233 Y12.1457
G01 X9.3148 Y12.1606
G01 X9.2720 Y12.2322
G01 X9.2628 Y12.2467
G01 X9.2529 Y12.2607
G01 X9.2032 Y12.3277
G01 X9.1926 Y12.3413
G01 X9.1814 Y12.3543
G01 X9.1254 Y12.4161
G01 X9.1135 Y12.4285
G01 X9.1011 Y12.4404
G01 X9.0393 Y12.4964
G01 X9.0263 Y12.5076
G01 X9.0127 Y12.5182
G01 X8.9457 Y12.5679
G01 X8.9317 Y12.5778
G01 X8.9172 Y12.5870
G01 X8.8456 Y12.6298
G01 X8.8307 Y12.6383
G01 X8.8153 Y12.6460
G01 X8.7399 Y12.6817
G01 X8.7242 Y12.6887
G01 X8.7082 Y12.6948
G01 X8.6297 Y12.7229
G01 X8.6133 Y12.7283
G01 X8.5968 Y12.7329
G01 X8.5159 Y12.7532
G01 X8.4991 Y12.7569
G01 X8.4822 Y12.7599
G01 X8.3997 Y12.7721
G01 X8.3826 Y12.7742
G01 X8.3655 Y12.7755
G01 X8.2822 Y12.7796
G01 X8.2650 Y12.7800
G01 X8.2478 Y12.7796
G01 X8.1645 Y12.7755
G01 X8.1474 Y12.7742
G01 X8.1303 Y12.7721
G01 X8.0478 Y12.7599
G01 X8.0309 Y12.7569
G01 X8.0141 Y12.7532
G01 X7.9332 Y12.7329
G01 X7.9167 Y12.7283
G01 X7.9003 Y12.7229
G01 X7.8218 Y12.6948
G01 X7.8058 Y12.6887
G01 X7.7901 Y12.6817
G01 X7.7147 Y12.6460
G01 X7.6993 Y12.6383
G01 X7.6844 Y12.6298
G01 X7.6128 Y12.5870
G01 X7.5983 Y12.5778
G01 X7.5843 Y12.5679
G01 X7.5173 Y12.5182
G01 X7.5037 Y12.5076
G01 X7.4907 Y12.4964
G01 X7.4289 Y12.4404
G01 X7.4165 Y12.4285
G01 X7.4046 Y12.4161
G01 X7.3486 Y12.3543
G01 X7.3374 Y12.3413
G01 X7.3268 Y12.3277
G01 X7.2771 Y12.2607
G01 X7.2672 Y12.2467
G01 X7.2580 Y12.2322
G01 X7.2152 Y12.1606
G01 X7.2067 Y12.1457
G01 X7.1990 Y12.1303
G01 X7.1633 Y12.0549
G01 X7.1563 Y12.0392
G01 X7.1502 Y12.0232
G01 X7.1221 Y11.9447
G01 X7.1167 Y11.9283
G01 X7.1121 Y11.9118
G01 X7.0918 Y11.8309
G01 X7.0881 Y11.8141
G01 X7.0851 Y11.7972
G01 X7.0729 Y11.7147
G01 X7.0708 Y11.6976
G01 X7.0695 Y11.6805
G01 X7.0654 Y11.5972
G01 X7.0650 Y11.5800
G01 X7.0654 Y11.5628
G01 X7.0695 Y11.4795
G01 X7.0708 Y11.4624
G01 X7.0729 Y11.4453
G01 X7.0851 Y11.3628
G01 X7.0881 Y11.3459
G01 X7.0918 Y11.3291
G01 X7.1121 Y11.2482
G01 X7.1167 Y11.2317
G01 X7.1221 Y11.2153
G01 X7.1502 Y11.1368
G01 X7.1563 Y11.1208
G01 X7.1633 Y11.1051
G01 X7.1990 Y11.0297
G01 X7.2067 Y11.0143
G01 X7.2152 Y10.9994
G01 X7.2580 Y10.9278
G01 X7.2672 Y10.9133
G01 X7.2771 Y10.8993
G01 X7.3268 Y10.8323
G01 X7.3374 Y10.8187
G01 X7.3486 Y10.8057
G01 X7.4046 Y10.7439
G01 X7.4165 Y10.7315
G01 X7.4289 Y10.7196
G01 X7.4907 Y10.6636
G01 X7.5037 Y10.6524
G01 X7.5173 Y10.6418
G01 X7.5843 Y10.5921
G01 X7.5983 Y10.5822
G01 X7.6128 Y10.5730
G01 X7.6844 Y10.5302
G01 X7.6993 Y10.5217
G01 X7.7147 Y10.5140
G01 X7.7901 Y10.4783
G01 X7.8058 Y10.4713
G01 X7.8218 Y10.4652
G01 X7.9003 Y10.4371
G01 X7.9167 Y10.4317
G01 X7.9332 Y10.4271
G01 X8.0141 Y10.4068
G01 X8.0309 Y10.4031
G01 X8.0478 Y10.4001
G01 X8.1303 Y10.3879
G01 X8.1474 Y10.3858
G01 X8.1645 Y10.3845
G01 X8.2478 Y10.3804
G01 X8.2650 Y10.3800
G01 X8.2822 Y10.3804
G01 X8.3655 Y10.3845
G01 X8.3826 Y10.3858
G01 X8.3997 Y10.3879
G01 X8.4822 Y10.4001
G01 X8.4991 Y10.4031
G01 X8.5159 Y10.4068
G01 X8.5968 Y10.4271
G01 X8.6133 Y10.4317
G01 X8.6297 Y10.4371
G01 X8.7082 Y10.4652
G00 Z2.0000
G00 X8.7082 Y13.0052
G01 F60.00
G01 Z-0.2000
G01 F120.00
G01 X8.7242 Y13.0113
G01 X8.7399 Y13.0183
G01 X8.8153 Y13.0540
G01 X8.8307 Y13.0617
G01 X8.8456 Y13.0702
G01 X8.9172 Y13.1130
G01 X8.9317 Y13.1222
G01 X8.9457 Y13.1321
G01 X9.0127 Y13.1818
G01 X9.0263 Y13.1924
G01 X9.0393 Y13.2036
G01 X9.1011 Y13.2596
G01 X9.1135 Y13.2715
G01 X9.1254 Y13.2839
G01 X9.1814 Y13.3457
G01 X9.1926 Y13.3587
G01 X9.2032 Y13.3723
G01 X9.2529 Y13.4393
G01 X9.2628 Y13.4533
G01 X9.2720 Y13.4678
G01 X9.3148 Y13.5394
G01 X9.3233 Y13.5543
G01 X9.3310 Y13.5697
G01 X9.3667 Y13.6451
G01 X9.3737 Y13.6608
G01 X9.3798 Y13.6768
G01 X9.4079 Y13.7553
G01 X9.4133 Y13.7717
G01 X9.4179 Y13.7882
G01 X9.4382 Y13.8691
G01 X9.4419 Y13.8859
G01 X9.4449 Y13.9028
G01 X9.4571 Y13.9853
G01 X9.4592 Y14.0024
G01 X9.4605 Y14.0195
G01 X9.4646 Y14.1028
G01 X9.4650 Y14.1200
G01 X9.4646 Y14.1372
G01 X9.4605 Y14.2205
G01 X9.4592 Y14.2376
G01 X9.4571 Y14.2547
G01 X9.4449 Y14.3372
G01 X9.4419 Y14.3541
G01 X9.4382 Y14.3709
G01 X9.4179 Y14.4518
G01 X9.4133 Y14.4683
G01 X9.4079 Y14.4847
G01 X9.3798 Y14.5632
G01 X9.3737 Y14.5792
G01 X9.3667 Y14.5949
G01 X9.3310 Y14.6703
G01 X9.3233 Y14.6857
G01 X9.3148 Y14.7006
G01 X9.2720 Y14.7722
G01 X9.2628 Y14.7867
G01 X9.2529 Y14.8007
G01 X9.2032 Y14.8677
G01 X9.1926 Y14.8813
G01 X9.1814 Y14.8943
G01 X9.1254 Y14.9561
G01 X9.1135 Y14.9685
G01 X9.1011 Y14.9804
G01 X9.0393 Y15.0364
G01 X9.0263 Y15.0476
G01 X9.0127 Y15.0582
G01 X8.9457 Y15.1079
G01 X8.9317 Y15.1178
G01 X8.9172 Y15.1270
G01 X8.8456 Y15.1698
G01 X8.8307 Y15.1783
G01 X8.8153 Y15.1860
G01 X8.7399 Y15.2217
G01 X8.7242 Y15.2287
G01 X8.7082 Y15.2348
G01 X8.6297 Y15.2629
G01 X8.6133 Y15.2683
G01 X8.5968 Y15.2729
G01 X8.5159 Y15.2932
G01 X8.4991 Y15.2969
G01 X8.4822 Y15.2999
G01 X8.3997 Y15.3121
G01 X8.3826 Y15.3142
G01 X8.3655 Y15.3155
G01 X8.2822 Y15.3196
G01 X8.2650 Y15.3200
G01 X8.2478 Y15.3196
G01 X8.1645 Y15.3155
G01 X8.1474 Y15.3142
G01 X8.1303 Y15.3121
G01 X8.0478 Y15.2999
G01 X8.0309 Y15.2969
G01 X8.0141 Y15.2932
G01 X7.9332 Y15.2729
G01 X7.9167 Y15.2683
G01 X7.9003 Y15.2629
G01 X7.8218 Y15.2348
G01 X7.8058 Y15.2287
G01 X7.7901 Y15.2217
G01 X7.7147 Y15.1860
G01 X7.6993 Y15.1783
G01 X7.6844 Y15.1698
G01 X7.6128 Y15.1270
G01 X7.5983 Y15.1178
G01 X7.5843 Y15.1079
G01 X7.5173 Y15.0582
G01 X7.5037 Y15.0476
G01 X7.4907 Y15.0364
G01 X7.4289 Y14.9804
G01 X7.4165 Y14.9685
G01 X7.4046 Y14.9561
G01 X7.3486 Y14.8943
G01 X7.3374 Y14.8813
G01 X7.3268 Y14.8677
G01 X7.2771 Y14.8007
G01 X7.2672 Y14.7867
G01 X7.2580 Y14.7722
G01 X7.2152 Y14.7006
G01 X7.2067 Y14.6857
G01 X7.1990 Y14.6703
G01 X7.1633 Y14.5949
G01 X7.1563 Y14.5792
G01 X7.1502 Y14.5632
G01 X7.1221 Y14.4847
G01 X7.1167 Y14.4683
G01 X7.1121 Y14.4518
G01 X7.0918 Y14.3709
G01 X7.0881 Y14.3541
G01 X7.0851 Y14.3372
G01 X7.0729 Y14.2547
G01 X7.0708 Y14.2376
G01 X7.0695 Y14.2205
G01 X7.0654 Y14.1372
G01 X7.0650 Y14.1200
G01 X7.0654 Y14.1028
G01 X7.0695 Y14.0195
G01 X7.0708 Y14.0024
G01 X7.0729 Y13.9853
G01 X7.0851 Y13.9028
G01 X7.0881 Y13.8859
G01 X7.0918 Y13.8691
G01 X7.1121 Y13.7882
G01 X7.1167 Y13.7717
G01 X7.1221 Y13.7553
G01 X7.1502 Y13.6768
G01 X7.1563 Y13.6608
G01 X7.1633 Y13.6451
G01 X7.1990 Y13.5697
G01 X7.2067 Y13.5543
G01 X7.2152 Y13.5394
G01 X7.2580 Y13.4678
G01 X7.2672 Y13.4533
G01 X7.2771 Y13.4393
G01 X7.3268 Y13.3723
G01 X7.3374 Y13.3587
G01 X7.3486 Y13.3457
G01 X7.4046 Y13.2839
G01 X7.4165 Y13.2715
G01 X7.4289 Y13.2596
G01 X7.4907 Y13.2036
G01 X7.5037 Y13.1924
G01 X7.5173 Y13.1818
G01 X7.5843 Y13.1321
G01 X7.5983 Y13.1222
G01 X7.6128 Y13.1130
G01 X7.6844 Y13.0702
G01 X7.6993 Y13.0617
G01 X7.7147 Y13.0540
G01 X7.7901 Y13.0183
G01 X7.8058 Y13.0113
G01 X7.8218 Y13.0052
G01 X7.9003 Y12.9771
G01 X7.9167 Y12.9717
G01 X7.9332 Y12.9671
G01 X8.0141 Y12.9468
G01 X8.0309 Y12.9431
G01 X8.0478 Y12.9401
G01 X8.1303 Y12.9279
G01 X8.1474 Y12.9258
G01 X8.1645 Y12.9245
G01 X8.2478 Y12.9204
G01 X8.2650 Y12.9200
G01 X8.2822 Y12.9204
G01 X8.3655 Y12.9245
G01 X8.3826 Y12.9258
G01 X8.3997 Y12.9279
G01 X8.4822 Y12.9401
G01 X8.4991 Y12.9431
G01 X8.5159 Y12.9468
G01 X8.5968 Y12.9671
G01 X8.6133 Y12.9717
G01 X8.6297 Y12.9771
G01 X8.7082 Y13.0052
G00 Z2.0000
G00 X5.1249 Y15.1581
G01 F60.00
G01 Z-0.2000
G01 F120.00
G01 X5.0728 Y15.1270
G01 X5.0583 Y15.1178
G01 X5.0443 Y15.1079
G01 X4.9773 Y15.0582
G01 X4.9637 Y15.0476
G01 X4.9507 Y15.0364
G01 X4.8889 Y14.9804
G01 X4.8765 Y14.9685
G01 X4.8646 Y14.9561
G01 X4.8029 Y14.8878
G01 X4.7868 Y14.8677
G01 X4.7371 Y14.8007
G01 X4.7272 Y14.7867
G01 X4.7180 Y14.7722
G01 X4.6752 Y14.7006
G01 X4.6667 Y14.6857
G01 X4.6590 Y14.6703
G01 X4.6233 Y14.5949
G01 X4.6132 Y14.5712
G01 X4.5821 Y14.4847
G01 X4.5767 Y14.4683
G01 X4.5721 Y14.4518
G01 X4.5518 Y14.3709
G01 X4.5465 Y14.3457
G01 X4.5329 Y14.2547
G01 X4.5308 Y14.2376
G01 X4.5295 Y14.2205
G01 X4.5254 Y14.1372
G01 X4.5250 Y14.1200
G01 X4.5254 Y14.1028
G01 X4.5295 Y14.0195
G01 X4.5308 Y14.0024
G01 X4.5329 Y13.9853
G01 X4.5451 Y13.9028
G01 X4.5481 Y13.8859
G01 X4.5518 Y13.8691
G01 X4.5743 Y13.7799
G01 X4.5821 Y13.7553
G01 X4.6102 Y13.6768
G01 X4.6163 Y13.6608
G01 X4.6233 Y13.6451
G01 X4.6590 Y13.5697
G01 X4.6667 Y13.5543
G01 X4.6752 Y13.5394
G01 X4.7180 Y13.4678
G01 X4.7272 Y13.4533
G01 X4.7371 Y13.4393
G01 X4.7868 Y13.3723
G01 X4.7974 Y13.3587
G01 X4.8086 Y13.3457
G01 X4.8646 Y13.2839
G01 X4.8765 Y13.2715
G01 X4.8889 Y13.2596
G01 X4.9572 Y13.1979
G01 X4.9773 Y13.1818
G01 X5.0443 Y13.1321
G01 X5.0583 Y13.1222
G01 X5.0728 Y13.1130
G01 X5.1444 Y13.0702
G01 X5.1593 Y13.0617
G01 X5.1747 Y13.0540
G01 X5.2501 Y13.0183
G01 X5.2658 Y13.0113
G01 X5.2818 Y13.0052
G01 X5.3603 Y12.9771
G01 X5.3849 Y12.9693
G01 X5.4741 Y12.9468
G01 X5.4909 Y12.9431
G01 X5.5078 Y12.9401
G01 X5.5903 Y12.9279
G01 X5.6074 Y12.9258
G01 X5.6245 Y12.9245
G01 X5.7078 Y12.9204
G01 X5.7336 Y12.9201
G01 X5.8255 Y12.9245
G01 X5.8426 Y12.9258
G01 X5.8597 Y12.9279
G01 X5.9422 Y12.9401
G01 X5.9591 Y12.9431
G01 X5.9759 Y12.9468
G01 X6.0568 Y12.9671
G01 X6.0733 Y12.9717
G01 X6.0897 Y12.9771
G01 X6.1682 Y13.0052
G01 X6.1842 Y13.0113
G01 X6.1999 Y13.0183
G01 X6.2753 Y13.0540
G01 X6.2907 Y13.0617
G01 X6.3056 Y13.0702
G01 X6.3772 Y13.1130
G01 X6.3917 Y13.1222
G01 X6.4057 Y13.1321
G01 X6.4727 Y13.1818
G01 X6.4863 Y13.1924
G01 X6.4993 Y13.2036
G01 X6.5611 Y13.2596
G01 X6.5735 Y13.2715
G01 X6.5854 Y13.2839
G01 X6.6414 Y13.3457
G01 X6.6526 Y13.3587
G01 X6.6632 Y13.3723
G01 X6.7129 Y13.4393
G01 X6.7228 Y13.4533
G01 X6.7320 Y13.4678
G01 X6.7748 Y13.5394
G01 X6.7873 Y13.5619
G01 X6.8267 Y13.6451
G01 X6.8337 Y13.6608
G01 X6.8398 Y13.6768
G01 X6.8679 Y13.7553
G01 X6.8733 Y13.7717
G01 X6.8779 Y13.7882
G01 X6.8982 Y13.8691
G01 X6.9019 Y13.8859
G01 X6.9049 Y13.9028
G01 X6.9171 Y13.9853
G01 X6.9192 Y14.0024
G01 X6.9205 Y14.0195
G01 X6.9249 Y14.1114
G01 X6.9246 Y14.1372
G01 X6.9205 Y14.2205
G01 X6.9192 Y14.2376
G01 X6.9171 Y14.2547
G01 X6.9049 Y14.3372
G01 X6.9002 Y14.3625
G01 X6.8779 Y14.4518
G01 X6.8733 Y14.4683
G01 X6.8679 Y14.4847
G01 X6.8398 Y14.5632
G01 X6.8337 Y14.5792
G01 X6.8267 Y14.5949
G01 X6.7910 Y14.6703
G01 X6.7833 Y14.6857
G01 X6.7748 Y14.7006
G01 X6.7274 Y14.7795
G01 X6.7129 Y14.8007
G01 X6.6632 Y14.8677
G01 X6.6526 Y14.8813
G01 X6.6414 Y14.8943
G01 X6.5795 Y14.9624
G01 X6.5611 Y14.9804
G01 X6.4928 Y15.0421
G01 X6.4796 Y15.0530
G01 X6.4349 Y15.0862
G01 X7.2486 Y15.8999
G01 X32.2514 Y15.8999
G01 X33.8999 Y14.2514
G01 X33.8999 Y9.2486
G01 X31.7514 Y7.1001
G01 X28.7486 Y7.1001
G01 X27.3213 Y8.5274
G01 X27.3677 Y8.5618
G01 X27.3813 Y8.5724
G01 X27.3943 Y8.5836
G01 X27.4624 Y8.6455
G01 X27.4804 Y8.6639
G01 X27.5364 Y8.7257
G01 X27.5530 Y8.7454
G01 X27.6079 Y8.8193
G01 X27.6178 Y8.8333
G01 X27.6270 Y8.8478
G01 X27.6698 Y8.9194
G01 X27.6783 Y8.9343
G01 X27.6860 Y8.9497
G01 X27.7217 Y9.0251
G01 X27.7318 Y9.0488
G01 X27.7629 Y9.1353
G01 X27.7683 Y9.1517
G01 X27.7729 Y9.1682
G01 X27.7932 Y9.2491
G01 X27.7969 Y9.2659
G01 X27.7999 Y9.2828
G01 X27.8121 Y9.3653
G01 X27.8142 Y9.3824
G01 X27.8155 Y9.3995
G01 X27.8196 Y9.4828
G01 X27.8200 Y9.5000
G01 X27.8196 Y9.5172
G01 X27.8155 Y9.6005
G01 X27.8142 Y9.6176
G01 X27.8121 Y9.6347
G01 X27.7985 Y9.7257
G01 X27.7932 Y9.7509
G01 X27.7729 Y9.8318
G01 X27.7683 Y9.8483
G01 X27.7629 Y9.8647
G01 X27.7348 Y9.9432
G01 X27.7287 Y9.9592
G01 X27.7217 Y9.9749
G01 X27.6860 Y10.0503
G01 X27.6783 Y10.0657
G01 X27.6698 Y10.0806
G01 X27.6270 Y10.1522
G01 X27.6178 Y10.1667
G01 X27.6079 Y10.1807
G01 X27.5582 Y10.2477
G01 X27.5476 Y10.2613
G01 X27.5364 Y10.2743
G01 X27.4804 Y10.3361
G01 X27.4685 Y10.3485
G01 X27.4561 Y10.3604
G01 X27.3943 Y10.4164
G01 X27.3813 Y10.4276
G01 X27.3677 Y10.4382
G01 X27.3007 Y10.4879
G01 X27.2867 Y10.4978
G01 X27.2722 Y10.5070
G01 X27.2006 Y10.5498
G01 X27.1857 Y10.5583
G01 X27.1703 Y10.5660
G01 X27.0949 Y10.6017
G01 X27.0792 Y10.6087
G01 X27.0632 Y10.6148
G01 X26.9847 Y10.6429
G01 X26.9683 Y10.6483
G01 X26.9518 Y10.6529
G01 X26.8709 Y10.6732
G01 X26.8541 Y10.6769
G01 X26.8372 Y10.6799
G01 X26.7547 Y10.6921
G01 X26.7376 Y10.6942
G01 X26.7205 Y10.6955
G01 X26.6372 Y10.6996
G01 X26.6200 Y10.7000
G01 X26.6028 Y10.6996
G01 X26.5195 Y10.6955
G01 X26.5024 Y10.6942
G01 X26.4853 Y10.6921
G01 X26.4028 Y10.6799
G01 X26.3859 Y10.6769
G01 X26.3691 Y10.6732
G01 X26.2882 Y10.6529
G01 X26.2717 Y10.6483
G01 X26.2553 Y10.6429
G01 X26.1768 Y10.6148
G01 X26.1529 Y10.6053
G01 X26.0697 Y10.5660
G01 X26.0543 Y10.5583
G01 X26.0394 Y10.5498
G01 X25.9678 Y10.5070
G01 X25.9533 Y10.4978
G01 X25.9393 Y10.4879
G01 X25.8723 Y10.4382
G01 X25.8587 Y10.4276
G01 X25.8457 Y10.4164
G01 X25.7839 Y10.3604
G01 X25.7715 Y10.3485
G01 X25.7596 Y10.3361
G01 X25.7036 Y10.2743
G01 X25.6924 Y10.2613
G01 X25.6818 Y10.2477
G01 X25.6321 Y10.1807
G01 X25.6222 Y10.1667
G01 X25.6130 Y10.1522
G01 X25.5702 Y10.0806
G01 X25.5617 Y10.0657
G01 X25.5540 Y10.0503
G01 X25.5183 Y9.9749
G01 X25.5113 Y9.9592
G01 X25.5052 Y9.9432
G01 X25.4771 Y9.8647
G01 X25.4717 Y9.8483
G01 X25.4671 Y9.8318
G01 X25.4468 Y9.7509
G01 X25.4431 Y9.7341
G01 X25.4401 Y9.7172
G01 X25.4279 Y9.6347
G01 X25.4258 Y9.6176
G01 X25.4245 Y9.6005
G01 X25.4204 Y9.5172
G01 X25.4200 Y9.5000
G01 X25.4204 Y9.4828
G01 X25.4245 Y9.3995
G01 X25.4258 Y9.3824
G01 X25.4279 Y9.3653
G01 X25.4401 Y9.2828
G01 X25.4431 Y9.2659
G01 X25.4468 Y9.2491
G01 X25.4671 Y9.1682
G01 X25.4717 Y9.1517
G01 X25.4771 Y9.1353
G01 X25.5052 Y9.0568
G01 X25.5113 Y9.0408
G01 X25.5183 Y9.0251
G01 X25.5540 Y8.9497
G01 X25.5617 Y8.9343
G01 X25.5702 Y8.9194
G01 X25.6130 Y8.8478
G01 X25.6222 Y8.8333
G01 X25.6321 Y8.8193
G01 X25.6818 Y8.7523
G01 X25.6979 Y8.7322
G01 X25.7596 Y8.6639
G01 X25.7715 Y8.6515
G01 X25.7839 Y8.6396
G01 X25.8457 Y8.5836
G01 X25.8587 Y8.5724
G01 X25.8723 Y8.5618
G01 X25.9393 Y8.5121
G01 X25.9533 Y8.5022
G01 X25.9678 Y8.4930
G01 X26.0199 Y8.4619
G01 X26.0200 Y8.3714
G01 X26.0215 Y8.3383
G01 X26.0228 Y8.3212
G01 X26.0285 Y8.2798
G01 X26.0314 Y8.2629
G01 X26.0411 Y8.2223
G01 X26.0483 Y8.1976
G01 X26.0624 Y8.1583
G01 X26.0725 Y8.1346
G01 X26.0907 Y8.0971
G01 X26.1118 Y8.0611
G01 X26.1259 Y8.0395
G01 X26.1507 Y8.0060
G01 X26.1616 Y7.9927
G01 X26.1896 Y7.9618
G01 X28.0756 Y6.0756
G01 X28.1063 Y6.0473
G01 X28.1260 Y6.0307
G01 X28.1525 Y6.0109
G01 X28.1666 Y6.0010
G01 X28.1811 Y5.9918
G01 X28.2096 Y5.9749
G01 X28.2247 Y5.9668
G01 X28.2624 Y5.9489
G01 X28.2783 Y5.9424
G01 X28.3095 Y5.9311
G01 X28.3258 Y5.9257
G01 X28.3662 Y5.9152
G01 X28.3829 Y5.9114
G01 X28.3998 Y5.9085
G01 X28.4412 Y5.9028
G01 X28.4583 Y5.9015
G01 X28.4914 Y5.9000
G01 X32.0086 Y5.9000
G01 X32.0503 Y5.9020
G01 X32.0674 Y5.9037
G01 X32.1086 Y5.9098
G01 X32.1255 Y5.9132
G01 X32.1660 Y5.9233
G01 X32.1824 Y5.9283
G01 X32.2217 Y5.9424
G01 X32.2376 Y5.9489
G01 X32.2676 Y5.9630
G01 X32.2829 Y5.9707
G01 X32.2978 Y5.9792
G01 X32.3334 Y6.0010
G01 X32.3475 Y6.0109
G01 X32.3807 Y6.0361
G01 X32.4119 Y6.0638
G01 X32.4244 Y6.0756
G01 X34.9304 Y8.5818
G01 X34.9527 Y8.6063
G01 X34.9639 Y8.6193
G01 X34.9891 Y8.6525
G01 X35.0037 Y8.6738
G01 X35.0208 Y8.7022
G01 X35.0293 Y8.7171
G01 X35.0370 Y8.7324
G01 X35.0511 Y8.7624
G01 X35.0606 Y8.7864
G01 X35.0717 Y8.8176
G01 X35.0767 Y8.8340
G01 X35.0848 Y8.8662
G01 X35.0886 Y8.8829
G01 X35.0915 Y8.8998
G01 X35.0972 Y8.9412
G01 X35.0997 Y8.9828
G01 X35.1001 Y9.0000
G01 X35.1001 Y14.5000
G01 X35.0997 Y14.5172
G01 X35.0980 Y14.5503
G01 X35.0951 Y14.5759
G01 X35.0902 Y14.6086
G01 X35.0868 Y14.6255
G01 X35.0789 Y14.6577
G01 X35.0743 Y14.6742
G01 X35.0606 Y14.7136
G01 X35.0511 Y14.7376
G01 X35.0332 Y14.7753
G01 X35.0208 Y14.7978
G01 X34.9990 Y14.8334
G01 X34.9745 Y14.8672
G01 X34.9584 Y14.8873
G01 X34.9304 Y14.9182
G01 X32.9244 Y16.9244
G01 X32.9119 Y16.9362
G01 X32.8873 Y16.9584
G01 X32.8672 Y16.9745
G01 X32.8405 Y16.9941
G01 X32.8262 Y17.0037
G01 X32.7978 Y17.0208
G01 X32.7829 Y17.0293
G01 X32.7676 Y17.0370
G01 X32.7376 Y17.0511
G01 X32.7217 Y17.0576
G01 X32.6905 Y17.0689
G01 X32.6660 Y17.0767
G01 X32.6338 Y17.0848
G01 X32.6171 Y17.0886
G01 X32.6002 Y17.0915
G01 X32.5588 Y17.0972
G01 X32.5172 Y17.0997
G01 X32.5000 Y17.1001
G01 X7.0000 Y17.1001
G01 X6.9828 Y17.0997
G01 X6.9497 Y17.0980
G01 X6.9326 Y17.0963
G01 X6.8998 Y17.0915
G01 X6.8829 Y17.0886
G01 X6.8662 Y17.0848
G01 X6.8340 Y17.0767
G01 X6.8176 Y17.0717
G01 X6.7864 Y17.0606
G01 X6.7703 Y17.0544
G01 X6.7546 Y17.0475
G01 X6.7247 Y17.0332
G01 X6.7096 Y17.0251
G01 X6.6811 Y17.0082
G01 X6.6666 Y16.9990
G01 X6.6525 Y16.9891
G01 X6.6260 Y16.9693
G01 X6.6127 Y16.9584
G01 X6.5881 Y16.9362
G01 X6.5756 Y16.9244
G01 X5.2946 Y15.6432
G01 X5.2666 Y15.6123
G01 X5.2557 Y15.5990
G01 X5.2309 Y15.5655
G01 X5.2168 Y15.5439
G01 X5.1957 Y15.5079
G01 X5.1775 Y15.4704
G01 X5.1674 Y15.4467
G01 X5.1561 Y15.4155
G01 X5.1483 Y15.3910
G01 X5.1382 Y15.3505
G01 X5.1348 Y15.3336
G01 X5.1287 Y15.2924
G01 X5.1270 Y15.2753
G01 X5.1250 Y15.2336
G01 X5.1249 Y15.1581
G00 Z2.0000
G00 X4.6527 Y11.0429
G01 F60.00
G01 Z-0.2000
G01 F120.00
G01 X4.6627 Y11.0219
G01 X4.6708 Y11.0068
G01 X4.7180 Y10.9278
G01 X4.7321 Y10.9062
G01 X4.7868 Y10.8323
G01 X4.7974 Y10.8187
G01 X4.8086 Y10.8057
G01 X4.8705 Y10.7376
G01 X4.8889 Y10.7196
G01 X4.9507 Y10.6636
G01 X4.9637 Y10.6524
G01 X4.9773 Y10.6418
G01 X5.0443 Y10.5921
G01 X5.0583 Y10.5822
G01 X5.0728 Y10.5730
G01 X5.1518 Y10.5258
G01 X5.1747 Y10.5140
G01 X5.2501 Y10.4783
G01 X5.2658 Y10.4713
G01 X5.2818 Y10.4652
G01 X5.3603 Y10.4371
G01 X5.3767 Y10.4317
G01 X5.3932 Y10.4271
G01 X5.4741 Y10.4068
G01 X5.4909 Y10.4031
G01 X5.5078 Y10.4001
G01 X5.5903 Y10.3879
G01 X5.6074 Y10.3858
G01 X5.6245 Y10.3845
G01 X5.7078 Y10.3804
G01 X5.7250 Y10.3800
G01 X5.7422 Y10.3804
G01 X5.8255 Y10.3845
G01 X5.8426 Y10.3858
G01 X5.8597 Y10.3879
G01 X5.9422 Y10.4001
G01 X5.9591 Y10.4031
G01 X5.9759 Y10.4068
G01 X6.0568 Y10.4271
G01 X6.0733 Y10.4317
G01 X6.0897 Y10.4371
G01 X6.1682 Y10.4652
G01 X6.1842 Y10.4713
G01 X6.1999 Y10.4783
G01 X6.2753 Y10.5140
G01 X6.2907 Y10.5217
G01 X6.3056 Y10.5302
G01 X6.3772 Y10.5730
G01 X6.3917 Y10.5822
G01 X6.4057 Y10.5921
G01 X6.4727 Y10.6418
G01 X6.4863 Y10.6524
G01 X6.4993 Y10.6636
G01 X6.5611 Y10.7196
G01 X6.5735 Y10.7315
G01 X6.5854 Y10.7439
G01 X6.6414 Y10.8057
G01 X6.6526 Y10.8187
G01 X6.6632 Y10.8323
G01 X6.7129 Y10.8993
G01 X6.7228 Y10.9133
G01 X6.7320 Y10.9278
G01 X6.7748 Y10.9994
G01 X6.7833 Y11.0143
G01 X6.7910 Y11.0297
G01 X6.8267 Y11.1051
G01 X6.8337 Y11.1208
G01 X6.8398 Y11.1368
G01 X6.8707 Y11.2235
G01 X6.8779 Y11.2482
G01 X6.8982 Y11.3291
G01 X6.9019 Y11.3459
G01 X6.9049 Y11.3628
G01 X6.9183 Y11.4538
G01 X6.9205 Y11.4795
G01 X6.9246 Y11.5628
G01 X6.9250 Y11.5800
G01 X6.9246 Y11.5972
G01 X6.9205 Y11.6805
G01 X6.9192 Y11.6976
G01 X6.9171 Y11.7147
G01 X6.9049 Y11.7972
G01 X6.9019 Y11.8141
G01 X6.8982 Y11.8309
G01 X6.8779 Y11.9118
G01 X6.8733 Y11.9283
G01 X6.8679 Y11.9447
G01 X6.8398 Y12.0232
G01 X6.8303 Y12.0471
G01 X6.7910 Y12.1303
G01 X6.7833 Y12.1457
G01 X6.7748 Y12.1606
G01 X6.7320 Y12.2322
G01 X6.7228 Y12.2467
G01 X6.7129 Y12.2607
G01 X6.6632 Y12.3277
G01 X6.6526 Y12.3413
G01 X6.6414 Y12.3543
G01 X6.5854 Y12.4161
G01 X6.5735 Y12.4285
G01 X6.5611 Y12.4404
G01 X6.4993 Y12.4964
G01 X6.4863 Y12.5076
G01 X6.4727 Y12.5182
G01 X6.3988 Y12.5729
G01 X6.3772 Y12.5870
G01 X6.3056 Y12.6298
G01 X6.2907 Y12.6383
G01 X6.2753 Y12.6460
G01 X6.1999 Y12.6817
G01 X6.1762 Y12.6918
G01 X6.0897 Y12.7229
G01 X6.0733 Y12.7283
G01 X6.0568 Y12.7329
G01 X5.9759 Y12.7532
G01 X5.9591 Y12.7569
G01 X5.9422 Y12.7599
G01 X5.8597 Y12.7721
G01 X5.8426 Y12.7742
G01 X5.8255 Y12.7755
G01 X5.7422 Y12.7796
G01 X5.7250 Y12.7800
G01 X5.7078 Y12.7796
G01 X5.6159 Y12.7750
G01 X5.5903 Y12.7721
G01 X5.5078 Y12.7599
G01 X5.4909 Y12.7569
G01 X5.4741 Y12.7532
G01 X5.3932 Y12.7329
G01 X5.3767 Y12.7283
G01 X5.3603 Y12.7229
G01 X5.2818 Y12.6948
G01 X5.2579 Y12.6853
G01 X5.1747 Y12.6460
G01 X5.1593 Y12.6383
G01 X5.1444 Y12.6298
G01 X5.0728 Y12.5870
G01 X5.0583 Y12.5778
G01 X5.0443 Y12.5679
G01 X4.9773 Y12.5182
G01 X4.9637 Y12.5076
G01 X4.9507 Y12.4964
G01 X4.8991 Y12.4496
G01 X4.1001 Y13.2486
G01 X4.1001 Y15.2514
G01 X6.2486 Y17.3999
G01 X32.7514 Y17.3999
G01 X35.3999 Y14.7514
G01 X35.3999 Y8.7486
G01 X32.2514 Y5.6001
G01 X25.7486 Y5.6001
G01 X22.5285 Y8.8202
G01 X22.5378 Y8.8333
G01 X22.5470 Y8.8478
G01 X22.5898 Y8.9194
G01 X22.5983 Y8.9343
G01 X22.6060 Y8.9497
G01 X22.6417 Y9.0251
G01 X22.6487 Y9.0408
G01 X22.6548 Y9.0568
G01 X22.6829 Y9.1353
G01 X22.6883 Y9.1517
G01 X22.6929 Y9.1682
G01 X22.7132 Y9.2491
G01 X22.7169 Y9.2659
G01 X22.7199 Y9.2828
G01 X22.7321 Y9.3653
G01 X22.7342 Y9.3824
G01 X22.7355 Y9.3995
G01 X22.7396 Y9.4828
G01 X22.7400 Y9.5000
G01 X22.7396 Y9.5172
G01 X22.7355 Y9.6005
G01 X22.7342 Y9.6176
G01 X22.7321 Y9.6347
G01 X22.7199 Y9.7172
G01 X22.7169 Y9.7341
G01 X22.7132 Y9.7509
G01 X22.6929 Y9.8318
G01 X22.6883 Y9.8483
G01 X22.6829 Y9.8647
G01 X22.6548 Y9.9432
G01 X22.6487 Y9.9592
G01 X22.6417 Y9.9749
G01 X22.6060 Y10.0503
G01 X22.5983 Y10.0657
G01 X22.5898 Y10.0806
G01 X22.5470 Y10.1522
G01 X22.5378 Y10.1667
G01 X22.5279 Y10.1807
G01 X22.4782 Y10.2477
G01 X22.4676 Y10.2613
G01 X22.4564 Y10.2743
G01 X22.4004 Y10.3361
G01 X22.3885 Y10.3485
G01 X22.3761 Y10.3604
G01 X22.3143 Y10.4164
G01 X22.3013 Y10.4276
G01 X22.2877 Y10.4382
G01 X22.2138 Y10.4929
G01 X22.1922 Y10.5070
G01 X22.1206 Y10.5498
G01 X22.1057 Y10.5583
G01 X22.0903 Y10.5660
G01 X22.0149 Y10.6017
G01 X21.9992 Y10.6087
G01 X21.9832 Y10.6148
G01 X21.9047 Y10.6429
G01 X21.8883 Y10.6483
G01 X21.8718 Y10.6529
G01 X21.7909 Y10.6732
G01 X21.7741 Y10.6769
G01 X21.7572 Y10.6799
G01 X21.6747 Y10.6921
G01 X21.6576 Y10.6942
G01 X21.6405 Y10.6955
G01 X21.5572 Y10.6996
G01 X21.5400 Y10.7000
G01 X21.5228 Y10.6996
G01 X21.4395 Y10.6955
G01 X21.4224 Y10.6942
G01 X21.4053 Y10.6921
G01 X21.3228 Y10.6799
G01 X21.3059 Y10.6769
G01 X21.2891 Y10.6732
G01 X21.2082 Y10.6529
G01 X21.1917 Y10.6483
G01 X21.1753 Y10.6429
G01 X21.0968 Y10.6148
G01 X21.0808 Y10.6087
G01 X21.0651 Y10.6017
G01 X20.9897 Y10.5660
G01 X20.9743 Y10.5583
G01 X20.9594 Y10.5498
G01 X20.8878 Y10.5070
G01 X20.8733 Y10.4978
G01 X20.8593 Y10.4879
G01 X20.7923 Y10.4382
G01 X20.7787 Y10.4276
G01 X20.7657 Y10.4164
G01 X20.7039 Y10.3604
G01 X20.6915 Y10.3485
G01 X20.6796 Y10.3361
G01 X20.6236 Y10.2743
G01 X20.6124 Y10.2613
G01 X20.6018 Y10.2477
G01 X20.5521 Y10.1807
G01 X20.5422 Y10.1667
G01 X20.5330 Y10.1522
G01 X20.4902 Y10.0806
G01 X20.4817 Y10.0657
G01 X20.4740 Y10.0503
G01 X20.4383 Y9.9749
G01 X20.4313 Y9.9592
G01 X20.4252 Y9.9432
G01 X20.3971 Y9.8647
G01 X20.3917 Y9.8483
G01 X20.3871 Y9.8318
G01 X20.3668 Y9.7509
G01 X20.3631 Y9.7341
G01 X20.3601 Y9.7172
G01 X20.3479 Y9.6347
G01 X20.3458 Y9.6176
G01 X20.3445 Y9.6005
G01 X20.3401 Y9.5086
G01 X20.3404 Y9.4828
G01 X20.3445 Y9.3995
G01 X20.3458 Y9.3824
G01 X20.3479 Y9.3653
G01 X20.3601 Y9.2828
G01 X20.3631 Y9.2659
G01 X20.3668 Y9.2491
G01 X20.3871 Y9.1682
G01 X20.3917 Y9.1517
G01 X20.3971 Y9.1353
G01 X20.4252 Y9.0568
G01 X20.4313 Y9.0408
G01 X20.4383 Y9.0251
G01 X20.4740 Y8.9497
G01 X20.4817 Y8.9343
G01 X20.4902 Y8.9194
G01 X20.5330 Y8.8478
G01 X20.5422 Y8.8333
G01 X20.5521 Y8.8193
G01 X20.6018 Y8.7523
G01 X20.6124 Y8.7387
G01 X20.6236 Y8.7257
G01 X20.6855 Y8.6576
G01 X20.7039 Y8.6396
G01 X20.7657 Y8.5836
G01 X20.7787 Y8.5724
G01 X20.7923 Y8.5618
G01 X20.8593 Y8.5121
G01 X20.8733 Y8.5022
G01 X20.8878 Y8.4930
G01 X20.9594 Y8.4502
G01 X20.9743 Y8.4417
G01 X20.9897 Y8.4340
G01 X21.0651 Y8.3983
G01 X21.0808 Y8.3913
G01 X21.0968 Y8.3852
G01 X21.1835 Y8.3543
G01 X21.2082 Y8.3471
G01 X21.2891 Y8.3268
G01 X21.3059 Y8.3231
G01 X21.3326 Y8.3187
G01 X25.0756 Y4.5756
G01 X25.1063 Y4.5473
G01 X25.1193 Y4.5361
G01 X25.1525 Y4.5109
G01 X25.1666 Y4.5010
G01 X25.1811 Y4.4918
G01 X25.2171 Y4.4707
G01 X25.2546 Y4.4525
G01 X25.2703 Y4.4456
G01 X25.2864 Y4.4394
G01 X25.3258 Y4.4257
G01 X25.3662 Y4.4152
G01 X25.3829 Y4.4114
G01 X25.3998 Y4.4085
G01 X25.4412 Y4.4028
G01 X25.4828 Y4.4003
G01 X25.5000 Y4.3999
G01 X32.5000 Y4.3999
G01 X32.5417 Y4.4015
G01 X32.5674 Y4.4037
G01 X32.6002 Y4.4085
G01 X32.6171 Y4.4114
G01 X32.6338 Y4.4152
G01 X32.6742 Y4.4257
G01 X32.6905 Y4.4311
G01 X32.7217 Y4.4424
G01 X32.7376 Y4.4489
G01 X32.7676 Y4.4630
G01 X32.7829 Y4.4707
G01 X32.7978 Y4.4792
G01 X32.8262 Y4.4963
G01 X32.8405 Y4.5059
G01 X32.8672 Y4.5255
G01 X32.8807 Y4.5361
G01 X32.8937 Y4.5473
G01 X32.9182 Y4.5696
G01 X36.4244 Y8.0756
G01 X36.4362 Y8.0881
G01 X36.4639 Y8.1193
G01 X36.4891 Y8.1525
G01 X36.4990 Y8.1666
G01 X36.5082 Y8.1811
G01 X36.5293 Y8.2171
G01 X36.5475 Y8.2546
G01 X36.5576 Y8.2783
G01 X36.5689 Y8.3095
G01 X36.5743 Y8.3258
G01 X36.5848 Y8.3662
G01 X36.5886 Y8.3829
G01 X36.5915 Y8.3998
G01 X36.5972 Y8.4412
G01 X36.5997 Y8.4828
G01 X36.6001 Y8.5000
G01 X36.6001 Y15.0000
G01 X36.5985 Y15.0417
G01 X36.5963 Y15.0674
G01 X36.5915 Y15.1002
G01 X36.5886 Y15.1171
G01 X36.5789 Y15.1577
G01 X36.5743 Y15.1742
G01 X36.5689 Y15.1905
G01 X36.5576 Y15.2217
G01 X36.5511 Y15.2376
G01 X36.5370 Y15.2676
G01 X36.5293 Y15.2829
G01 X36.5208 Y15.2978
G01 X36.5037 Y15.3262
G01 X36.4941 Y15.3405
G01 X36.4745 Y15.3672
G01 X36.4639 Y15.3807
G01 X36.4362 Y15.4119
G01 X36.4244 Y15.4244
G01 X33.4182 Y18.4304
G01 X33.3937 Y18.4527
G01 X33.3807 Y18.4639
G01 X33.3672 Y18.4745
G01 X33.3405 Y18.4941
G01 X33.3262 Y18.5037
G01 X33.2978 Y18.5208
G01 X33.2829 Y18.5293
G01 X33.2676 Y18.5370
G01 X33.2376 Y18.5511
G01 X33.2217 Y18.5576
G01 X33.1905 Y18.5689
G01 X33.1742 Y18.5743
G01 X33.1338 Y18.5848
G01 X33.1171 Y18.5886
G01 X33.1002 Y18.5915
G01 X33.0674 Y18.5963
G01 X33.0417 Y18.5985
G01 X33.0000 Y18.6001
G01 X6.0000 Y18.6001
G01 X5.9583 Y18.5985
G01 X5.9326 Y18.5963
G01 X5.8998 Y18.5915
G01 X5.8829 Y18.5886
G01 X5.8662 Y18.5848
G01 X5.8258 Y18.5743
G01 X5.8095 Y18.5689
G01 X5.7783 Y18.5576
G01 X5.7624 Y18.5511
G01 X5.7324 Y18.5370
G01 X5.7171 Y18.5293
G01 X5.7022 Y18.5208
G01 X5.6738 Y18.5037
G01 X5.6595 Y18.4941
G01 X5.6328 Y18.4745
G01 X5.6193 Y18.4639
G01 X5.5881 Y18.4362
G01 X5.5756 Y18.4244
G01 X3.0696 Y15.9182
G01 X3.0473 Y15.8937
G01 X3.0361 Y15.8807
G01 X3.0255 Y15.8672
G01 X3.0059 Y15.8405
G01 X2.9918 Y15.8189
G01 X2.9749 Y15.7904
G01 X2.9668 Y15.7753
G01 X2.9525 Y15.7454
G01 X2.9456 Y15.7297
G01 X2.9394 Y15.7136
G01 X2.9283 Y15.6824
G01 X2.9233 Y15.6660
G01 X2.9152 Y15.6338
G01 X2.9098 Y15.6086
G01 X2.9049 Y15.5759
G01 X2.9028 Y15.5588
G01 X2.9003 Y15.5172
G01 X2.8999 Y15.5000
G01 X2.8999 Y13.0000
G01 X2.9003 Y12.9828
G01 X2.9028 Y12.9412
G01 X2.9085 Y12.8998
G01 X2.9114 Y12.8829
G01 X2.9211 Y12.8423
G01 X2.9257 Y12.8258
G01 X2.9311 Y12.8095
G01 X2.9424 Y12.7783
G01 X2.9525 Y12.7546
G01 X2.9707 Y12.7171
G01 X2.9792 Y12.7022
G01 X3.0010 Y12.6666
G01 X3.0255 Y12.6328
G01 X3.0361 Y12.6193
G01 X3.0638 Y12.5881
G01 X3.0756 Y12.5756
G01 X4.5018 Y11.1496
G01 X4.5263 Y11.1273
G01 X4.5393 Y11.1161
G01 X4.5528 Y11.1055
G01 X4.5795 Y11.0859
G01 X4.5938 Y11.0763
G01 X4.6222 Y11.0592
G01 X4.6371 Y11.0507
G01 X4.6527 Y11.0429
G00 Z2.0000
G00 X4.6869 Y9.6401
G01 F60.00
G01 Z-0.2000
G01 F120.00
G01 X4.5400 Y9.6401
G01 X4.5228 Y9.6397
G01 X4.4897 Y9.6380
G01 X4.4726 Y9.6363
G01 X4.4314 Y9.6302
G01 X4.4145 Y9.6268
G01 X4.3823 Y9.6189
G01 X4.3576 Y9.6117
G01 X4.3183 Y9.5976
G01 X4.3024 Y9.5911
G01 X4.2647 Y9.5732
G01 X4.2422 Y9.5608
G01 X4.2066 Y9.5390
G01 X4.1925 Y9.5291
G01 X4.1593 Y9.5039
G01 X4.1281 Y9.4762
G01 X4.1156 Y9.4644
G01 X3.0696 Y8.4182
G01 X3.0416 Y8.3873
G01 X3.0307 Y8.3740
G01 X3.0059 Y8.3405
G01 X2.9963 Y8.3262
G01 X2.9749 Y8.2904
G01 X2.9668 Y8.2753
G01 X2.9489 Y8.2376
G01 X2.9424 Y8.2217
G01 X2.9311 Y8.1905
G01 X2.9257 Y8.1742
G01 X2.9152 Y8.1338
G01 X2.9114 Y8.1171
G01 X2.9085 Y8.1002
G01 X2.9028 Y8.0588
G01 X2.9003 Y8.0172
G01 X2.8999 Y8.0000
G01 X2.8999 Y5.0000
G01 X2.9015 Y4.9583
G01 X2.9037 Y4.9326
G01 X2.9085 Y4.8998
G01 X2.9114 Y4.8829
G01 X2.9152 Y4.8662
G01 X2.9233 Y4.8340
G01 X2.9283 Y4.8176
G01 X2.9394 Y4.7864
G01 X2.9456 Y4.7703
G01 X2.9525 Y4.7546
G01 X2.9668 Y4.7247
G01 X2.9749 Y4.7096
G01 X2.9918 Y4.6811
G01 X3.0010 Y4.6666
G01 X3.0109 Y4.6525
G01 X3.0307 Y4.6260
G01 X3.0416 Y4.6127
G01 X3.0638 Y4.5881
G01 X3.0756 Y4.5756
G01 X5.0818 Y2.5696
G01 X5.1063 Y2.5473
G01 X5.1193 Y2.5361
G01 X5.1525 Y2.5109
G01 X5.1666 Y2.5010
G01 X5.1811 Y2.4918
G01 X5.2171 Y2.4707
G01 X5.2324 Y2.4630
G01 X5.2703 Y2.4456
G01 X5.3095 Y2.4311
G01 X5.3258 Y2.4257
G01 X5.3662 Y2.4152
G01 X5.3829 Y2.4114
G01 X5.3998 Y2.4085
G01 X5.4412 Y2.4028
G01 X5.4828 Y2.4003
G01 X5.5000 Y2.3999
G01 X12.5000 Y2.3999
G01 X12.5172 Y2.4003
G01 X12.5588 Y2.4028
G01 X12.6002 Y2.4085
G01 X12.6255 Y2.4132
G01 X12.6660 Y2.4233
G01 X12.6905 Y2.4311
G01 X12.7297 Y2.4456
G01 X12.7676 Y2.4630
G01 X12.7829 Y2.4707
G01 X12.7978 Y2.4792
G01 X12.8262 Y2.4963
G01 X12.8405 Y2.5059
G01 X12.8672 Y2.5255
G01 X12.8807 Y2.5361
G01 X12.9119 Y2.5638
G01 X12.9244 Y2.5756
G01 X17.2486 Y6.8999
G01 X18.5000 Y6.8999
G01 X18.5417 Y6.9015
G01 X18.5588 Y6.9028
G01 X18.6002 Y6.9085
G01 X18.6171 Y6.9114
G01 X18.6338 Y6.9152
G01 X18.6660 Y6.9233
G01 X18.6824 Y6.9283
G01 X18.7136 Y6.9394
G01 X18.7297 Y6.9456
G01 X18.7454 Y6.9525
G01 X18.7753 Y6.9668
G01 X18.7904 Y6.9749
G01 X18.8189 Y6.9918
G01 X18.8334 Y7.0010
G01 X18.8475 Y7.0109
G01 X18.8807 Y7.0361
G01 X18.8937 Y7.0473
G01 X18.9182 Y7.0696
G01 X19.4304 Y7.5818
G01 X19.4527 Y7.6063
G01 X19.4639 Y7.6193
G01 X19.4891 Y7.6525
G01 X19.5037 Y7.6738
G01 X19.5208 Y7.7022
G01 X19.5293 Y7.7171
G01 X19.5475 Y7.7546
G01 X19.5544 Y7.7703
G01 X19.5606 Y7.7864
G01 X19.5743 Y7.8258
G01 X19.5848 Y7.8662
G01 X19.5886 Y7.8829
G01 X19.5915 Y7.8998
G01 X19.5972 Y7.9412
G01 X19.5997 Y7.9828
G01 X19.6001 Y8.0000
G01 X19.6001 Y8.4619
G01 X19.6522 Y8.4930
G01 X19.6667 Y8.5022
G01 X19.6807 Y8.5121
G01 X19.7546 Y8.5670
G01 X19.7743 Y8.5836
G01 X19.8361 Y8.6396
G01 X19.8485 Y8.6515
G01 X19.8604 Y8.6639
G01 X19.9164 Y8.7257
G01 X19.9276 Y8.7387
G01 X19.9382 Y8.7523
G01 X19.9879 Y8.8193
G01 X19.9978 Y8.8333
G01 X20.0070 Y8.8478
G01 X20.0542 Y8.9268
G01 X20.0660 Y8.9497
G01 X20.1017 Y9.0251
G01 X20.1087 Y9.0408
G01 X20.1148 Y9.0568
G01 X20.1429 Y9.1353
G01 X20.1483 Y9.1517
G01 X20.1529 Y9.1682
G01 X20.1732 Y9.2491
G01 X20.1769 Y9.2659
G01 X20.1799 Y9.2828
G01 X20.1921 Y9.3653
G01 X20.1942 Y9.3824
G01 X20.1955 Y9.3995
G01 X20.1996 Y9.4828
G01 X20.2000 Y9.5000
G01 X20.1996 Y9.5172
G01 X20.1955 Y9.6005
G01 X20.1942 Y9.6176
G01 X20.1921 Y9.6347
G01 X20.1799 Y9.7172
G01 X20.1769 Y9.7341
G01 X20.1732 Y9.7509
G01 X20.1529 Y9.8318
G01 X20.1483 Y9.8483
G01 X20.1429 Y9.8647
G01 X20.1148 Y9.9432
G01 X20.1087 Y9.9592
G01 X20.1017 Y9.9749
G01 X20.0660 Y10.0503
G01 X20.0583 Y10.0657
G01 X20.0498 Y10.0806
G01 X20.0070 Y10.1522
G01 X19.9978 Y10.1667
G01 X19.9879 Y10.1807
G01 X19.9382 Y10.2477
G01 X19.9276 Y10.2613
G01 X19.9164 Y10.2743
G01 X19.8604 Y10.3361
G01 X19.8485 Y10.3485
G01 X19.8361 Y10.3604
G01 X19.7743 Y10.4164
G01 X19.7613 Y10.4276
G01 X19.7477 Y10.4382
G01 X19.6738 Y10.4929
G01 X19.6522 Y10.5070
G01 X19.5806 Y10.5498
G01 X19.5657 Y10.5583
G01 X19.5503 Y10.5660
G01 X19.4749 Y10.6017
G01 X19.4592 Y10.6087
G01 X19.4432 Y10.6148
G01 X19.3647 Y10.6429
G01 X19.3483 Y10.6483
G01 X19.3318 Y10.6529
G01 X19.2509 Y10.6732
G01 X19.2341 Y10.6769
G01 X19.2172 Y10.6799
G01 X19.1347 Y10.6921
G01 X19.1176 Y10.6942
G01 X19.1005 Y10.6955
G01 X19.0172 Y10.6996
G01 X19.0000 Y10.7000
G01 X18.9828 Y10.6996
G01 X18.8995 Y10.6955
G01 X18.8824 Y10.6942
G01 X18.8653 Y10.6921
G01 X18.7828 Y10.6799
G01 X18.7659 Y10.6769
G01 X18.7491 Y10.6732
G01 X18.6682 Y10.6529
G01 X18.6517 Y10.6483
G01 X18.6353 Y10.6429
G01 X18.5568 Y10.6148
G01 X18.5408 Y10.6087
G01 X18.5251 Y10.6017
G01 X18.4497 Y10.5660
G01 X18.4343 Y10.5583
G01 X18.4194 Y10.5498
G01 X18.3478 Y10.5070
G01 X18.3333 Y10.4978
G01 X18.3193 Y10.4879
G01 X18.2523 Y10.4382
G01 X18.2387 Y10.4276
G01 X18.2257 Y10.4164
G01 X18.1639 Y10.3604
G01 X18.1515 Y10.3485
G01 X18.1396 Y10.3361
G01 X18.0836 Y10.2743
G01 X18.0724 Y10.2613
G01 X18.0618 Y10.2477
G01 X18.0121 Y10.1807
G01 X18.0022 Y10.1667
G01 X17.9930 Y10.1522
G01 X17.9502 Y10.0806
G01 X17.9417 Y10.0657
G01 X17.9340 Y10.0503
G01 X17.8983 Y9.9749
G01 X17.8913 Y9.9592
G01 X17.8852 Y9.9432
G01 X17.8571 Y9.8647
G01 X17.8517 Y9.8483
G01 X17.8471 Y9.8318
G01 X17.8268 Y9.7509
G01 X17.8231 Y9.7341
G01 X17.8201 Y9.7172
G01 X17.8079 Y9.6347
G01 X17.8058 Y9.6176
G01 X17.8045 Y9.6005
G01 X17.8004 Y9.5172
G01 X17.8001 Y9.4914
G01 X17.8050 Y9.3909
G01 X17.8079 Y9.3653
G01 X17.8201 Y9.2828
G01 X17.8231 Y9.2659
G01 X17.8268 Y9.2491
G01 X17.8471 Y9.1682
G01 X17.8517 Y9.1517
G01 X17.8571 Y9.1353
G01 X17.8852 Y9.0568
G01 X17.8913 Y9.0408
G01 X17.8983 Y9.0251
G01 X17.9340 Y8.9497
G01 X17.9458 Y8.9268
G01 X17.9976 Y8.8405
G01 X18.0121 Y8.8193
G01 X18.0618 Y8.7523
G01 X18.0724 Y8.7387
G01 X18.0836 Y8.7257
G01 X18.1396 Y8.6639
G01 X18.1576 Y8.6455
G01 X18.2322 Y8.5779
G01 X18.2523 Y8.5618
G01 X18.3193 Y8.5121
G01 X18.3333 Y8.5022
G01 X18.3478 Y8.4930
G01 X18.3999 Y8.4619
G01 X18.3999 Y8.2486
G01 X18.2514 Y8.1001
G01 X17.0000 Y8.1001
G01 X16.9828 Y8.0997
G01 X16.9497 Y8.0980
G01 X16.9326 Y8.0963
G01 X16.8998 Y8.0915
G01 X16.8745 Y8.0868
G01 X16.8423 Y8.0789
G01 X16.8258 Y8.0743
G01 X16.8095 Y8.0689
G01 X16.7783 Y8.0576
G01 X16.7624 Y8.0511
G01 X16.7324 Y8.0370
G01 X16.7096 Y8.0251
G01 X16.6811 Y8.0082
G01 X16.6666 Y7.9990
G01 X16.6328 Y7.9745
G01 X16.6127 Y7.9584
G01 X16.5881 Y7.9362
G01 X16.5756 Y7.9244
G01 X12.2514 Y3.6001
G01 X5.7486 Y3.6001
G01 X4.1001 Y5.2486
G01 X4.1001 Y7.7514
G01 X4.7252 Y8.3765
G01 X4.7371 Y8.3593
G01 X4.7868 Y8.2923
G01 X4.7974 Y8.2787
G01 X4.8086 Y8.2657
G01 X4.8646 Y8.2039
G01 X4.8765 Y8.1915
G01 X4.8889 Y8.1796
G01 X4.9507 Y8.1236
G01 X4.9637 Y8.1124
G01 X4.9773 Y8.1018
G01 X5.0443 Y8.0521
G01 X5.0583 Y8.0422
G01 X5.0728 Y8.0330
G01 X5.1518 Y7.9858
G01 X5.1747 Y7.9740
G01 X5.2501 Y7.9383
G01 X5.2738 Y7.9282
G01 X5.3685 Y7.8943
G01 X5.3932 Y7.8871
G01 X5.4741 Y7.8668
G01 X5.4909 Y7.8631
G01 X5.5078 Y7.8601
G01 X5.5903 Y7.8479
G01 X5.6074 Y7.8458
G01 X5.6245 Y7.8445
G01 X5.7078 Y7.8404
G01 X5.7250 Y7.8400
G01 X5.7422 Y7.8404
G01 X5.8255 Y7.8445
G01 X5.8426 Y7.8458
G01 X5.8597 Y7.8479
G01 X5.9422 Y7.8601
G01 X5.9591 Y7.8631
G01 X5.9759 Y7.8668
G01 X6.0568 Y7.8871
G01 X6.0733 Y7.8917
G01 X6.0897 Y7.8971
G01 X6.1682 Y7.9252
G01 X6.1842 Y7.9313
G01 X6.1999 Y7.9383
G01 X6.2753 Y7.9740
G01 X6.2907 Y7.9817
G01 X6.3056 Y7.9902
G01 X6.3772 Y8.0330
G01 X6.3917 Y8.0422
G01 X6.4057 Y8.0521
G01 X6.4727 Y8.1018
G01 X6.4863 Y8.1124
G01 X6.4993 Y8.1236
G01 X6.5611 Y8.1796
G01 X6.5735 Y8.1915
G01 X6.5854 Y8.2039
G01 X6.6414 Y8.2657
G01 X6.6526 Y8.2787
G01 X6.6632 Y8.2923
G01 X6.7129 Y8.3593
G01 X6.7228 Y8.3733
G01 X6.7320 Y8.3878
G01 X6.7792 Y8.4668
G01 X6.7910 Y8.4897
G01 X6.8267 Y8.5651
G01 X6.8337 Y8.5808
G01 X6.8398 Y8.5968
G01 X6.8679 Y8.6753
G01 X6.8733 Y8.6917
G01 X6.8779 Y8.7082
G01 X6.8982 Y8.7891
G01 X6.9019 Y8.8059
G01 X6.9049 Y8.8228
G01 X6.9171 Y8.9053
G01 X6.9192 Y8.9224
G01 X6.9205 Y8.9395
G01 X6.9249 Y9.0314
G01 X6.9246 Y9.0572
G01 X6.9205 Y9.1405
G01 X6.9192 Y9.1576
G01 X6.9171 Y9.1747
G01 X6.9035 Y9.2657
G01 X6.8982 Y9.2909
G01 X6.8779 Y9.3718
G01 X6.8733 Y9.3883
G01 X6.8679 Y9.4047
G01 X6.8398 Y9.4832
G01 X6.8337 Y9.4992
G01 X6.8267 Y9.5149
G01 X6.7910 Y9.5903
G01 X6.7833 Y9.6057
G01 X6.7748 Y9.6206
G01 X6.7320 Y9.6922
G01 X6.7228 Y9.7067
G01 X6.7129 Y9.7207
G01 X6.6632 Y9.7877
G01 X6.6526 Y9.8013
G01 X6.6414 Y9.8143
G01 X6.5854 Y9.8761
G01 X6.5735 Y9.8885
G01 X6.5611 Y9.9004
G01 X6.4993 Y9.9564
G01 X6.4863 Y9.9676
G01 X6.4727 Y9.9782
G01 X6.4057 Y10.0279
G01 X6.3917 Y10.0378
G01 X6.3772 Y10.0470
G01 X6.3056 Y10.0898
G01 X6.2907 Y10.0983
G01 X6.2753 Y10.1060
G01 X6.1999 Y10.1417
G01 X6.1842 Y10.1487
G01 X6.1682 Y10.1548
G01 X6.0897 Y10.1829
G01 X6.0733 Y10.1883
G01 X6.0568 Y10.1929
G01 X5.9759 Y10.2132
G01 X5.9507 Y10.2185
G01 X5.8597 Y10.2321
G01 X5.8426 Y10.2342
G01 X5.8255 Y10.2355
G01 X5.7422 Y10.2396
G01 X5.7250 Y10.2400
G01 X5.7078 Y10.2396
G01 X5.6245 Y10.2355
G01 X5.6074 Y10.2342
G01 X5.5903 Y10.2321
G01 X5.5078 Y10.2199
G01 X5.4909 Y10.2169
G01 X5.4741 Y10.2132
G01 X5.3932 Y10.1929
G01 X5.3767 Y10.1883
G01 X5.3603 Y10.1829
G01 X5.2818 Y10.1548
G01 X5.2579 Y10.1453
G01 X5.1747 Y10.1060
G01 X5.1593 Y10.0983
G01 X5.1444 Y10.0898
G01 X5.0728 Y10.0470
G01 X5.0583 Y10.0378
G01 X5.0443 Y10.0279
G01 X4.9704 Y9.9730
G01 X4.9507 Y9.9564
G01 X4.8889 Y9.9004
G01 X4.8765 Y9.8885
G01 X4.8646 Y9.8761
G01 X4.8086 Y9.8143
G01 X4.7974 Y9.8013
G01 X4.7868 Y9.7877
G01 X4.7371 Y9.7207
G01 X4.7272 Y9.7067
G01 X4.7180 Y9.6922
G01 X4.6869 Y9.6401
G00 Z2.0000
G00 X16.9032 Y8.3852
G01 F60.00
G01 Z-0.2000
G01 F120.00
G01 X16.9192 Y8.3913
G01 X16.9349 Y8.3983
G01 X17.0103 Y8.4340
G01 X17.0257 Y8.4417
G01 X17.0406 Y8.4502
G01 X17.1122 Y8.4930
G01 X17.1267 Y8.5022
G01 X17.1407 Y8.5121
G01 X17.2077 Y8.5618
G01 X17.2213 Y8.5724
G01 X17.2343 Y8.5836
G01 X17.2961 Y8.6396
G01 X17.3085 Y8.6515
G01 X17.3204 Y8.6639
G01 X17.3764 Y8.7257
G01 X17.3876 Y8.7387
G01 X17.3982 Y8.7523
G01 X17.4479 Y8.8193
G01 X17.4578 Y8.8333
G01 X17.4670 Y8.8478
G01 X17.5098 Y8.9194
G01 X17.5183 Y8.9343
G01 X17.5260 Y8.9497
G01 X17.5617 Y9.0251
G01 X17.5687 Y9.0408
G01 X17.5748 Y9.0568
G01 X17.6029 Y9.1353
G01 X17.6083 Y9.1517
G01 X17.6129 Y9.1682
G01 X17.6332 Y9.2491
G01 X17.6369 Y9.2659
G01 X17.6399 Y9.2828
G01 X17.6521 Y9.3653
G01 X17.6542 Y9.3824
G01 X17.6555 Y9.3995
G01 X17.6596 Y9.4828
G01 X17.6600 Y9.5000
G01 X17.6596 Y9.5172
G01 X17.6555 Y9.6005
G01 X17.6542 Y9.6176
G01 X17.6521 Y9.6347
G01 X17.6399 Y9.7172
G01 X17.6369 Y9.7341
G01 X17.6332 Y9.7509
G01 X17.6129 Y9.8318
G01 X17.6083 Y9.8483
G01 X17.6029 Y9.8647
G01 X17.5748 Y9.9432
G01 X17.5687 Y9.9592
G01 X17.5617 Y9.9749
G01 X17.5260 Y10.0503
G01 X17.5183 Y10.0657
G01 X17.5098 Y10.0806
G01 X17.4670 Y10.1522
G01 X17.4578 Y10.1667
G01 X17.4479 Y10.1807
G01 X17.3982 Y10.2477
G01 X17.3876 Y10.2613
G01 X17.3764 Y10.2743
G01 X17.3204 Y10.3361
G01 X17.3085 Y10.3485
G01 X17.2961 Y10.3604
G01 X17.2343 Y10.4164
G01 X17.2213 Y10.4276
G01 X17.2077 Y10.4382
G01 X17.1407 Y10.4879
G01 X17.1267 Y10.4978
G01 X17.1122 Y10.5070
G01 X17.0406 Y10.5498
G01 X17.0257 Y10.5583
G01 X17.0103 Y10.5660
G01 X16.9349 Y10.6017
G01 X16.9192 Y10.6087
G01 X16.9032 Y10.6148
G01 X16.8247 Y10.6429
G01 X16.8083 Y10.6483
G01 X16.7918 Y10.6529
G01 X16.7109 Y10.6732
G01 X16.6941 Y10.6769
G01 X16.6772 Y10.6799
G01 X16.5947 Y10.6921
G01 X16.5776 Y10.6942
G01 X16.5605 Y10.6955
G01 X16.4772 Y10.6996
G01 X16.4600 Y10.7000
G01 X16.4428 Y10.6996
G01 X16.3595 Y10.6955
G01 X16.3424 Y10.6942
G01 X16.3253 Y10.6921
G01 X16.2428 Y10.6799
G01 X16.2259 Y10.6769
G01 X16.2091 Y10.6732
G01 X16.1282 Y10.6529
G01 X16.1117 Y10.6483
G01 X16.0953 Y10.6429
G01 X16.0168 Y10.6148
G01 X16.0008 Y10.6087
G01 X15.9851 Y10.6017
G01 X15.9097 Y10.5660
G01 X15.8943 Y10.5583
G01 X15.8794 Y10.5498
G01 X15.8078 Y10.5070
G01 X15.7933 Y10.4978
G01 X15.7793 Y10.4879
G01 X15.7123 Y10.4382
G01 X15.6987 Y10.4276
G01 X15.6857 Y10.4164
G01 X15.6239 Y10.3604
G01 X15.6115 Y10.3485
G01 X15.5996 Y10.3361
G01 X15.5436 Y10.2743
G01 X15.5324 Y10.2613
G01 X15.5218 Y10.2477
G01 X15.4721 Y10.1807
G01 X15.4622 Y10.1667
G01 X15.4530 Y10.1522
G01 X15.4102 Y10.0806
G01 X15.4017 Y10.0657
G01 X15.3940 Y10.0503
G01 X15.3583 Y9.9749
G01 X15.3513 Y9.9592
G01 X15.3452 Y9.9432
G01 X15.3171 Y9.8647
G01 X15.3117 Y9.8483
G01 X15.3071 Y9.8318
G01 X15.2868 Y9.7509
G01 X15.2831 Y9.7341
G01 X15.2801 Y9.7172
G01 X15.2679 Y9.6347
G01 X15.2658 Y9.6176
G01 X15.2645 Y9.6005
G01 X15.2604 Y9.5172
G01 X15.2600 Y9.5000
G01 X15.2604 Y9.4828
G01 X15.2645 Y9.3995
G01 X15.2658 Y9.3824
G01 X15.2679 Y9.3653
G01 X15.2801 Y9.2828
G01 X15.2831 Y9.2659
G01 X15.2868 Y9.2491
G01 X15.3071 Y9.1682
G01 X15.3117 Y9.1517
G01 X15.3171 Y9.1353
G01 X15.3452 Y9.0568
G01 X15.3513 Y9.0408
G01 X15.3583 Y9.0251
G01 X15.3940 Y8.9497
G01 X15.4017 Y8.9343
G01 X15.4102 Y8.9194
G01 X15.4530 Y8.8478
G01 X15.4622 Y8.8333
G01 X15.4721 Y8.8193
G01 X15.5218 Y8.7523
G01 X15.5324 Y8.7387
G01 X15.5436 Y8.7257
G01 X15.5996 Y8.6639
G01 X15.6115 Y8.6515
G01 X15.6239 Y8.6396
G01 X15.6857 Y8.5836
G01 X15.6987 Y8.5724
G01 X15.7123 Y8.5618
G01 X15.7793 Y8.5121
G01 X15.7933 Y8.5022
G01 X15.8078 Y8.4930
G01 X15.8794 Y8.4502
G01 X15.8943 Y8.4417
G01 X15.9097 Y8.4340
G01 X15.9851 Y8.3983
G01 X16.0008 Y8.3913
G01 X16.0168 Y8.3852
G01 X16.0953 Y8.3571
G01 X16.1117 Y8.3517
G01 X16.1282 Y8.3471
G01 X16.2091 Y8.3268
G01 X16.2259 Y8.3231
G01 X16.2428 Y8.3201
G01 X16.3253 Y8.3079
G01 X16.3424 Y8.3058
G01 X16.3595 Y8.3045
G01 X16.4428 Y8.3004
G01 X16.4600 Y8.3000
G01 X16.4772 Y8.3004
G01 X16.5605 Y8.3045
G01 X16.5776 Y8.3058
G01 X16.5947 Y8.3079
G01 X16.6772 Y8.3201
G01 X16.6941 Y8.3231
G01 X16.7109 Y8.3268
G01 X16.7918 Y8.3471
G01 X16.8083 Y8.3517
G01 X16.8247 Y8.3571
G01 X16.9032 Y8.3852
G00 Z2.0000
G00 X24.5232 Y8.3852
G01 F60.00
G01 Z-0.2000
G01 F120.00
G01 X24.5392 Y8.3913
G01 X24.5549 Y8.3983
G01 X24.6303 Y8.4340
G01 X24.6457 Y8.4417
G01 X24.6606 Y8.4502
G01 X24.7322 Y8.4930
G01 X24.7467 Y8.5022
G01 X24.7607 Y8.5121
G01 X24.8277 Y8.5618
G01 X24.8413 Y8.5724
G01 X24.8543 Y8.5836
G01 X24.9161 Y8.6396
G01 X24.9285 Y8.6515
G01 X24.9404 Y8.6639
G01 X24.9964 Y8.7257
G01 X25.0076 Y8.7387
G01 X25.0182 Y8.7523
G01 X25.0679 Y8.8193
G01 X25.0778 Y8.8333
G01 X25.0870 Y8.8478
G01 X25.1298 Y8.9194
G01 X25.1383 Y8.9343
G01 X25.1460 Y8.9497
G01 X25.1817 Y9.0251
G01 X25.1887 Y9.0408
G01 X25.1948 Y9.0568
G01 X25.2229 Y9.1353
G01 X25.2283 Y9.1517
G01 X25.2329 Y9.1682
G01 X25.2532 Y9.2491
G01 X25.2569 Y9.2659
G01 X25.2599 Y9.2828
G01 X25.2721 Y9.3653
G01 X25.2742 Y9.3824
G01 X25.2755 Y9.3995
G01 X25.2796 Y9.4828
G01 X25.2800 Y9.5000
G01 X25.2796 Y9.5172
G01 X25.2755 Y9.6005
G01 X25.2742 Y9.6176
G01 X25.2721 Y9.6347
G01 X25.2599 Y9.7172
G01 X25.2569 Y9.7341
G01 X25.2532 Y9.7509
G01 X25.2329 Y9.8318
G01 X25.2283 Y9.8483
G01 X25.2229 Y9.8647
G01 X25.1948 Y9.9432
G01 X25.1887 Y9.9592
G01 X25.1817 Y9.9749
G01 X25.1460 Y10.0503
G01 X25.1383 Y10.0657
G01 X25.1298 Y10.0806
G01 X25.0870 Y10.1522
G01 X25.0778 Y10.1667
G01 X25.0679 Y10.1807
G01 X25.0182 Y10.2477
G01 X25.0076 Y10.2613
G01 X24.9964 Y10.2743
G01 X24.9404 Y10.3361
G01 X24.9285 Y10.3485
G01 X24.9161 Y10.3604
G01 X24.8543 Y10.4164
G01 X24.8413 Y10.4276
G01 X24.8277 Y10.4382
G01 X24.7607 Y10.4879
G01 X24.7467 Y10.4978
G01 X24.7322 Y10.5070
G01 X24.6606 Y10.5498
G01 X24.6457 Y10.5583
G01 X24.6303 Y10.5660
G01 X24.5549 Y10.6017
G01 X24.5392 Y10.6087
G01 X24.5232 Y10.6148
G01 X24.4447 Y10.6429
G01 X24.4283 Y10.6483
G01 X24.4118 Y10.6529
G01 X24.3309 Y10.6732
G01 X24.3141 Y10.6769
G01 X24.2972 Y10.6799
G01 X24.2147 Y10.6921
G01 X24.1976 Y10.6942
G01 X24.1805 Y10.6955
G01 X24.0972 Y10.6996
G01 X24.0800 Y10.7000
G01 X24.0628 Y10.6996
G01 X23.9795 Y10.6955
G01 X23.9624 Y10.6942
G01 X23.9453 Y10.6921
G01 X23.8628 Y10.6799
G01 X23.8459 Y10.6769
G01 X23.8291 Y10.6732
G01 X23.7482 Y10.6529
G01 X23.7317 Y10.6483
G01 X23.7153 Y10.6429
G01 X23.6368 Y10.6148
G01 X23.6208 Y10.6087
G01 X23.6051 Y10.6017
G01 X23.5297 Y10.5660
G01 X23.5143 Y10.5583
G01 X23.4994 Y10.5498
G01 X23.4278 Y10.5070
G01 X23.4133 Y10.4978
G01 X23.3993 Y10.4879
G01 X23.3323 Y10.4382
G01 X23.3187 Y10.4276
G01 X23.3057 Y10.4164
G01 X23.2439 Y10.3604
G01 X23.2315 Y10.3485
G01 X23.2196 Y10.3361
G01 X23.1636 Y10.2743
G01 X23.1524 Y10.2613
G01 X23.1418 Y10.2477
G01 X23.0921 Y10.1807
G01 X23.0822 Y10.1667
G01 X23.0730 Y10.1522
G01 X23.0302 Y10.0806
G01 X23.0217 Y10.0657
G01 X23.0140 Y10.0503
G01 X22.9783 Y9.9749
G01 X22.9713 Y9.9592
G01 X22.9652 Y9.9432
G01 X22.9371 Y9.8647
G01 X22.9317 Y9.8483
G01 X22.9271 Y9.8318
G01 X22.9068 Y9.7509
G01 X22.9031 Y9.7341
G01 X22.9001 Y9.7172
G01 X22.8879 Y9.6347
G01 X22.8858 Y9.6176
G01 X22.8845 Y9.6005
G01 X22.8804 Y9.5172
G01 X22.8800 Y9.5000
G01 X22.8804 Y9.4828
G01 X22.8845 Y9.3995
G01 X22.8858 Y9.3824
G01 X22.8879 Y9.3653
G01 X22.9001 Y9.2828
G01 X22.9031 Y9.2659
G01 X22.9068 Y9.2491
G01 X22.9271 Y9.1682
G01 X22.9317 Y9.1517
G01 X22.9371 Y9.1353
G01 X22.9652 Y9.0568
G01 X22.9713 Y9.0408
G01 X22.9783 Y9.0251
G01 X23.0140 Y8.9497
G01 X23.0217 Y8.9343
G01 X23.0302 Y8.9194
G01 X23.0730 Y8.8478
G01 X23.0822 Y8.8333
G01 X23.0921 Y8.8193
G01 X23.1418 Y8.7523
G01 X23.1524 Y8.7387
G01 X23.1636 Y8.7257
G01 X23.2196 Y8.6639
G01 X23.2315 Y8.6515
G01 X23.2439 Y8.6396
G01 X23.3057 Y8.5836
G01 X23.3187 Y8.5724
G01 X23.3323 Y8.5618
G01 X23.3993 Y8.5121
G01 X23.4133 Y8.5022
G01 X23.4278 Y8.4930
G01 X23.4994 Y8.4502
G01 X23.5143 Y8.4417
G01 X23.5297 Y8.4340
G01 X23.6051 Y8.3983
G01 X23.6208 Y8.3913
G01 X23.6368 Y8.3852
G01 X23.7153 Y8.3571
G01 X23.7317 Y8.3517
G01 X23.7482 Y8.3471
G01 X23.8291 Y8.3268
G01 X23.8459 Y8.3231
G01 X23.8628 Y8.3201
G01 X23.9453 Y8.3079
G01 X23.9624 Y8.3058
G01 X23.9795 Y8.3045
G01 X24.0628 Y8.3004
G01 X24.0800 Y8.3000
G01 X24.0972 Y8.3004
G01 X24.1805 Y8.3045
G01 X24.1976 Y8.3058
G01 X24.2147 Y8.3079
G01 X24.2972 Y8.3201
G01 X24.3141 Y8.3231
G01 X24.3309 Y8.3268
G01 X24.4118 Y8.3471
G01 X24.4283 Y8.3517
G01 X24.4447 Y8.3571
G01 X24.5232 Y8.3852
G00 Z2.0000
G00 X29.6032 Y8.3852
G01 F60.00
G01 Z-0.2000
G01 F120.00
G01 X29.6192 Y8.3913
G01 X29.6349 Y8.3983
G01 X29.7103 Y8.4340
G01 X29.7257 Y8.4417
G01 X29.7406 Y8.4502
G01 X29.8122 Y8.4930
G01 X29.8267 Y8.5022
G01 X29.8407 Y8.5121
G01 X29.9077 Y8.5618
G01 X29.9213 Y8.5724
G01 X29.9343 Y8.5836
G01 X29.9961 Y8.6396
G01 X30.0085 Y8.6515
G01 X30.0204 Y8.6639
G01 X30.0764 Y8.7257
G01 X30.0876 Y8.7387
G01 X30.0982 Y8.7523
G01 X30.1479 Y8.8193
G01 X30.1578 Y8.8333
G01 X30.1670 Y8.8478
G01 X30.2098 Y8.9194
G01 X30.2183 Y8.9343
G01 X30.2260 Y8.9497
G01 X30.2617 Y9.0251
G01 X30.2687 Y9.0408
G01 X30.2748 Y9.0568
G01 X30.3029 Y9.1353
G01 X30.3083 Y9.1517
G01 X30.3129 Y9.1682
G01 X30.3332 Y9.2491
G01 X30.3369 Y9.2659
G01 X30.3399 Y9.2828
G01 X30.3521 Y9.3653
G01 X30.3542 Y9.3824
G01 X30.3555 Y9.3995
G01 X30.3596 Y9.4828
G01 X30.3600 Y9.5000
G01 X30.3596 Y9.5172
G01 X30.3555 Y9.6005
G01 X30.3542 Y9.6176
G01 X30.3521 Y9.6347
G01 X30.3399 Y9.7172
G01 X30.3369 Y9.7341
G01 X30.3332 Y9.7509
G01 X30.3129 Y9.8318
G01 X30.3083 Y9.8483
G01 X30.3029 Y9.8647
G01 X30.2748 Y9.9432
G01 X30.2687 Y9.9592
G01 X30.2617 Y9.9749
G01 X30.2260 Y10.0503
G01 X30.2183 Y10.0657
G01 X30.2098 Y10.0806
G01 X30.1670 Y10.1522
G01 X30.1578 Y10.1667
G01 X30.1479 Y10.1807
G01 X30.0982 Y10.2477
G01 X30.0876 Y10.2613
G01 X30.0764 Y10.2743
G01 X30.0204 Y10.3361
G01 X30.0085 Y10.3485
G01 X29.9961 Y10.3604
G01 X29.9343 Y10.4164
G01 X29.9213 Y10.4276
G01 X29.9077 Y10.4382
G01 X29.8407 Y10.4879
G01 X29.8267 Y10.4978
G01 X29.8122 Y10.5070
G01 X29.7406 Y10.5498
G01 X29.7257 Y10.5583
G01 X29.7103 Y10.5660
G01 X29.6349 Y10.6017
G01 X29.6192 Y10.6087
G01 X29.6032 Y10.6148
G01 X29.5247 Y10.6429
G01 X29.5083 Y10.6483
G01 X29.4918 Y10.6529
G01 X29.4109 Y10.6732
G01 X29.3941 Y10.6769
G01 X29.3772 Y10.6799
G01 X29.2947 Y10.6921
G01 X29.2776 Y10.6942
G01 X29.2605 Y10.6955
G01 X29.1772 Y10.6996
G01 X29.1600 Y10.7000
G01 X29.1428 Y10.6996
G01 X29.0595 Y10.6955
G01 X29.0424 Y10.6942
G01 X29.0253 Y10.6921
G01 X28.9428 Y10.6799
G01 X28.9259 Y10.6769
G01 X28.9091 Y10.6732
G01 X28.8282 Y10.6529
G01 X28.8117 Y10.6483
G01 X28.7953 Y10.6429
G01 X28.7168 Y10.6148
G01 X28.7008 Y10.6087
G01 X28.6851 Y10.6017
G01 X28.6097 Y10.5660
G01 X28.5943 Y10.5583
G01 X28.5794 Y10.5498
G01 X28.5078 Y10.5070
G01 X28.4933 Y10.4978
G01 X28.4793 Y10.4879
G01 X28.4123 Y10.4382
G01 X28.3987 Y10.4276
G01 X28.3857 Y10.4164
G01 X28.3239 Y10.3604
G01 X28.3115 Y10.3485
G01 X28.2996 Y10.3361
G01 X28.2436 Y10.2743
G01 X28.2324 Y10.2613
G01 X28.2218 Y10.2477
G01 X28.1721 Y10.1807
G01 X28.1622 Y10.1667
G01 X28.1530 Y10.1522
G01 X28.1102 Y10.0806
G01 X28.1017 Y10.0657
G01 X28.0940 Y10.0503
G01 X28.0583 Y9.9749
G01 X28.0513 Y9.9592
G01 X28.0452 Y9.9432
G01 X28.0171 Y9.8647
G01 X28.0117 Y9.8483
G01 X28.0071 Y9.8318
G01 X27.9868 Y9.7509
G01 X27.9831 Y9.7341
G01 X27.9801 Y9.7172
G01 X27.9679 Y9.6347
G01 X27.9658 Y9.6176
G01 X27.9645 Y9.6005
G01 X27.9604 Y9.5172
G01 X27.9600 Y9.5000
G01 X27.9604 Y9.4828
G01 X27.9645 Y9.3995
G01 X27.9658 Y9.3824
G01 X27.9679 Y9.3653
G01 X27.9801 Y9.2828
G01 X27.9831 Y9.2659
G01 X27.9868 Y9.2491
G01 X28.0071 Y9.1682
G01 X28.0117 Y9.1517
G01 X28.0171 Y9.1353
G01 X28.0452 Y9.0568
G01 X28.0513 Y9.0408
G01 X28.0583 Y9.0251
G01 X28.0940 Y8.9497
G01 X28.1017 Y8.9343
G01 X28.1102 Y8.9194
G01 X28.1530 Y8.8478
G01 X28.1622 Y8.8333
G01 X28.1721 Y8.8193
G01 X28.2218 Y8.7523
G01 X28.2324 Y8.7387
G01 X28.2436 Y8.7257
G01 X28.2996 Y8.6639
G01 X28.3115 Y8.6515
G01 X28.3239 Y8.6396
G01 X28.3857 Y8.5836
G01 X28.3987 Y8.5724
G01 X28.4123 Y8.5618
G01 X28.4793 Y8.5121
G01 X28.4933 Y8.5022
G01 X28.5078 Y8.4930
G01 X28.5794 Y8.4502
G01 X28.5943 Y8.4417
G01 X28.6097 Y8.4340
G01 X28.6851 Y8.3983
G01 X28.7008 Y8.3913
G01 X28.7168 Y8.3852
G01 X28.7953 Y8.3571
G01 X28.8117 Y8.3517
G01 X28.8282 Y8.3471
G01 X28.9091 Y8.3268
G01 X28.9259 Y8.3231
G01 X28.9428 Y8.3201
G01 X29.0253 Y8.3079
G01 X29.0424 Y8.3058
G01 X29.0595 Y8.3045
G01 X29.1428 Y8.3004
G01 X29.1600 Y8.3000
G01 X29.1772 Y8.3004
G01 X29.2605 Y8.3045
G01 X29.2776 Y8.3058
G01 X29.2947 Y8.3079
G01 X29.3772 Y8.3201
G01 X29.3941 Y8.3231
G01 X29.4109 Y8.3268
G01 X29.4918 Y8.3471
G01 X29.5083 Y8.3517
G01 X29.5247 Y8.3571
G01 X29.6032 Y8.3852
G00 Z2.0000
G00 X32.5500 Y8.3000
G01 F60.00
G01 Z-0.2000
G01 F120.00
G01 X32.5672 Y8.3004
G01 X32.5843 Y8.3017
G01 X32.6014 Y8.3038
G01 X32.6183 Y8.3067
G01 X32.6350 Y8.3105
G01 X32.6516 Y8.3151
G01 X32.6760 Y8.3235
G01 X32.6918 Y8.3300
G01 X32.7074 Y8.3374
G01 X32.7299 Y8.3498
G01 X32.7444 Y8.3590
G01 X32.7585 Y8.3689
G01 X32.7786 Y8.3850
G01 X32.7975 Y8.4025
G01 X32.8093 Y8.4150
G01 X32.8206 Y8.4280
G01 X32.8311 Y8.4415
G01 X32.8410 Y8.4556
G01 X32.8502 Y8.4701
G01 X32.8587 Y8.4850
G01 X32.8700 Y8.5082
G01 X32.8765 Y8.5240
G01 X32.8823 Y8.5402
G01 X32.8873 Y8.5567
G01 X32.8915 Y8.5733
G01 X32.8948 Y8.5902
G01 X32.8974 Y8.6072
G01 X32.8991 Y8.6243
G01 X32.9000 Y8.6500
G01 X32.9000 Y10.3500
G01 X32.8996 Y10.3672
G01 X32.8983 Y10.3843
G01 X32.8962 Y10.4014
G01 X32.8915 Y10.4267
G01 X32.8849 Y10.4516
G01 X32.8765 Y10.4760
G01 X32.8664 Y10.4996
G01 X32.8545 Y10.5225
G01 X32.8457 Y10.5372
G01 X32.8362 Y10.5515
G01 X32.8206 Y10.5720
G01 X32.8093 Y10.5850
G01 X32.7975 Y10.5975
G01 X32.7850 Y10.6093
G01 X32.7720 Y10.6206
G01 X32.7515 Y10.6362
G01 X32.7372 Y10.6457
G01 X32.7225 Y10.6545
G01 X32.7074 Y10.6626
G01 X32.6839 Y10.6734
G01 X32.6679 Y10.6795
G01 X32.6516 Y10.6849
G01 X32.6350 Y10.6895
G01 X32.6098 Y10.6948
G01 X32.5928 Y10.6974
G01 X32.5757 Y10.6991
G01 X32.5586 Y10.6999
G01 X30.8500 Y10.7000
G01 X30.8328 Y10.6996
G01 X30.8157 Y10.6983
G01 X30.7986 Y10.6962
G01 X30.7733 Y10.6915
G01 X30.7484 Y10.6849
G01 X30.7240 Y10.6765
G01 X30.7004 Y10.6664
G01 X30.6775 Y10.6545
G01 X30.6556 Y10.6410
G01 X30.6415 Y10.6311
G01 X30.6280 Y10.6206
G01 X30.6150 Y10.6093
G01 X30.6025 Y10.5975
G01 X30.5907 Y10.5850
G01 X30.5741 Y10.5653
G01 X30.5638 Y10.5515
G01 X30.5543 Y10.5372
G01 X30.5455 Y10.5225
G01 X30.5374 Y10.5074
G01 X30.5266 Y10.4839
G01 X30.5205 Y10.4679
G01 X30.5151 Y10.4516
G01 X30.5105 Y10.4350
G01 X30.5052 Y10.4098
G01 X30.5026 Y10.3928
G01 X30.5009 Y10.3757
G01 X30.5001 Y10.3586
G01 X30.5000 Y8.6500
G01 X30.5004 Y8.6328
G01 X30.5026 Y8.6072
G01 X30.5052 Y8.5902
G01 X30.5085 Y8.5733
G01 X30.5151 Y8.5484
G01 X30.5235 Y8.5240
G01 X30.5336 Y8.5004
G01 X30.5455 Y8.4775
G01 X30.5543 Y8.4628
G01 X30.5638 Y8.4485
G01 X30.5794 Y8.4280
G01 X30.5907 Y8.4150
G01 X30.6025 Y8.4025
G01 X30.6150 Y8.3907
G01 X30.6280 Y8.3794
G01 X30.6415 Y8.3689
G01 X30.6556 Y8.3590
G01 X30.6701 Y8.3498
G01 X30.6926 Y8.3374
G01 X30.7082 Y8.3300
G01 X30.7240 Y8.3235
G01 X30.7402 Y8.3177
G01 X30.7567 Y8.3127
G01 X30.7733 Y8.3085
G01 X30.7902 Y8.3052
G01 X30.8072 Y8.3026
G01 X30.8243 Y8.3009
G01 X30.8500 Y8.3000
G01 X32.5500 Y8.3000
G00 Z2.0000
G00 X30.3750 Y13.3000
G01 F60.00
G01 Z-0.2000
G01 F120.00
G01 X30.3922 Y13.3004
G01 X30.4093 Y13.3017
G01 X30.4264 Y13.3038
G01 X30.4433 Y13.3067
G01 X30.4600 Y13.3105
G01 X30.4766 Y13.3151
G01 X30.5010 Y13.3235
G01 X30.5168 Y13.3300
G01 X30.5324 Y13.3374
G01 X30.5475 Y13.3455
G01 X30.5622 Y13.3543
G01 X30.5835 Y13.3689
G01 X30.5970 Y13.3794
G01 X30.6100 Y13.3907
G01 X30.6285 Y13.4087
G01 X30.6400 Y13.4214
G01 X30.6509 Y13.4347
G01 X30.6612 Y13.4485
G01 X30.6707 Y13.4628
G01 X30.6837 Y13.4850
G01 X30.6914 Y13.5004
G01 X30.6984 Y13.5161
G01 X30.7045 Y13.5321
G01 X30.7099 Y13.5484
G01 X30.7145 Y13.5650
G01 X30.7183 Y13.5817
G01 X30.7224 Y13.6072
G01 X30.7241 Y13.6243
G01 X30.7250 Y13.6500
G01 X30.7250 Y15.3500
G01 X30.7246 Y15.3672
G01 X30.7224 Y15.3928
G01 X30.7198 Y15.4098
G01 X30.7165 Y15.4267
G01 X30.7099 Y15.4516
G01 X30.7015 Y15.4760
G01 X30.6914 Y15.4996
G01 X30.6795 Y15.5225
G01 X30.6707 Y15.5372
G01 X30.6612 Y15.5515
G01 X30.6456 Y15.5720
G01 X30.6285 Y15.5913
G01 X30.6163 Y15.6035
G01 X30.6036 Y15.6150
G01 X30.5903 Y15.6259
G01 X30.5765 Y15.6362
G01 X30.5622 Y15.6457
G01 X30.5475 Y15.6545
G01 X30.5324 Y15.6626
G01 X30.5089 Y15.6734
G01 X30.4929 Y15.6795
G01 X30.4766 Y15.6849
G01 X30.4600 Y15.6895
G01 X30.4433 Y15.6933
G01 X30.4264 Y15.6962
G01 X30.4093 Y15.6983
G01 X30.3836 Y15.6999
G01 X28.6750 Y15.7000
G01 X28.6578 Y15.6996
G01 X28.6407 Y15.6983
G01 X28.6236 Y15.6962
G01 X28.5983 Y15.6915
G01 X28.5734 Y15.6849
G01 X28.5490 Y15.6765
G01 X28.5254 Y15.6664
G01 X28.5025 Y15.6545
G01 X28.4806 Y15.6410
G01 X28.4665 Y15.6311
G01 X28.4530 Y15.6206
G01 X28.4400 Y15.6093
G01 X28.4275 Y15.5975
G01 X28.4157 Y15.5850
G01 X28.3991 Y15.5653
G01 X28.3888 Y15.5515
G01 X28.3793 Y15.5372
G01 X28.3705 Y15.5225
G01 X28.3624 Y15.5074
G01 X28.3516 Y15.4839
G01 X28.3455 Y15.4679
G01 X28.3401 Y15.4516
G01 X28.3355 Y15.4350
G01 X28.3302 Y15.4098
G01 X28.3276 Y15.3928
G01 X28.3259 Y15.3757
G01 X28.3251 Y15.3586
G01 X28.3250 Y13.6500
G01 X28.3254 Y13.6328
G01 X28.3276 Y13.6072
G01 X28.3302 Y13.5902
G01 X28.3335 Y13.5733
G01 X28.3401 Y13.5484
G01 X28.3485 Y13.5240
G01 X28.3586 Y13.5004
G01 X28.3705 Y13.4775
G01 X28.3793 Y13.4628
G01 X28.3888 Y13.4485
G01 X28.4044 Y13.4280
G01 X28.4157 Y13.4150
G01 X28.4275 Y13.4025
G01 X28.4400 Y13.3907
G01 X28.4530 Y13.3794
G01 X28.4665 Y13.3689
G01 X28.4806 Y13.3590
G01 X28.4951 Y13.3498
G01 X28.5176 Y13.3374
G01 X28.5332 Y13.3300
G01 X28.5490 Y13.3235
G01 X28.5652 Y13.3177
G01 X28.5817 Y13.3127
G01 X28.5983 Y13.3085
G01 X28.6152 Y13.3052
G01 X28.6322 Y13.3026
G01 X28.6493 Y13.3009
G01 X28.6750 Y13.3000
G01 X30.3750 Y13.3000
G00 Z2.0000
G00 X27.4282 Y13.3852
G01 F60.00
G01 Z-0.2000
G01 F120.00
G01 X27.4442 Y13.3913
G01 X27.4599 Y13.3983
G01 X27.5353 Y13.4340
G01 X27.5507 Y13.4417
G01 X27.5656 Y13.4502
G01 X27.6372 Y13.4930
G01 X27.6517 Y13.5022
G01 X27.6657 Y13.5121
G01 X27.7327 Y13.5618
G01 X27.7463 Y13.5724
G01 X27.7593 Y13.5836
G01 X27.8211 Y13.6396
G01 X27.8335 Y13.6515
G01 X27.8454 Y13.6639
G01 X27.9014 Y13.7257
G01 X27.9126 Y13.7387
G01 X27.9232 Y13.7523
G01 X27.9729 Y13.8193
G01 X27.9828 Y13.8333
G01 X27.9920 Y13.8478
G01 X28.0348 Y13.9194
G01 X28.0433 Y13.9343
G01 X28.0510 Y13.9497
G01 X28.0867 Y14.0251
G01 X28.0937 Y14.0408
G01 X28.0998 Y14.0568
G01 X28.1279 Y14.1353
G01 X28.1333 Y14.1517
G01 X28.1379 Y14.1682
G01 X28.1582 Y14.2491
G01 X28.1619 Y14.2659
G01 X28.1649 Y14.2828
G01 X28.1771 Y14.3653
G01 X28.1792 Y14.3824
G01 X28.1805 Y14.3995
G01 X28.1846 Y14.4828
G01 X28.1850 Y14.5000
G01 X28.1846 Y14.5172
G01 X28.1805 Y14.6005
G01 X28.1792 Y14.6176
G01 X28.1771 Y14.6347
G01 X28.1649 Y14.7172
G01 X28.1619 Y14.7341
G01 X28.1582 Y14.7509
G01 X28.1379 Y14.8318
G01 X28.1333 Y14.8483
G01 X28.1279 Y14.8647
G01 X28.0998 Y14.9432
G01 X28.0937 Y14.9592
G01 X28.0867 Y14.9749
G01 X28.0510 Y15.0503
G01 X28.0433 Y15.0657
G01 X28.0348 Y15.0806
G01 X27.9920 Y15.1522
G01 X27.9828 Y15.1667
G01 X27.9729 Y15.1807
G01 X27.9232 Y15.2477
G01 X27.9126 Y15.2613
G01 X27.9014 Y15.2743
G01 X27.8454 Y15.3361
G01 X27.8335 Y15.3485
G01 X27.8211 Y15.3604
G01 X27.7593 Y15.4164
G01 X27.7463 Y15.4276
G01 X27.7327 Y15.4382
G01 X27.6657 Y15.4879
G01 X27.6517 Y15.4978
G01 X27.6372 Y15.5070
G01 X27.5656 Y15.5498
G01 X27.5507 Y15.5583
G01 X27.5353 Y15.5660
G01 X27.4599 Y15.6017
G01 X27.4442 Y15.6087
G01 X27.4282 Y15.6148
G01 X27.3497 Y15.6429
G01 X27.3333 Y15.6483
G01 X27.3168 Y15.6529
G01 X27.2359 Y15.6732
G01 X27.2191 Y15.6769
G01 X27.2022 Y15.6799
G01 X27.1197 Y15.6921
G01 X27.1026 Y15.6942
G01 X27.0855 Y15.6955
G01 X27.0022 Y15.6996
G01 X26.9850 Y15.7000
G01 X26.9678 Y15.6996
G01 X26.8845 Y15.6955
G01 X26.8674 Y15.6942
G01 X26.8503 Y15.6921
G01 X26.7678 Y15.6799
G01 X26.7509 Y15.6769
G01 X26.7341 Y15.6732
G01 X26.6532 Y15.6529
G01 X26.6367 Y15.6483
G01 X26.6203 Y15.6429
G01 X26.5418 Y15.6148
G01 X26.5258 Y15.6087
G01 X26.5101 Y15.6017
G01 X26.4347 Y15.5660
G01 X26.4193 Y15.5583
G01 X26.4044 Y15.5498
G01 X26.3328 Y15.5070
G01 X26.3183 Y15.4978
G01 X26.3043 Y15.4879
G01 X26.2373 Y15.4382
G01 X26.2237 Y15.4276
G01 X26.2107 Y15.4164
G01 X26.1489 Y15.3604
G01 X26.1365 Y15.3485
G01 X26.1246 Y15.3361
G01 X26.0686 Y15.2743
G01 X26.0574 Y15.2613
G01 X26.0468 Y15.2477
G01 X25.9971 Y15.1807
G01 X25.9872 Y15.1667
G01 X25.9780 Y15.1522
G01 X25.9352 Y15.0806
G01 X25.9267 Y15.0657
G01 X25.9190 Y15.0503
G01 X25.8833 Y14.9749
G01 X25.8763 Y14.9592
G01 X25.8702 Y14.9432
G01 X25.8421 Y14.8647
G01 X25.8367 Y14.8483
G01 X25.8321 Y14.8318
G01 X25.8118 Y14.7509
G01 X25.8081 Y14.7341
G01 X25.8051 Y14.7172
G01 X25.7929 Y14.6347
G01 X25.7908 Y14.6176
G01 X25.7895 Y14.6005
G01 X25.7854 Y14.5172
G01 X25.7850 Y14.5000
G01 X25.7854 Y14.4828
G01 X25.7895 Y14.3995
G01 X25.7908 Y14.3824
G01 X25.7929 Y14.3653
G01 X25.8051 Y14.2828
G01 X25.8081 Y14.2659
G01 X25.8118 Y14.2491
G01 X25.8321 Y14.1682
G01 X25.8367 Y14.1517
G01 X25.8421 Y14.1353
G01 X25.8702 Y14.0568
G01 X25.8763 Y14.0408
G01 X25.8833 Y14.0251
G01 X25.9190 Y13.9497
G01 X25.9267 Y13.9343
G01 X25.9352 Y13.9194
G01 X25.9780 Y13.8478
G01 X25.9872 Y13.8333
G01 X25.9971 Y13.8193
G01 X26.0468 Y13.7523
G01 X26.0574 Y13.7387
G01 X26.0686 Y13.7257
G01 X26.1246 Y13.6639
G01 X26.1365 Y13.6515
G01 X26.1489 Y13.6396
G01 X26.2107 Y13.5836
G01 X26.2237 Y13.5724
G01 X26.2373 Y13.5618
G01 X26.3043 Y13.5121
G01 X26.3183 Y13.5022
G01 X26.3328 Y13.4930
G01 X26.4044 Y13.4502
G01 X26.4193 Y13.4417
G01 X26.4347 Y13.4340
G01 X26.5101 Y13.3983
G01 X26.5258 Y13.3913
G01 X26.5418 Y13.3852
G01 X26.6203 Y13.3571
G01 X26.6367 Y13.3517
G01 X26.6532 Y13.3471
G01 X26.7341 Y13.3268
G01 X26.7509 Y13.3231
G01 X26.7678 Y13.3201
G01 X26.8503 Y13.3079
G01 X26.8674 Y13.3058
G01 X26.8845 Y13.3045
G01 X26.9678 Y13.3004
G01 X26.9850 Y13.3000
G01 X27.0022 Y13.3004
G01 X27.0855 Y13.3045
G01 X27.1026 Y13.3058
G01 X27.1197 Y13.3079
G01 X27.2022 Y13.3201
G01 X27.2191 Y13.3231
G01 X27.2359 Y13.3268
G01 X27.3168 Y13.3471
G01 X27.3333 Y13.3517
G01 X27.3497 Y13.3571
G01 X27.4282 Y13.3852
G00 Z2.0000
M05
G00 Z2.0000
G00 Z15.00


